ipa-fxm/offline_grasp_database/grasping/grasp_generated/Openrave/salt/salt.csv
"id","object","sdh_knuckle_joint","sdh_finger_12_joint","sdh_finger_13_joint","sdh_finger_22_joint","sdh_finger_23_joint","sdh_thumb_2_joint","sdh_thumb_3_joint","direction","qw","qx","qy","qz","pos-x","pos-y","pos-z","eps_l1","vol_l1","indicee"
"0","salt","0.755","-0.710796312024","1.57079632679","-0.932796316049","1.57079632679","-0.399796307031","0.934000015026","TOP","0.500319211901","0.49020436392","-0.508980406301","0.500319211901","3.56744759846","250.155604205","-0.91939464341","0.003080907","0.000047406","10"
"1","salt","0.0","-1.18479631824","1.57079632679","1.09820371523","1.57079632679","0.0142036995941","1.32500002056","SIDE","0.0121063330406","0.999911819691","-0.00545797973788","-5.97990229089e-17","1.6124717816","135.300383011","135.025124948","0.001704504","0.000002903","13"
"2","salt","0.0","1.03220371209","1.57079632679","-0.505796308806","1.14900001872","0.0112036994516","0.13200000301","SIDE","0.999926715665","-0.0121061526917","6.60809631344e-05","7.51796835619e-21","1.57297279797","128.064097334","-163.777262875","0.006552007","0.000010889","15"
"3","salt","0.0","1.03220371209","1.57079632679","-1.05279631849","1.57079632679","-0.137796304366","1.48200002476","SIDE","1.36879041785e-16","0.00545797973787","0.999911819691","-0.0121063330406","1.61251142728","135.307646171","135.325037029","0.000033748","0.000007450","17"
"4","salt","0.755","-0.100796302608","0.298000007635","0.0212036999266","-2.80187965087e-14","-1.57079632679","1.57079632679","TOP","0.501142779168","0.511355782754","0.486031987856","-0.501142779168","4.26601010822","250.352771502","-24.3997279753","0.000395755","0.000069277","22"
"5","salt","0.0","-0.514796309234","1.16400001943","1.09820371523","1.57079632679","0.0142036995941","0.209000003408","SIDE","0.0121063330406","0.999911819691","-0.00545797973788","-5.98125766312e-17","1.61576369392","135.903467338","159.927823164","0.001647075","0.000011482","31"
"6","salt","0.0","1.03220371209","1.57079632679","-0.442796309074","1.06700001808","-0.0637963041107","0.313000005088","SIDE","1.36879041785e-16","0.00545797973787","0.999911819691","-0.0121063330406","1.6158033396","135.910730498","160.227735245","0.000045240","0.000026826","36"
"7","salt","0.0","-0.886796313864","1.50879632711","-0.919796315432","1.56579632982","0.100203700419","0.0","SIDE","-1.38549577419e-16","0.741845394739","0.0050864232741","-0.670551667363","155.523599295","113.649530924","32.2275922225","0.011905426","0.000037489","38"
"8","salt","0.0","-0.259796306901","1.12800001772","-0.253796306616","1.0590000177","-0.578796309014","1.38000002317","SIDE","5.8458363235e-19","0.670535906313","0.00459749358044","0.741862831929","-154.882491946","111.521248113","0.802664075741","0.013036113","0.000052578","45"
"9","salt","0.0","-0.863796316032","1.38800002355","-0.892796314149","1.44900002319","0.114203701084","0.38000000827","SIDE","0.741862831929","-0.00459749358044","0.670535906313","-7.48267049408e-17","-156.872274736","111.507605274","0.601222217582","0.014950880","0.000063718","47"
"10","salt","0.755","0.106203700704","-1.27291012162e-14","-0.679796310552","1.25800002064","-0.208796304479","0.415000006673","TOP","0.500726934431","0.481984900767","-0.515980260963","0.500726934431","-10.6133684957","276.07108656","-1.1644137331","0.004251303","0.000019909","59"
"11","salt","0.755","-0.271796304211","0.595000011963","-0.436796308789","0.926000014646","-0.204796304289","0.410000006435","TOP","0.500319211901","0.49020436392","-0.508980406301","0.500319211901","4.03545741215","275.061187003","-0.951211070186","0.015485738","0.000151542","61"
"12","salt","3.83428098299e-16","-0.645796312196","1.25700002059","-0.639796311911","1.20700001821","-0.202796304194","0.40400000615","TOP","0.500319211901","0.49020436392","-0.508980406301","0.500319211901","4.0429726244","275.461116098","-0.951721972293","0.012591350","0.000089326","62"
"13","salt","0.755","0.0532036981869","0.0","-0.671796310172","1.28600002197","-0.214796304764","0.427000007243","TOP","0.499858298744","0.528007312029","0.470628984229","-0.499858298744","28.9868841992","273.672377898","-0.712556928759","0.011903118","0.000048701","63"
"14","salt","0.755","-0.417796307886","0.892000016291","-0.299796305541","0.646000011126","-0.195796303861","0.389000008698","TOP","0.500319211901","0.508980406301","0.49020436392","-0.500319211901","4.03733621522","275.161169277","-0.95133879571","0.013640138","0.000108459","64"
"15","salt","0.0","-0.655796312671","1.21700001869","-0.639796311911","1.24500002002","-0.193796303766","0.383000008413","TOP","0.500319211901","0.508980406301","0.49020436392","-0.500319211901","4.0429726244","275.461116098","-0.951721972291","0.012439534","0.000085276","65"
"16","salt","0.0","1.03220371209","1.57079632679","-0.628796311389","1.15300001891","-0.209796304526","0.418000006815","TOP","0.500726934431","0.481984900767","-0.515980260963","0.500726934431","-10.6167729744","275.971144947","-1.16412274794","0.008708064","0.000024299","73"
"17","salt","0.0","-0.998796315925","1.48200002476","1.09820371523","1.57079632679","0.110203700894","3.9925774661e-16","TOP","0.501900712941","0.480164321725","-0.515396520013","0.501900712941","26.2210033118","275.477491724","-24.9143818101","0.000884046","0.000004779","74"
"18","salt","0.0","1.03220371209","1.57079632679","-0.625796311246","1.15300001891","-0.211796304621","0.417000006768","TOP","0.499858298744","0.528007312029","0.470628984229","-0.499858298744","29.0155652343","274.171554569","-0.712273566389","0.008519919","0.000022321","76"
"19","salt","0.0","-0.923796315622","1.43500002252","-0.978796314975","1.49100002518","0.107203700752","1.12225219007e-16","TOP","0.501142779168","0.486031987856","-0.511355782754","0.501142779168","4.93126378341","276.55405305","-24.5196738589","0.003817082","0.000025892","77"
"20","salt","0.0","-0.679796310552","1.2320000194","1.09820371523","1.57079632679","-0.200796304099","0.42000000691","TOP","-0.499858298744","-0.470628984229","0.528007312029","-0.499858298744","29.0270376483","274.371225238","-0.712160221441","0.006470698","0.000028577","81"
"21","salt","0.755","0.0492036979969","0.0","-0.894796314244","1.51379632735","0.0682036988994","-4.09094542666e-16","TOP","0.495182271431","0.529324077839","0.478962479471","-0.495182271431","28.0576362177","274.238721648","21.6980092978","0.001859337","0.000024594","83"
"22","salt","0.755","-0.396796306889","0.847000014153","0.0822036995643","-8.82262961507e-16","-0.669796313336","1.25600002054","TOP","-0.495182271431","-0.478962479471","0.529324077839","-0.495182271431","28.0426733144","273.939150253","21.6922558757","0.008765665","0.000057676","84"
"23","salt","0.0","-0.217796304906","0.41200000653","1.09820371523","1.57079632679","-0.669796313336","1.25600002054","TOP","-0.495182271431","-0.478962479471","0.529324077839","-0.495182271431","28.0426733144","273.939150253","21.6922558757","0.006538531","0.000025463","85"
"24","salt","3.76299469015e-16","-0.952796316999","1.47800002457","-0.946796316714","1.51179632725","0.0832036996118","2.44701770208e-16","TOP","0.498943746561","0.511416821241","0.49047233407","-0.498943746561","4.33867169497","276.375969034","19.7677631778","0.004185925","0.000006980","86"
"25","salt","0.0","-0.678796310504","1.2320000194","1.09820371523","1.57079632679","-0.190796303624","0.39600000903","TOP","0.500726934431","0.515980260963","0.481984900767","-0.500726934431","-10.6133684957","276.07108656","-1.1644137331","0.007345888","0.000030011","91"
"26","salt","0.755","-0.0257963023058","0.0770000036573","-0.071796301231","0.187000005622","-0.672796310219","1.22400001902","TOP","-0.498943746561","-0.49047233407","0.511416821241","-0.498943746561","4.31568142756","275.276219042","19.7631205713","0.018861886","0.000107448","96"
"27","salt","2.95363776839e-16","-0.174796302864","0.437000007718","-0.159796305411","0.353000006988","-0.672796310219","1.22400001902","TOP","-0.498943746561","-0.49047233407","0.511416821241","-0.498943746561","4.31568142756","275.276219042","19.7631205713","0.015486207","0.000083905","97"
"28","salt","0.0","-0.191796303671","1.22800001921","-0.209796304526","1.16000001924","-0.643796312101","1.53079632815","SIDE","0.670551667363","0.0050864232741","-0.741845394739","8.2784301245e-17","153.334838227","113.634523801","32.0060061785","0.001983851","0.000017974","100"
"29","salt","0.0","1.03220371209","1.57079632679","-0.937796316287","1.47300002433","0.0692036989469","-1.71127404397e-16","TOP","0.495182271431","0.529324077839","0.478962479471","-0.495182271431","28.0775867555","274.638150175","21.7056805271","0.005657231","0.000007193","111"
"30","salt","0.755","0.105203700657","9.4910269538e-16","-0.232796305618","0.498000010615","-0.731796313022","1.29800002254","TOP","0.501900712941","0.515396520013","0.480164321725","-0.501900712941","26.189173792","274.578080814","-24.9075262374","0.006775030","0.000054368","112"
"31","salt","0.0","1.03220371209","1.57079632679","-0.0847963018485","0.143000003532","-0.731796313022","1.29800002254","TOP","0.501900712941","0.515396520013","0.480164321725","-0.501900712941","26.189173792","274.578080814","-24.9075262374","0.009388177","0.000018979","113"
"32","salt","3.29787195816e-16","-0.110796303083","0.239000004833","-0.0647963041582","0.194000005955","-0.732796313069","1.30100001942","TOP","0.501142779168","0.511355782754","0.486031987856","-0.501142779168","4.89826760527","275.254485403","-24.513724616","0.012778105","0.000082492","115"
"33","salt","0.755","-0.0447963032082","0.119000002393","0.0202036998791","0.0","-0.732796313069","1.30100001942","TOP","0.501142779168","0.511355782754","0.486031987856","-0.501142779168","4.89826760527","275.254485403","-24.513724616","0.009449679","0.000055158","116"
"34","salt","0.0","-1.4887963229","1.57079632679","-1.57079632679","1.57079632679","0.168203700389","1.45600002352","SIDE","0.741862831929","-0.00459749358044","0.670535906313","-7.48267049408e-17","-132.089531638","111.677526826","3.11018040439","0.003664981","0.000026969","117"
"35","salt","0.755","-0.256796306758","0.519000008353","0.100203700419","1.54243388171e-16","-0.461796309976","0.925000014598","TOP","0.709794795206","0.703967822276","-0.0249129263254","-2.7861359029e-16","26.1821005654","274.378211723","-24.9060027768","0.004039333","0.000054137","121"
"36","salt","0.755","-0.702796311644","1.33900002122","0.0482036979494","-7.93791931364e-16","-0.204796304289","0.43200000748","TOP","-0.499858298744","-0.470628984229","0.528007312029","-0.499858298744","28.9868841992","273.672377898","-0.71255692876","0.006831752","0.000068019","125"
"37","salt","0.0","-0.089796302086","0.142000003485","-0.0337963026857","0.0","-0.475796307381","0.978000017116","TOP","0.706906385349","0.706142497023","-0.0405726046801","-1.32514106032e-16","28.9811479921","273.572542564","-0.712613601235","0.011136665","0.000063618","126"
"38","salt","0.755","-0.102796302703","0.210000003455","-0.0637963041107","0.119000002393","-0.475796307381","0.978000017116","TOP","0.706906385349","0.706142497023","-0.0405726046801","-1.32514106032e-16","28.9811479921","273.572542564","-0.712613601235","0.014462873","0.000108393","127"
"39","salt","0.755","-0.407796307411","0.799000015133","-0.303796305731","0.602000009036","0.0832036996118","-1.84620386463e-16","TOP","0.498943746561","0.511416821241","0.49047233407","-0.498943746561","4.31568142756","275.276219042","19.7631205713","0.011645925","0.000063650","135"
"40","salt","0.755","0.0382036974744","-1.02528323482e-14","-0.924796315669","1.49900002556","0.116203701179","0.0","TOP","1.41750774007e-16","-0.0249129263254","-0.703967822276","0.709794795206","26.2210033118","275.477491724","-24.9143818101","0.004707994","0.000030337","136"
"41","salt","0.755","-0.688796310979","1.28200002178","0.0232037000216","0.018000000855","-0.0727963012785","0.142000003485","TOP","-1.95891487891e-16","0.0148099889067","0.708442615718","-0.705613013247","4.31568142756","275.276219042","19.7631205713","0.008840903","0.000077889","139"
"42","salt","0.755","-0.898796314434","1.49600002542","-0.0127963016883","0.0150000007125","0.113203701037","-2.29699212914e-16","TOP","-1.89782375868e-16","0.0356110277171","0.712966262054","-0.700293484104","28.0576362177","274.238721648","21.6980092978","0.005203223","0.000024368","140"
"43","salt","0.755","-0.262796307043","0.533000009018","-0.456796309739","0.882000015816","0.107203700752","-8.96068531804e-16","TOP","0.501142779168","0.486031987856","-0.511355782754","0.501142779168","4.90080577282","275.354452145","-24.51418225","0.006005059","0.000019015","141"
"44","salt","0.0","1.03220371209","1.57079632679","-0.431796308551","0.845000014058","-0.081796301706","0.143000003533","TOP","2.44767516232e-17","-0.0179066270976","-0.70525965607","0.708722914985","4.89826760527","275.254485403","-24.513724616","0.007464276","0.000018875","142"
"45","salt","0.755","0.0732036991369","5.55020958016e-15","-0.147796304841","0.249000005308","-0.474796307334","0.958000016166","TOP","0.700293484104","0.712966262054","-0.0356110277171","-1.9817102576e-16","28.0426733144","273.939150253","21.6922558757","0.005354186","0.000049957","143"
"46","salt","0.0","-0.0467963033032","0.13200000301","-0.0117963016408","0.0610000028973","-0.492796308189","0.926000014646","TOP","1.42083058933e-16","-0.0240383497236","-0.705667933247","0.708134821717","-10.609964017","276.171028173","-1.16470471827","0.015175288","0.000080758","144"
"47","salt","0.755","-0.0767963014685","0.203000003123","-0.0547963036832","0.175000005052","-0.492796308189","0.926000014646","TOP","1.42083058933e-16","-0.0240383497236","-0.705667933247","0.708134821717","-10.609964017","276.171028173","-1.16470471827","0.015924243","0.000126634","145"
"48","salt","0.0","-0.458796309834","0.885000015958","1.09820371523","1.57079632679","-0.071796301231","0.139000003343","TOP","-1.95891487891e-16","0.0148099889067","0.708442615718","-0.705613013247","4.31986147618","275.476173586","19.7639646816","0.005028070","0.000040848","146"
"49","salt","0.755","-0.545796310706","1.05700001761","-0.653796312576","1.23100001935","0.0992037003718","0.0","TOP","7.85268776485e-17","-0.0405726046801","-0.706142497023","0.706906385349","28.9868841992","273.672377898","-0.712556928761","0.012893095","0.000074948","151"
"50","salt","0.0","-0.839796314892","1.45400002343","-0.804796313229","1.424000022","0.100203700419","-4.70847935023e-16","TOP","8.83427373546e-17","-0.0405726046801","-0.706142497023","0.706906385349","29.0442462694","274.67073124","-0.711990204021","0.004031261","0.000032393","156"
"51","salt","0.755","-0.708796311929","1.29000002216","0.102203700514","-5.1672581097e-16","-0.189796303576","0.393000008888","TOP","0.500726934431","0.515980260963","0.481984900767","-0.500726934431","-10.609964017","276.171028173","-1.16470471827","0.007363734","0.000056303","159"
"52","salt","0.755","-0.771796311662","1.37600002298","0.0582036984244","1.97515732055e-14","0.00520369916665","0.0","TOP","0.708722914985","0.70525965607","-0.0179066270976","-2.20290764609e-16","4.90080577282","275.354452145","-24.51418225","0.007012508","0.000025868","164"
"53","salt","0.0","-0.559796311371","1.04700001713","1.09820371523","1.57079632679","0.00520369916665","0.0","TOP","0.708722914985","0.70525965607","-0.0179066270976","-2.17843089446e-16","4.90334394037","275.454418887","-24.5146398841","0.002565558","0.000007201","165"
"54","salt","0.755","-0.829796314417","1.43100002233","0.0632036986619","-1.29456556125e-15","0.110203700894","-1.99022671395e-15","TOP","0.501900712941","0.480164321725","-0.515396520013","0.501900712941","26.2174666985","275.377557178","-24.9136200798","0.004727489","0.000029534","166"
"55","salt","0.0","-0.450796309454","0.896000016481","-0.440796308979","0.887000016053","-0.079796301611","0.146000003675","TOP","1.17681803537e-16","-0.0132766668916","-0.706530326682","0.707558214986","4.04485142747","275.561098371","-0.951849697819","0.015394587","0.000078570","171"
"56","salt","0.0","-0.087796301991","0.139000003343","1.09820371523","1.57079632679","-0.461796309976","0.925000014598","TOP","0.709794795206","0.703967822276","-0.0249129263254","-2.7861359029e-16","26.1821005654","274.378211723","-24.9060027768","0.004970897","0.000028277","172"
"57","salt","0.755","-0.377796305986","0.791000014753","-0.381796306176","0.809000012348","-0.0807963016585","0.150000003865","TOP","1.17681803537e-16","-0.0132766668916","-0.706530326682","0.707558214986","4.03545741215","275.061187003","-0.951211070184","0.017334759","0.000127532","174"
"58","salt","0.0","1.03220371209","1.57079632679","-0.0427963031132","0.00300000014249","-0.474796307334","0.958000016166","TOP","0.700293484104","0.712966262054","-0.0356110277171","-2.03125301404e-16","28.0426733144","273.939150253","21.6922558757","0.008146680","0.000020942","175"
"59","salt","0.755","-0.437796308836","0.910000013886","-0.452796309549","0.936000015121","-0.00679630140332","-1.28797832911e-15","TOP","0.707558214986","0.706530326682","-0.0132766668916","-1.78974409546e-16","4.03357860909","274.96120473","-0.951083344658","0.010304267","0.000058907","178"
"60","salt","0.755","-0.559796311371","1.07400001842","-0.632796311579","1.1780000201","0.139203699012","0.0","TOP","0.708134821717","0.705667933247","-0.0240383497236","-2.5966903874e-16","-10.6133684957","276.07108656","-1.1644137331","0.001681710","0.000028151","179"
"61","salt","0.0","-0.843796315082","1.39900002407","-0.824796314179","1.37500002293","0.139203699012","0.0","TOP","0.708134821717","0.705667933247","-0.0240383497236","-2.5966903874e-16","-10.5691102725","277.370327535","-1.16819654023","0.004451172","0.000032562","182"
"62","salt","0.0","1.03220371209","1.57079632679","-0.525796309756","0.995000017923","-0.00379630126083","0.0","TOP","0.705613013247","0.708442615718","-0.0148099889067","-2.55680150613e-16","4.31777145187","275.376196314","19.7635426265","0.004892818","0.000008353","188"
"63","salt","0.755","-0.00179630116583","3.80710825815e-16","-0.730796312974","1.33400002099","-0.00379630126083","-2.2203274583e-16","TOP","0.705613013247","0.708442615718","-0.0148099889067","-2.55680150613e-16","4.31359140325","275.17624177","19.7626985162","0.003586931","0.000021914","189"
"64","salt","0.0","-0.838796314844","1.41100002138","1.09820371523","1.57079632679","0.114203701084","0.0","TOP","-1.94648590634e-16","0.0356110277171","0.712966262054","-0.700293484104","28.08257439","274.738007307","21.7075983345","0.001459649","0.000006145","191"
"65","salt","0.0","-0.544796310659","1.06700001808","-0.527796309851","1.02900001628","-0.00579630135582","0.0","TOP","0.707558214986","0.706530326682","-0.0132766668916","-1.76522705305e-16","4.0429726244","275.461116098","-0.951721972292","0.009221355","0.000043858","192"
"66","salt","0.0","1.03220371209","1.57079632679","-0.808796313419","1.36700002255","0.116203701179","0.0","TOP","1.41750774007e-16","-0.0249129263254","-0.703967822276","0.709794795206","26.2245399251","275.577426269","-24.9151435404","0.004899132","0.000006921","196"
