ipa-fxm/offline_grasp_database/grasping/grasp_generated/Openrave/mildessa/mildessa.csv
"id","object","sdh_knuckle_joint","sdh_finger_12_joint","sdh_finger_13_joint","sdh_finger_22_joint","sdh_finger_23_joint","sdh_thumb_2_joint","sdh_thumb_3_joint","direction","qw","qx","qy","qz","pos-x","pos-y","pos-z","eps_l1","vol_l1","indicee"
"0","mildessa","0.0","-0.601796310107","0.594000011915","-0.552796311039","0.755000013043","-0.402796307174","0.631000010413","SIDE","1.01482928906e-16","0.820499839181","-0.0803729658195","0.565968373913","-166.49840225","90.4155009881","67.5442160633","0.011648678","0.000054701","426"
"1","mildessa","0.0","-0.648796312339","0.58800001163","-0.572796308729","0.742000012426","-0.375796305891","0.590000011725","SIDE","-7.81292052002e-18","0.888130614683","-0.0937218973018","0.449933569796","-144.527781429","89.5940221905","107.766410786","0.010184823","0.000058282","459"
"2","mildessa","0.0","-1.31279632106","1.57079632679","-0.812796313609","1.32300002046","-0.393796306746","0.978000017116","SIDE","1.22479695628e-16","-0.670365726895","0.0904746428782","0.736494488235","159.689234478","63.7196410299","-8.27739686723","0.009253056","0.000087578","468"
"3","mildessa","0.0","-1.13879631931","1.57079632679","-1.14179631946","1.57079632679","-0.619796310961","1.51479632739","SIDE","0.950367234519","0.0017897165368","0.311125242413","-2.39573133366e-17","-89.9177995258","79.0459565415","-122.772863694","0.007360837","0.000039135","553"
"4","mildessa","0.0","-1.27879631944","1.57079632679","-1.05879631877","1.57079632679","-0.441796309026","1.24200001988","SIDE","-3.84637514341e-17","0.811803877765","-0.0346178504934","-0.582903138157","145.263779899","74.4201352673","55.2229686745","0.005040808","0.000029103","559"
"5","mildessa","0.0","-0.721796312547","0.742000012426","-0.526796309804","0.334000006085","-0.257796306806","0.150000003865","SIDE","1.41322725725e-16","-0.670365726895","0.0904746428782","0.736494488235","184.286397906","60.3999313733","-10.3909670837","0.007125608","0.000043180","569"
"6","mildessa","0.0","-0.700796311549","0.797000015038","-0.609796310487","0.654000011506","-0.279796304591","0.363000007463","SIDE","-3.84637514341e-17","0.811803877765","-0.0346178504934","-0.582903138157","168.83875475","73.4148247765","63.2053249432","0.012067134","0.000056295","574"
"7","mildessa","0.0","-1.17079631757","0.907000013744","-0.866796316174","1.26900002116","0.209203702337","2.02996189274e-16","TOP","0.437604024668","0.615605226195","-0.487888963464","0.437604024668","1.63199171987","267.831095849","-3.53649756129","0.003546391","0.000025589","597"
"8","mildessa","0.0","-0.567796311751","0.598000012105","-0.625796311246","0.760000013281","-0.334796307204","0.439000007813","SIDE","0.891771524926","-0.0229436187617","0.451903903159","-1.67291974193e-16","-146.452902458","73.3574670754","-105.439949638","0.014725064","0.000078140","626"
"9","mildessa","0.0","-1.08879631694","1.57079632679","0.290203702925","0.0","-0.653796312576","1.56479632977","SIDE","1.03068846744e-16","0.942520632797","0.068156030611","0.327123237088","-94.5688570993","94.1230741237","121.892467629","0.006434597","0.000032800","634"
"10","mildessa","0.0","-0.572796308729","0.773000013898","0.254203701215","2.93142642573e-14","-0.387796306461","0.617000009748","SIDE","1.03068846744e-16","0.942520632797","0.068156030611","0.327123237088","-109.929379448","93.0123162315","141.471248747","0.007336379","0.000028875","637"
"11","mildessa","0.0","-0.601796310107","0.773000013898","-0.608796310439","0.797000015038","-0.370796305654","0.605000009178","SIDE","0.837853644973","0.00187582493204","0.545891702525","2.74332948178e-17","-162.364736888","79.096852062","-71.5136790218","0.002574886","0.000033415","640"
"12","mildessa","0.0","-0.658796312814","0.786000014516","-0.648796312339","0.779000014183","-0.298796305494","0.461000008858","SIDE","-2.00552530372e-16","0.880109133268","-0.00489034519964","-0.474746245969","146.78027564","78.0995857298","102.109816819","0.008365576","0.000071471","660"
"13","mildessa","0.0","-0.604796310249","1.155000019","-1.08179631661","1.57079632679","-0.569796311846","1.43800002267","SIDE","0.550242643857","0.0378142957004","0.834148135478","-5.04424292182e-17","-141.343100888","102.979321017","61.8453131576","0.013874545","0.000057101","689"
"14","mildessa","0.0","-1.200796319","1.57079632679","-1.57079632679","1.57079632679","-0.475796307381","1.33500002103","SIDE","-2.01045288432e-16","0.880109133268","-0.00489034519964","-0.474746245969","125.964059418","78.2152514799","88.4284476029","0.007247617","0.000029040","693"
"15","mildessa","0.0","-0.595796309822","0.759000013233","-0.598796309964","0.777000014088","-0.371796305701","0.589000011678","SIDE","0.950367234519","0.0017897165368","0.311125242413","-2.38432308921e-17","-104.648738354","79.1306947795","-142.860182098","0.016657553","0.000081509","696"
"16","mildessa","0.0","-0.602796310154","0.362000007415","-0.580796309109","0.682000012835","-0.331796307061","0.464000009","SIDE","5.82253697776e-17","0.715038196966","-0.104562468787","0.691221431236","-182.051159481","97.8651961191","7.14956928826","0.005950692","0.000033467","700"
"17","mildessa","0.0","-0.668796313289","0.765000013518","-0.494796308284","0.38000000827","-0.305796305826","0.199000006192","SIDE","0.703970254131","0.093895077055","0.70399545155","-2.16849596968e-16","-185.457354905","76.6502298906","2.46076878453","0.009470407","0.000049996","704"
"18","mildessa","0.0","-0.488796307999","-3.30277331501e-16","-1.14179631946","1.04900001723","0.173203700627","0.231000004453","TOP","-0.433682334269","-0.39066258236","0.686456125787","-0.433682334269","19.9324776751","266.599169526","-0.428828667215","0.006292138","0.000033048","710"
"19","mildessa","0.0","-0.995796315782","1.57079632679","-1.12479631865","1.57079632679","-0.542796310564","1.41300002148","SIDE","0.850096068905","0.0198416751797","0.526253723557","-1.38762194864e-16","-138.577084063","102.188848703","-66.2928568546","0.005242290","0.000024303","711"
"20","mildessa","0.0","-1.22979632038","1.57079632679","-0.763796314541","1.3280000207","-0.477796307476","1.09700001951","SIDE","0.703970254131","0.093895077055","0.70399545155","-2.16849596968e-16","-160.766968593","73.3571607092","2.24027137825","0.009326998","0.000075449","714"
"21","mildessa","0.0","-0.520796309519","0.0","-1.10679631779","1.57079632679","-0.604796310249","1.49600002542","SIDE","0.195289217498","0.00462223718636","0.980734804344","-6.06919413952e-17","-60.645305284","98.8832202376","142.145320185","0.011105175","0.000042572","723"
"22","mildessa","0.0","-1.03679631773","1.57079632679","-1.10379631765","1.57079632679","-0.548796310849","1.41500002157","SIDE","0.893411529028","0.0280470770333","0.448362800944","7.96090717482e-17","-124.101579403","103.879055537","-89.5863757059","0.003646027","0.000017724","724"
"23","mildessa","3.88578058619e-16","-0.524796309709","2.89331874773e-15","-1.15579632012","1.10000001965","0.112203700989","0.359000007273","TOP","0.535178467825","0.276535055364","0.59219623294","-0.535178467825","-17.2428737315","270.433997405","-3.05261737674","0.002636770","0.000032181","725"
"24","mildessa","0.0","-0.550796310944","0.0","-0.587796309442","0.697000013548","-0.334796307204","0.477000009618","SIDE","0.45669830475","0.0284942737239","0.889165189829","9.75478738833e-17","-146.039899404","102.05507664","106.287928623","0.004290762","0.000010917","730"
"25","mildessa","0.0","-1.57079632679","1.55779632944","-1.24379632104","1.57079632679","0.278203702355","0.0","TOP","0.437604024668","0.615605226195","-0.487888963464","0.437604024668","4.4163892021","243.773341749","-9.36570834242","0.009141954","0.000035045","736"
"26","mildessa","0.0","-0.558796311324","-1.34015774165e-16","-1.13379631908","1.57079632679","-0.547796310801","1.4260000221","SIDE","-0.316244773853","0.00547063279034","0.948661855029","-4.04577845125e-17","91.3790097222","98.3405991194","123.80847988","0.008284546","0.000035421","738"
"27","mildessa","0.0","-0.543796310611","0.0","-0.586796309394","0.737000012188","-0.352796308059","0.543000009493","SIDE","0.550242643857","0.0378142957004","0.834148135478","-5.04424292182e-17","-164.209677562","104.015927652","71.6714628557","0.004417529","0.000010178","739"
"28","mildessa","0.0","-1.0067963163","1.57079632679","-1.08279631665","1.57079632679","-0.585796309347","1.46300002385","SIDE","0.976578342224","0.0222233699846","0.214011362609","-3.37502324376e-17","-64.4838031793","103.18493244","-137.973146352","0.003741582","0.000015749","741"
"29","mildessa","0.0","-1.14379631955","1.57079632679","-0.220796305049","0.0","-0.526796309804","1.39400002384","SIDE","6.43400908779e-17","0.980734804344","-0.00462223718636","0.195289217498","-61.0245286318","98.8850075304","143.059807238","0.003548314","0.000043387","743"
"30","mildessa","0.0","-1.01979631692","1.57079632679","-1.0067963163","1.57079632679","-0.581796309157","1.43800002267","SIDE","1.48882732123e-16","-0.292700272208","-0.0384221696223","0.955431990008","84.2085895328","106.332546714","-126.070604629","0.004250826","0.000016030","745"
"31","mildessa","0.0","-0.99679631583","1.57079632679","-1.04279631801","1.57079632679","-0.629796311436","1.51479632739","SIDE","0.951254958263","0.0289083885256","0.307047731556","3.64723139871e-18","-88.6935550302","104.356443974","-123.523441941","0.004036815","0.000018204","746"
"32","mildessa","0.0","-1.01379631664","1.57079632679","-0.995796315782","1.57079632679","-0.582796309204","1.43700002262","SIDE","3.94713498069e-16","-0.215667699872","-0.0395340919308","0.975666182056","62.9528212125","106.727583649","-138.112534155","0.003498788","0.000016070","748"
"33","mildessa","0.0","-1.13279631903","1.57079632679","-0.997796315877","1.57079632679","-0.505796308806","1.3680000226","SIDE","5.7639032529e-17","-0.513927919828","-0.0122801208584","0.857745470319","135.821531375","100.894667337","-69.3740001376","0.004864935","0.000020570","749"
"34","mildessa","0.0","-0.520796309519","0.0","-0.591796309632","0.771000013803","-0.367796308771","0.585000011488","SIDE","0.195289217498","0.00462223718636","0.980734804344","-6.09130413638e-17","-70.1871770618","98.9281914106","165.15529108","0.007227812","0.000016862","750"
"35","mildessa","0.0","-0.548796310849","-5.26538888836e-16","-0.604796310249","0.754000012996","-0.338796307394","0.54400000954","SIDE","-0.316244773853","0.00547063279034","0.948661855029","-4.06863595662e-17","106.325475729","98.2544075785","143.735943967","0.007030253","0.000017666","751"
"36","mildessa","0.0","-1.11679631827","1.57079632679","-1.05079631839","1.57079632679","-0.501796308616","1.3490000217","SIDE","2.27951962419e-16","0.307047731556","-0.0289083885256","0.951254958263","-89.511380977","104.433441873","-124.6571228","0.002809614","0.000021381","752"
"37","mildessa","1.66533453694e-16","-0.970796314595","1.57079632679","-0.735796313212","1.27600002149","-0.503796308711","1.29600002244","SIDE","1.35249627906e-16","-0.692876536507","-0.0634305586928","0.718260864437","153.714733001","108.300719792","-2.09242213893","0.012012621","0.000050158","754"
"38","mildessa","0.0","-0.553796311086","0.0","-1.06379631901","1.57079632679","-0.540796310469","1.38100002322","SIDE","0.45669830475","0.0284942737239","0.889165189829","9.9498831361e-17","-125.808982104","101.406754706","91.7690525","0.008587958","0.000039040","756"
"39","mildessa","0.0","-0.560796311419","2.58507340505e-16","-1.12779631879","1.57079632679","-0.526796309804","1.38600002346","SIDE","0.54167274097","-0.00213764108819","-0.840586742806","9.60759151109e-18","139.537429234","98.4572914246","64.1427850877","0.006841605","0.000034020","757"
"40","mildessa","0.0","-1.08679631684","1.57079632679","-0.921796315527","1.57079632679","-0.576796308919","1.44900002319","SIDE","3.39794818437e-16","0.448362800944","-0.0280470770333","0.893411529028","-124.261808412","103.88907857","-89.7056493774","0.005036124","0.000021496","761"
"41","mildessa","0.755","-0.697796311407","1.30200001947","-0.709796311977","1.32200002042","-0.646796312244","1.21600001864","TOP","-9.83777387411e-17","0.00118733860248","0.710842117538","-0.703350605432","-0.626700165637","247.999617854","2.69019898633","0.016590923","0.000154815","765"
"42","mildessa","0.755","-0.711796312072","1.32500002056","-0.705796311787","1.32300002046","-0.642796312054","1.20500001812","TOP","0.703350605432","0.710842117538","-0.00118733860248","-1.96384784072e-16","-0.626867188711","247.899623601","2.68913940109","0.017053218","0.000121371","773"
"43","mildessa","0.0","-1.13779631927","1.57079632679","-1.16879632074","1.57079632679","-0.622796311104","1.53079632815","SIDE","0.837853644973","0.00187582493204","0.545891702525","2.74332948178e-17","-139.660525099","79.0188345242","-61.486462045","0.003916460","0.000036353","776"
"44","mildessa","0.0","-0.927796315812","1.57079632679","-1.06679631915","1.57079632679","-0.535796310231","1.37800002308","SIDE","-0.447097686809","-0.0124270713512","0.894398807215","3.68512857773e-17","122.795311585","99.8598768172","94.2633274581","0.003773115","0.000022300","778"
"45","mildessa","0.0","-1.12479631865","1.57079632679","-1.03179631749","1.57079632679","-0.539796310421","1.4050000211","SIDE","3.96121149136e-16","0.214011362609","-0.0222233699846","0.976578342224","-64.4461833842","103.181025925","-137.891479405","0.003008339","0.000022018","781"
"46","mildessa","0.0","-0.540796310469","0.0","-0.603796310202","0.790000014706","-0.355796308201","0.569000010728","SIDE","0.894785751009","-0.000447244468865","-0.446495531629","-1.73604760791e-16","141.424219092","98.5952005812","-104.987903811","0.004722298","0.000012478","782"
"47","mildessa","0.0","-1.13279631903","1.57079632679","-1.00579631626","1.57079632679","-0.603796310202","1.5107963272","SIDE","-2.44874461524e-17","0.526253723557","-0.0198416751797","0.850096068905","-137.682351564","102.155114041","-65.847530174","0.004139155","0.000023519","786"
"48","mildessa","0.0","-0.0827963017535","0.211000003503","-0.0537963036357","0.0980000046547","-1.14079631941","1.45400002343","TOP","0.709098684121","0.704927214672","-0.01602117949","-2.54423320113e-16","42.1445772579","246.348913038","0.514534432043","0.014000680","0.000114041","788"
"49","mildessa","0.755","-0.0317963025908","0.102000001585","-0.00579630135582","0.0","-1.14079631941","1.45400002343","TOP","0.709098684121","0.704927214672","-0.01602117949","-2.54423320113e-16","42.1445772579","246.348913038","0.514534432043","0.005461791","0.000066764","789"
"50","mildessa","0.0","0.178203700864","0.0","-1.05679631868","1.57079632679","-0.611796310582","1.50179632678","SIDE","-0.178746906018","0.136667352832","0.9743570076","1.06822661249e-16","55.4746331208","93.602275702","144.953513671","0.005466270","0.000028749","790"
"51","mildessa","0.0","-1.03479631763","1.07700001856","-1.18579631829","0.868000015151","0.224203703049","0.0","TOP","0.551449067185","0.397844314304","0.483247094329","-0.551449067185","4.34089444111","267.525506148","7.24308796093","0.005858146","0.000034349","792"
"52","mildessa","0.0","-1.04279631801","1.57079632679","-1.05879631877","1.57079632679","-0.521796309566","1.36200002232","SIDE","0.955431990008","0.0384221696223","-0.292700272208","-9.25977968082e-17","84.7678999748","106.405966258","-126.896305256","0.003534121","0.000017365","793"
"53","mildessa","0.0","-0.657796312766","0.791000014753","-0.477796307476","0.481000009808","-0.378796306034","0.369000007748","SIDE","0.420698900545","0.0906811369887","0.902656837605","1.07620648964e-16","-142.131932879","68.8301439232","116.573426477","0.009231942","0.000057172","797"
"54","mildessa","0.0","-1.21879631985","1.57079632679","-0.757796314256","1.44000002276","-0.597796309917","1.30400001956","SIDE","0.420698900545","0.0906811369887","0.902656837605","1.07620648964e-16","-123.212950334","66.9295380935","100.480946962","0.009337511","0.000067305","798"
"55","mildessa","0.0","-0.569796311846","0.626000010176","-0.554796311134","0.495000010473","-0.317796306396","0.402000006055","SIDE","1.44910315614e-16","-0.692876536507","-0.0634305586928","0.718260864437","178.508458106","110.570503444","-2.8844938475","0.006842546","0.000029119","800"
"56","mildessa","0.0","-1.15279631998","1.06900001818","-0.508796308949","1.57079632679","0.128203701749","-4.15227716332e-16","TOP","7.33443399295e-17","0.223206159221","-0.614285784988","0.756856647488","-17.0063646252","269.783100572","-2.95065259159","0.002711642","0.000022192","801"
"57","mildessa","0.755","-0.725796312737","1.3700000227","-0.719796312452","1.35300002189","-0.702796311644","1.33800002118","TOP","0.497343982653","0.503480856841","0.501801706487","-0.497343982653","-0.628704441999","246.799687144","2.67748396698","0.017481958","0.000164507","802"
"58","mildessa","0.0","-1.03479631763","1.57079632679","-1.03379631759","1.57079632679","-0.521796309566","1.35600002203","SIDE","0.975666182056","0.0395340919308","-0.215667699872","-1.36905132213e-16","63.411536144","106.81167078","-139.097729618","0.002914686","0.000015636","805"
"59","mildessa","0.0","-1.2757963193","1.57079632679","-0.885796313817","1.56979633001","-0.521796309566","1.2740000214","SIDE","0.319440356751","0.0774896047474","0.944432750192","4.40829306427e-17","-95.3819952466","63.9943613748","126.413722651","0.009538895","0.000068884","807"
"60","mildessa","0.755","-0.722796312594","1.35200002184","-0.723796312642","1.35300002189","-0.681796310647","1.29400002235","TOP","-0.497343982653","-0.501801706487","0.503480856841","-0.497343982653","-0.627869326623","247.299658409","2.68278189314","0.017314883","0.000157293","809"
"61","mildessa","0.0","-0.509796308996","0.450000008335","-0.655796312671","0.723000011523","-0.322796306634","0.267000006163","SIDE","1.55542880419e-17","0.892216202402","0.0770321125128","-0.44499022665","145.630425308","67.8911524505","111.985730384","0.009646550","0.000067032","810"
"62","mildessa","0.0","-1.24779632123","1.57079632679","-0.883796313722","1.57079632679","-0.593796309727","1.38500002341","SIDE","0.193450860218","0.0764020624715","0.978130609648","2.48291265237e-17","-61.344254185","61.8277665953","144.631972069","0.005444841","0.000038153","814"
"63","mildessa","0.0","-0.691796311122","0.783000014373","-0.539796310421","0.58400001144","-0.332796307109","0.362000007415","SIDE","0.319440356751","0.0774896047474","0.944432750192","4.40829306427e-17","-110.412187791","65.2275711288","146.23998316","0.010254519","0.000055394","820"
"64","mildessa","0.0","-0.798796312944","1.42700002214","-1.17379631772","1.57079632679","-0.508796308949","1.19300002081","SIDE","1.55542880419e-17","0.892216202402","0.0770321125128","-0.44499022665","125.85051575","66.1833957268","96.9409025408","0.011086371","0.000070483","821"
"65","mildessa","2.77555756156e-16","0.165203700247","0.0","-0.581796309157","0.725000011618","-0.372796305749","0.58000001125","SIDE","-0.178746906018","0.136667352832","0.9743570076","1.10383416624e-16","64.15144875","92.3852295743","168.271741932","0.005813884","0.000031818","824"
"66","mildessa","0.755","0.311203703922","0.178000005195","-0.728796312879","1.57079632679","-1.57079632679","1.57079632679","TOP","0.756856647488","0.614285784988","0.223206159221","-2.93377359718e-16","-5.98841960978","239.460608459","1.79944948263","0.003303520","0.000050388","828"
"67","mildessa","0.0","-1.17279631767","1.07400001842","1.09820371523","1.57079632679","0.142203699155","0.0","TOP","0.613319438884","0.761637942674","-0.209157620388","-2.71528086566e-16","20.9074090372","270.14933765","0.512349812251","0.001656067","0.000012307","833"
"68","mildessa","0.0","-1.15779632022","1.57079632679","-0.925796315717","1.57079632679","-0.534796310184","1.32100002037","SIDE","2.15751599041e-16","-0.211428306238","0.0308854210984","0.976905400786","63.137702855","72.2715874112","-141.121666515","0.004568184","0.000031933","835"
"69","mildessa","0.0","-1.09479631722","1.57079632679","-0.523796309661","0.927000014693","-0.557796311276","1.42200002191","SIDE","-1.7649826346e-16","0.894398807215","0.0124270713512","-0.447097686809","121.99554426","99.8487645868","93.6631201037","0.009670478","0.000061409","847"
"70","mildessa","0.0","-0.672796310219","0.786000014516","-0.523796309661","0.615000009653","-0.373796305796","0.464000009","SIDE","0.193450860218","0.0764020624715","0.978130609648","1.95085994115e-17","-70.7712049397","62.5641084226","167.677546485","0.010020443","0.000056298","848"
"71","mildessa","0.0","-1.13079631893","1.57079632679","-1.03279631754","1.57079632679","-0.625796311246","1.50979632716","SIDE","0.718260864437","0.0634305586928","-0.692876536507","-1.54571003321e-16","152.42080106","108.182264596","-2.05108559595","0.002918119","0.000024109","850"
"72","mildessa","1.66533453694e-16","-1.57079632679","1.57079632679","-0.678796310504","1.36000002222","-0.618796310914","1.52879632806","SIDE","-1.43169568371e-16","0.840586742806","-0.00213764108819","-0.54167274097","138.080395783","98.4609967109","63.4816949931","0.009465069","0.000053987","855"
"73","mildessa","0.0","-0.549796310896","0.0","-1.13979631936","1.57079632679","-0.585796309347","1.47500002442","SIDE","0.894785751009","-0.000447244468865","-0.446495531629","-1.73604760791e-16","121.520240324","98.6151379463","-90.0099422781","0.008358801","0.000037918","859"
"74","mildessa","0.0","-0.615796310771","0.786000014516","-0.553796311086","0.557000010158","-0.336796307299","0.42000000691","SIDE","2.15751599041e-16","-0.211428306238","0.0308854210984","0.976905400786","73.4277973854","70.7684116616","-163.75709267","0.012769508","0.000066160","864"
"75","mildessa","0.0","-0.740796313449","0.786000014516","-0.480796307619","0.579000011203","-0.405796307316","0.528000008781","SIDE","6.76543521245e-17","0.9743570076","-0.136667352832","-0.178746906018","64.9525999821","92.2728567815","170.424769967","0.012143743","0.000067297","865"
"76","mildessa","0.0","-0.556796311229","0.0","-0.539796310421","0.608000009321","-0.346796307774","0.418000006815","SIDE","0.705282351629","0.0859721168765","0.703694251504","-5.90307744512e-17","-180.273239474","114.499029924","1.93021466861","0.006914113","0.000019281","868"
"77","mildessa","0.0","-1.23679632071","1.57079632679","-0.908796314909","1.56779632991","-0.477796307477","1.21000001836","SIDE","0.558270761418","0.0600337814128","0.827483958778","8.70048383045e-17","-146.05850036","65.8960229845","61.7090240633","0.010510566","0.000075336","871"
"78","mildessa","0.0","-1.57079632679","1.49000002514","-1.42979632336","1.57079632679","0.281203702497","-1.41688170796e-16","TOP","0.546078665975","0.509063931142","0.380065908948","-0.546078665975","-2.774257315","242.639356146","15.9449843916","0.004251266","0.000018351","876"
"79","mildessa","4.4408920985e-16","-1.03279631754","1.57079632679","-1.15379632003","1.57079632679","-0.587796309442","1.47300002433","SIDE","-1.96769248171e-17","0.703694251504","-0.0859721168765","0.705282351629","-154.852592778","111.393324848","1.79823074289","0.005681562","0.000021159","878"
"80","mildessa","0.0","-0.914796315194","1.57079632679","-1.16079632036","1.57079632679","-0.503796308711","1.26500002097","SIDE","-7.48846374795e-17","0.833950022823","0.0455830374537","-0.549954130932","142.904365692","64.0568097249","63.4910357788","0.006683751","0.000031990","882"
"81","mildessa","1.11022302463e-16","-0.671796310172","0.775000013993","-0.554796311134","0.541000009398","-0.302796305684","0.314000005135","SIDE","0.558270761418","0.0600337814128","0.827483958778","8.70048383045e-17","-169.073352528","67.5657455087","71.0918118343","0.011334887","0.000056636","883"
"82","mildessa","0.0","-0.551796310991","-1.34015774165e-16","-0.610796310534","0.748000012711","-0.326796306824","0.494000010425","SIDE","0.54167274097","-0.00213764108819","-0.840586742806","9.20727519813e-18","162.221617358","98.3996047516","74.4351308568","0.007360423","0.000018628","887"
"83","mildessa","0.0","-0.558796311324","0.603000009083","-0.636796311769","0.736000012141","-0.320796306539","0.369000007748","SIDE","-7.48846374795e-17","0.833950022823","0.0455830374537","-0.549954130932","165.753524528","65.3057263679","73.3329993907","0.011100116","0.000059388","888"
"84","mildessa","0.0","-1.11979631841","1.57079632679","-1.0857963168","1.57079632679","-0.578796309014","1.4640000239","SIDE","2.03804208647e-16","0.834148135478","-0.0378142957004","0.550242643857","-141.893881573","103.004289464","62.0819928118","0.004315056","0.000023551","889"
"85","mildessa","0.0","-0.528796309899","0.58000001125","-0.607796310392","0.735000012093","-0.365796308676","0.465000009048","SIDE","8.8975447601e-17","0.955336023754","0.0397828386713","-0.29283170502","101.883520623","61.7475340245","149.709243395","0.008553639","0.000038181","890"
"86","mildessa","0.0","-0.903796314672","1.57079632679","-1.12279631855","1.57079632679","-0.581796309157","1.37500002293","SIDE","8.71596221397e-17","0.955336023754","0.0397828386713","-0.29283170502","87.9462422697","61.1671471423","129.071328695","0.006285669","0.000031498","895"
"87","mildessa","0.0","-0.594796309774","0.744000012521","-0.397796306936","0.0","-0.343796307631","0.518000008306","SIDE","-1.7649826346e-16","0.894398807215","0.0124270713512","-0.447097686809","141.917747094","100.125570229","108.614284368","0.006230766","0.000041444","900"
"88","mildessa","0.0","-0.926796315764","1.57079632679","-1.14179631946","1.57079632679","-0.495796308331","1.24800002016","SIDE","7.84225796162e-17","-0.705069873371","-0.042775657072","0.707846534798","156.064970251","65.2008866008","1.03388557539","0.005938848","0.000036191","905"
"89","mildessa","0.0","-0.561796311466","0.605000009178","-0.623796311151","0.721000011428","-0.314796306254","0.354000007035","SIDE","7.35211683902e-17","-0.705069873371","-0.042775657072","0.707846534798","180.929198956","66.7093664843","0.98173814312","0.012467097","0.000058652","907"
"90","mildessa","0.0","-0.599796310012","0.785000014468","-0.529796309946","0.670000012266","-0.361796308486","0.565000010538","SIDE","7.98181597116e-17","-0.0117667574835","-0.00671822529769","0.99990820022","2.14554626122","100.409295374","-175.677458783","0.003464462","0.000019060","909"
"91","mildessa","0.755","0.0762036992793","0.947000015643","-1.16279632045","1.17100001976","-0.120796303558","0.0010000000475","TOP","-1.51176440527e-16","-0.0903090354449","0.780288224508","-0.618865546634","1.60963605825","268.02425326","-3.48969538429","0.003487449","0.000013325","912"
"92","mildessa","0.0","-0.97679631488","1.57079632679","-1.17379631772","1.57079632679","-0.530796309994","1.33500002103","SIDE","0.891771524926","-0.0229436187617","0.451903903159","-1.69237229707e-16","-126.448229028","74.3731246023","-90.7834193274","0.004864669","0.000033693","913"
"93","mildessa","0.0","-0.573796308777","0.694000013405","-0.555796311181","0.652000011411","-0.355796308201","0.517000008258","SIDE","1.48882732123e-16","-0.292700272208","-0.0384221696223","0.955431990008","98.1410117737","108.161427454","-146.638805954","0.006538107","0.000032346","918"
"94","mildessa","0.755","-0.141796304556","0.497000010568","0.168203700389","0.0","-1.14379631955","1.33100002084","TOP","0.692351102151","0.718179336025","0.0697738680066","-6.01333099552e-17","25.4668218808","256.980676183","-14.3579350127","0.004969598","0.000081894","922"
"95","mildessa","0.0","-0.077796301516","0.358000007225","0.195203701672","0.0","-1.14379631955","1.33100002084","TOP","0.692351102151","0.718179336025","0.0697738680066","-5.01110916293e-17","25.4668218808","256.980676183","-14.3579350127","0.003913301","0.000061262","923"
"96","mildessa","0.0","-0.288796305019","0.868000015151","1.09820371523","1.57079632679","-1.0677963192","1.56879632996","TOP","0.433682334269","0.686456125787","0.39066258236","-0.433682334269","16.9563714955","255.761814503","-3.30189973432","0.004937341","0.000042880","928"
"97","mildessa","0.755","-1.16879632074","1.18500002043","-0.252796306568","1.27500002144","0.0932037000868","-6.06736064076e-16","TOP","0.437604024668","0.615605226195","-0.487888963464","0.437604024668","1.72141436639","267.058466203","-3.72370626927","0.006900165","0.000031742","932"
"98","mildessa","0.755","0.0132036995466","0.18400000548","0.033203697237","0.103000001633","-1.14979631984","1.34300002141","TOP","0.473141583032","0.524794690171","0.526179264111","-0.473141583032","-1.03957576799","257.364019299","-25.266067716","0.016965920","0.000104899","936"
"99","mildessa","1.70436581515e-16","-0.0137963017358","0.262000005925","-0.00679630140332","0.221000003978","-1.14979631984","1.34300002141","TOP","0.473141583032","0.524794690171","0.526179264111","-0.473141583032","-1.03957576799","257.364019299","-25.266067716","0.014431731","0.000084639","937"
"100","mildessa","0.0","-0.711796312072","1.22700001916","-0.887796313912","1.57079632679","-0.547796310801","1.31600002013","SIDE","0.705282351629","0.0859721168765","0.703694251504","-4.91923120427e-17","-155.547417212","111.478213317","1.80183826939","0.010441535","0.000051834","940"
"101","mildessa","0.0","-1.11779631832","1.44800002314","1.09820371523","1.57079632679","-0.0107963015933","0.293000007397","TOP","0.489566159293","0.557167053829","-0.458491903395","0.489566159293","25.7083619679","254.494514754","-14.4611847759","0.004710839","0.000058012","945"
"102","mildessa","0.0","-0.577796308967","0.702000010526","-0.597796309917","0.735000012093","-0.337796307346","0.519000008353","SIDE","0.893411529028","0.0280470770333","0.448362800944","7.96090717482e-17","-144.058101132","105.127424271","-104.441910567","0.006329553","0.000022593","946"
"103","mildessa","0.0","-0.866796316174","1.56379632972","-1.17679631786","1.57079632679","-0.543796310611","1.29500002239","SIDE","4.75275850797e-17","0.948981739757","0.0602173244267","-0.30952791707","92.1827870479","66.436165148","127.606629734","0.009505424","0.000071257","969"
"104","mildessa","0.0","-0.521796309566","0.545000009588","-0.642796312054","0.744000012521","-0.346796307774","0.386000008555","SIDE","5.11835531627e-17","0.948981739757","0.0602173244267","-0.30952791707","106.816731569","67.3647572883","147.743498518","0.009852316","0.000051778","980"
"105","mildessa","0.0","-1.14179631946","1.57079632679","-1.07279631618","1.57079632679","-0.561796311466","1.42700002214","SIDE","1.98416062415e-16","0.451903903159","0.0229436187617","0.891771524926","-125.166704748","74.4381888876","-89.8445037527","0.009364095","0.000042020","995"
"106","mildessa","0.0","0.166203700294","0.0","-0.0307963025433","0.341000006418","-1.15179631993","1.26300002087","TOP","-9.58146577196e-17","0.116334573381","0.724199623425","-0.6797066812","-17.9129196303","261.637395695","-8.98114753884","0.009173341","0.000032908","1001"
"107","mildessa","0.0","-1.34279632248","1.57079632679","-0.794796312754","1.54179632868","-0.662796313004","1.45500002347","SIDE","6.05328413745e-17","0.9743570076","-0.136667352832","-0.178746906018","56.2757843529","93.4899029092","147.106541706","0.009462828","0.000075123","1005"
"108","mildessa","0.0","-0.604796310249","0.765000013518","-0.576796308919","0.609000009368","-0.337796307346","0.481000009808","SIDE","0.977244976667","0.0459456206105","-0.20707789724","-9.58562795812e-17","72.1270275564","70.452502008","-163.450639448","0.010542932","0.000047933","1015"
"109","mildessa","0.0","-0.983796315212","1.57079632679","-1.15779632022","1.57079632679","-0.522796309614","1.32900002075","SIDE","0.976905400786","-0.0308854210984","-0.211428306238","7.54686663311e-17","63.137702855","72.2715874112","-141.121666515","0.006026972","0.000044225","1029"
"110","mildessa","0.0","-0.611796310582","0.539000009303","-0.598796309964","0.800000015181","-0.357796308296","0.557000010158","SIDE","-1.96769248171e-17","0.703694251504","-0.0859721168765","0.705282351629","-179.57841504","114.414141455","1.92660714211","0.011499821","0.000059470","1038"
"111","mildessa","0.755","-0.896796314339","1.4260000221","-0.323796306681","0.754000012996","-0.586796309394","1.11000001687","TOP","5.78037426334e-17","0.00480273578058","-0.693694056288","0.720253767779","-1.81538642439","251.964472932","16.0343869643","0.012669906","0.000150205","1039"
"112","mildessa","0.755","-0.327796306871","0.760000013281","-0.910796315004","1.42800002219","-0.586796309394","1.14000001829","TOP","0.498968641847","0.471649389095","0.528779200303","-0.498968641847","11.2058843881","252.272350279","1.83277949047","0.017877822","0.000134016","1046"
"113","mildessa","0.0","-1.1237963186","1.30100001942","-1.21879631985","0.879000015673","0.188203701339","-3.44274563475e-16","TOP","-7.72942751855e-17","-0.0697738680066","0.718179336025","-0.692351102151","25.4088522598","257.577354926","-14.3331550695","0.005045672","0.000037937","1047"
"114","mildessa","0.755","-0.587796309442","1.197000021","-1.15279631998","1.36900002265","0.190203701434","0.0","TOP","-6.76324907873e-17","-0.0697738680066","0.718179336025","-0.692351102151","25.5344531052","256.284550983","-14.3868449464","0.013342894","0.000157584","1061"
"115","mildessa","0.0","-0.545796310706","0.570000010775","-0.685796310837","0.764000013471","-0.357796308296","0.469000009238","SIDE","0.327123237088","-0.068156030611","0.942520632797","1.10430907226e-17","-112.210950554","92.8473301031","144.379377798","0.011300801","0.000085013","1073"
"116","mildessa","0.0","-1.17579631781","1.57079632679","-1.03479631763","1.57079632679","-0.508796308949","1.3280000207","SIDE","1.75326907373e-16","0.0109905854171","0.0178487943301","0.99978028965","-3.17063259257","74.9327374211","-154.09298696","0.004502943","0.000032748","1076"
"117","mildessa","0.755","0.111203700942","0.589000011678","-1.13679631922","1.24000001978","-0.0617963040157","0.0670000031823","TOP","0.772271855545","0.628709739282","-0.0912153762531","-2.69551215188e-16","0.664773254172","266.343166856","11.2385499605","0.007746310","0.000034347","1080"
"118","mildessa","0.0","-1.09779631737","1.57079632679","-1.57079632679","1.57079632679","-0.619796310961","1.50579632697","SIDE","-1.562584104e-17","0.888130614683","-0.0937218973018","0.449933569796","-124.619720493","87.4931811524","92.9419824083","0.004380003","0.000019915","1081"
"119","mildessa","0.0","-1.01279631659","1.57079632679","-1.13879631931","1.57079632679","-0.570796308634","1.40100002091","SIDE","0.99978028965","-0.0178487943301","0.0109905854171","-8.29596932984e-18","-3.15964442121","74.9505822949","-153.593426301","0.005202736","0.000042022","1094"
"120","mildessa","0.0","-0.177796303006","0.570000010775","0.301203703447","0.0830000039423","-1.11779631832","1.4050000211","TOP","1.91445380094e-17","-0.0867389715852","-0.683376169797","0.724895414086","-23.2633161858","257.730646627","13.9631286603","0.009871830","0.000066323","1102"
"121","mildessa","0.755","-1.13679631922","1.24200001988","0.0932037000868","0.651000011363","-0.0477963033507","0.010000000475","TOP","8.89753782417e-18","0.0603888848879","-0.623025709889","0.779866749772","4.49159935733","265.970699538","7.58930285422","0.007510877","0.000037292","1109"
"122","mildessa","0.0","-0.721796312547","1.48800002504","1.09820371523","1.57079632679","-0.823796314132","1.57079632679","TOP","8.08653645563e-17","-0.0912153762531","-0.628709739282","0.772271855545","-1.68802526776","250.126302922","14.4584375859","0.000431744","0.000013337","1110"
"123","mildessa","0.0","-1.16079632036","1.34200002137","1.09820371523","1.57079632679","0.0642036987094","0.245000005118","TOP","0.512578462951","0.544553638766","0.421886208763","-0.512578462951","-23.1878641619","258.325098166","13.9325606248","0.004661191","0.000038645","1118"
"124","mildessa","0.0","-0.614796310724","0.883000015863","-0.588796309489","0.599000012153","-0.378796306034","0.594000011915","SIDE","0.718260864437","0.0634305586928","-0.692876536507","-1.54571003321e-16","177.214526165","110.452048248","-2.84315730453","0.012066008","0.000060069","1120"
"125","mildessa","0.0","-0.579796309062","0.782000014326","-0.568796311799","0.628000010271","-0.371796305701","0.541000009398","SIDE","0.852728824274","0.0460991193494","-0.520315695945","-1.54608335524e-16","159.102266326","68.8475031102","-78.855214397","0.010515903","0.000047514","1121"
"126","mildessa","0.0","-1.15079631988","1.57079632679","-0.97679631488","1.57079632679","-0.603796310202","1.49900002556","SIDE","7.98046059402e-17","-0.0117667574835","-0.00671822529769","0.99990820022","1.55938021825","100.074624116","-150.776605293","0.006130325","0.000019520","1124"
"127","mildessa","0.0","-1.09979631746","1.43400002248","-1.10679631779","1.42300002195","-0.144796304698","0.43600000767","TOP","0.702677571665","0.709695882054","-0.0507541650864","-1.5799892716e-16","-11.3067287158","252.683697913","3.00333736953","0.011531465","0.000074438","1127"
"128","mildessa","0.755","0.0512036980919","7.59587629078e-16","-1.0277963173","1.48100002471","-0.499796308521","1.02200001595","TOP","0.501408488072","0.509787498398","0.487130129078","-0.501408488072","42.2081966068","249.148145791","0.498737145653","0.010716792","0.000076461","1134"
"129","mildessa","0.755","-1.15679632017","1.09300001932","-0.0357963027807","1.04500001704","-0.0587963038732","0.002000000095","TOP","0.613319438884","0.761637942674","-0.209157620388","-2.71528086566e-16","21.0356894796","270.616465035","0.636189085866","0.002898672","0.000013746","1141"
"130","mildessa","0.0","-0.717796312357","1.42700002214","-1.09579631727","1.57079632679","-0.634796311674","1.53279632825","SIDE","0.857745470319","0.0122801208584","-0.513927919828","-2.98307273615e-16","134.322745508","100.858854394","-68.5725272953","0.013980584","0.000070450","1144"
"131","mildessa","0.0","-1.11879631836","1.57079632679","-0.999796315972","1.57079632679","-0.598796309964","1.49800002552","SIDE","9.55969164056e-17","0.889165189829","-0.0284942737239","0.45669830475","-124.915605532","101.378125474","91.1279138115","0.005072249","0.000028929","1148"
"132","mildessa","0.0","-1.42879632331","1.57079632679","-1.57079632679","1.50000002561","0.281203702497","4.33603519143e-16","TOP","0.551449067185","0.397844314304","0.483247094329","-0.551449067185","6.6871814591","243.319112245","12.6332207444","0.006089650","0.000045673","1149"
"133","mildessa","0.755","-0.301796305636","0.761000013328","-0.905796314767","1.44000002276","-0.635796311721","1.19900002109","TOP","-0.496868075912","-0.465942156475","0.537719385087","-0.496868075912","-11.3637908209","251.885798057","2.99334660046","0.017462627","0.000126272","1150"
"134","mildessa","0.0","-1.19379631867","-1.27233280671e-15","-1.03579631768","1.04300001694","0.230203700075","1.78463494607e-16","TOP","0.546078665975","0.509063931142","0.380065908948","-0.546078665975","0.735216326442","266.828701723","11.1421461356","0.003899953","0.000014391","1154"
"135","mildessa","0.0","1.03220371209","1.57079632679","-0.725796312737","1.40200002096","-0.814796313704","1.54279632872","TOP","0.489566159293","0.458491903395","0.557167053829","-0.489566159293","26.1624573003","249.820531591","-14.6552943172","0.004910988","0.000023808","1156"
"136","mildessa","0.755","0.204203702099","-2.73852133767e-16","-0.878796313484","1.466000024","-0.750796313924","1.40400002105","TOP","0.489566159293","0.458491903395","0.557167053829","-0.489566159293","25.7663315888","253.897836011","-14.485964719","0.008060682","0.000055303","1157"
"137","mildessa","0.0","-0.573796308777","0.685000012978","-0.590796309584","0.731000011903","-0.353796308106","0.504000007641","SIDE","3.92935509339e-16","-0.215667699872","-0.0395340919308","0.975666182056","73.4359297362","108.649244502","-160.627412685","0.012110906","0.000076604","1162"
"138","mildessa","0.0","-1.09379631718","1.45400002343","-1.09679631732","1.44700002309","-0.187796303481","0.512000008021","TOP","0.509296323372","0.487119724231","0.493911818308","-0.509296323372","-1.81607826215","252.06440009","16.0306338661","0.013092697","0.000070612","1165"
"139","mildessa","0.0","-0.573796308777","1.14600001858","-0.126796303843","0.602000009036","-0.941796316477","1.43500002252","TOP","1.15809009319e-16","-0.0593453582143","-0.692471312189","0.719000424377","-9.33231748553","253.236738345","16.5128408334","0.011641567","0.000087357","1166"
"140","mildessa","0.755","-0.640796311959","1.21500001859","-0.0347963027332","0.29600000754","-0.941796316477","1.43500002252","TOP","1.15809009319e-16","-0.0593453582143","-0.692471312189","0.719000424377","-9.33231748553","253.236738345","16.5128408334","0.013694931","0.000104651","1167"
"141","mildessa","0.0","-0.970796314595","1.57079632679","-1.25779632171","1.57079632679","-0.563796311561","1.37800002308","SIDE","0.327123237088","-0.068156030611","0.942520632797","1.47241209634e-17","-96.8504282048","93.9580879953","124.80059668","0.005784290","0.000042055","1168"
"142","mildessa","0.755","0.146203699345","0.0","-1.15179631993","1.3090000198","-0.0307963025433","0.470000009285","TOP","-0.480625203494","-0.429825498932","0.59434743038","-0.480625203494","-17.897104952","261.735844365","-8.97354777286","0.008568207","0.000031283","1169"
"143","mildessa","0.0","-1.19079631852","1.57079632679","-1.57079632679","1.57079632679","-0.517796309376","1.39200002374","SIDE","-5.36187488961e-18","0.311125242413","-0.0017897165368","0.950367234519","-90.2667057629","79.0479635894","-123.248637218","0.006168749","0.000024939","1170"
"144","mildessa","0.0","-0.620796311009","0.724000011571","-0.581796309157","0.706000010716","-0.315796306301","0.493000010378","SIDE","5.8650243626e-17","-0.513927919828","-0.0122801208584","0.857745470319","157.783151158","101.41943226","-81.1179338178","0.005905593","0.000021117","1171"
"145","mildessa","0.755","-0.903796314672","1.45200002333","-0.311796306111","0.761000013328","-0.641796312006","1.20300001802","TOP","0.498968641847","0.528779200303","-0.471649389095","0.498968641847","11.257195163","251.373821733","1.82907043021","0.017292841","0.000144508","1176"
"146","mildessa","0.0","-0.492796308189","1.04300001694","-0.151796305031","0.754000012996","-0.973796314737","1.42000002181","TOP","0.520183814656","0.528891694904","-0.42319165044","0.520183814656","3.30142056714","256.334228259","9.38993103769","0.012970873","0.000091195","1177"
"147","mildessa","0.755","-0.540796310469","1.06500001799","-0.0387963029232","0.379000008223","-0.973796314737","1.42000002181","TOP","0.520183814656","0.528891694904","-0.42319165044","0.520183814656","3.30142056714","256.334228259","9.38993103769","0.016893637","0.000109987","1178"
"148","mildessa","0.755","-1.13879631931","1.35800002213","-0.627796311341","1.28400002187","0.227203703192","-2.92564242998e-16","TOP","0.6797066812","0.724199623425","-0.116334573381","-1.83755866648e-16","-18.1501398055","260.160665635","-9.09514402854","0.008492249","0.000065657","1181"
"149","mildessa","0.0","-0.859796315842","1.41500002157","-1.1257963187","1.39100002369","-0.134796304223","0.38400000846","TOP","-8.80893515967e-17","-0.0204092281365","0.728632546928","-0.684600668247","15.2717713493","252.719880224","-11.5172992174","0.012400467","0.000098948","1186"
"150","mildessa","0.755","-1.1637963205","1.34000002127","0.165203700247","0.0910000043223","-0.0107963015933","0.274000006495","TOP","0.489566159293","0.557167053829","-0.458491903395","0.489566159293","25.4668218808","256.980676183","-14.3579350127","0.006631477","0.000025949","1189"
"151","mildessa","0.0","-0.562796311514","0.691000013263","-0.591796309632","0.796000014991","-0.382796306224","0.57600001106","SIDE","3.60851629181e-16","0.180828208121","-0.0287750582634","0.983093665512","-66.8161455869","85.9451822951","-164.117462124","0.013528593","0.000064174","1191"
"152","mildessa","0.0","-0.492796308189","1.02300001599","-0.492796308189","1.03500001656","-0.956796317189","1.45100002328","TOP","0.509296323372","0.493911818308","-0.487119724231","0.509296323372","-1.81884561315","252.464108721","16.0156214731","0.013530420","0.000117789","1192"
"153","mildessa","0.755","-0.341796307536","0.757000013138","-0.356796308249","0.810000012396","-0.956796317189","1.45100002328","TOP","0.509296323372","0.493911818308","-0.487119724231","0.509296323372","-1.81884561315","252.464108721","16.0156214731","0.021478838","0.000136160","1193"
"154","mildessa","0.755","0.27620370226","-6.14856589637e-16","-0.343796307631","1.02300001599","-1.00079631602","1.24500002002","TOP","7.28839099539e-17","0.209157620388","0.761637942674","-0.613319438884","19.3423876401","264.450383556","-0.998489325838","0.005854236","0.000030539","1194"
"155","mildessa","0.0","-0.895796314292","1.53479632834","-1.11079631798","1.57079632679","-0.500796308569","1.24800002016","SIDE","1.5798534968e-16","-0.20707789724","-0.0459456206105","0.977244976667","62.9355713928","68.4131382547","-142.784187821","0.003827640","0.000085694","1204"
"156","mildessa","0.755","-0.0697963043957","-2.51772708567e-16","-1.15579632012","1.09500001941","0.163203700152","0.214000003645","TOP","-0.433682334269","-0.39066258236","0.686456125787","-0.433682334269","21.0356894796","270.616465035","0.636189085867","0.005739405","0.000028162","1208"
"157","mildessa","0.0","-0.580796309109","1.1380000182","-0.0927963022285","0.470000009285","-0.961796317427","1.49100002518","TOP","0.684600668247","0.728632546928","0.0204092281365","-2.71129463553e-16","15.3332489065","250.525061842","-11.6551156961","0.011940546","0.000123151","1211"
"158","mildessa","0.755","-0.680796310599","1.27700002154","-0.00979630154587","0.175000005052","-0.961796317427","1.49100002518","TOP","0.684600668247","0.728632546928","0.0204092281365","-2.73663383773e-16","15.3332489065","250.525061842","-11.6551156961","0.018786048","0.000137558","1212"
"159","mildessa","0.755","0.217203702717","0.0","-0.718796312404","1.38000002317","-0.937796316287","1.52679632796","TOP","0.512578462951","0.421886208763","-0.544553638766","0.512578462951","-23.6908776551","254.362087906","14.1363475284","0.007847734","0.000046863","1214"
"160","mildessa","0.0","1.03220371209","1.57079632679","-0.499796308521","1.08600001899","-0.937796316287","1.52679632796","TOP","0.512578462951","0.421886208763","-0.544553638766","0.512578462951","-23.6908776551","254.362087906","14.1363475284","0.006490172","0.000030266","1215"
"161","mildessa","0.0","-0.610796310534","0.737000012188","-0.567796311751","0.674000012456","-0.331796307061","0.514000008116","SIDE","3.96121149136e-16","0.214011362609","-0.0222233699846","0.976578342224","-74.8585066748","104.262262501","-160.495075384","0.005714435","0.000044223","1225"
"162","mildessa","0.0","-1.11379631813","1.42700002214","-1.10879631789","1.43300002243","-0.138796304413","0.422000007005","TOP","0.483268131268","0.519938368922","-0.512413816289","0.483268131268","-1.86835192623","252.806124408","-11.0126720628","0.013561833","0.000072291","1227"
"163","mildessa","0.0","-0.895796314292","1.49100002518","-0.911796315052","1.51379632735","-0.637796311816","1.1950000209","TOP","-9.85302623671e-17","0.00118733860248","0.710842117538","-0.703350605432","-0.625698027185","248.599583372","2.69655649773","0.013801231","0.000099188","1229"
"164","mildessa","0.755","-0.0847963018485","0.473000009428","0.0652036987569","0.20800000336","-1.12979631889","1.27900002163","TOP","-1.18142816437e-16","0.138443644551","0.704797205267","-0.695768824202","-12.2389117918","262.640579992","6.05269048178","0.016628765","0.000083054","1231"
"165","mildessa","0.0","-0.906796314814","1.46200002381","-1.13879631931","1.40800002124","-0.130796304033","0.370000007795","TOP","-0.490116141716","-0.493934900963","0.524976807934","-0.490116141716","-17.0720956947","252.118122544","-14.8040367152","0.009990107","0.000098727","1232"
"166","mildessa","0.755","0.187203701292","1.95862308092e-15","-0.0847963018485","0.48400000995","-1.15179631993","1.26300002087","TOP","-1.14977589263e-16","0.116334573381","0.724199623425","-0.6797066812","-17.9129196303","261.637395695","-8.98114753884","0.009841840","0.000048453","1235"
"167","mildessa","0.0","1.03220371209","1.57079632679","-0.935796316192","1.47800002457","-0.496796308379","1.01500001561","TOP","0.501408488072","0.509787498398","0.487130129078","-0.501408488072","42.2150129581","249.44806326","0.497044581098","0.005167339","0.000028517","1238"
"168","mildessa","0.755","-0.900796314529","1.47400002438","-0.898796314434","1.45700002357","-0.194796303814","0.535000009113","TOP","0.509296323372","0.487119724231","0.493911818308","-0.509296323372","-1.80500885812","250.465565566","16.0906834378","0.017102864","0.000127187","1239"
"169","mildessa","0.0","-0.127796303891","0.833000013488","-0.565796311656","1.14300001843","-0.935796316192","1.43800002267","TOP","0.735651005613","0.673224589747","0.074741218212","-2.35807939191e-16","3.4773676256","254.749401451","9.52171473251","0.013040772","0.000140865","1241"
"170","mildessa","0.755","-0.0407963030182","0.391000008793","-0.662796313004","1.23600001959","-0.935796316192","1.43800002267","TOP","0.735651005613","0.673224589747","0.074741218212","-2.45240256759e-16","3.4773676256","254.749401451","9.52171473251","0.020443198","0.000224308","1242"
"171","mildessa","0.755","-0.924796315669","1.47700002452","-0.900796314529","1.45500002347","-0.142796304603","0.435000007623","TOP","0.483268131268","0.519938368922","-0.512413816289","0.483268131268","-1.85889734677","251.508976758","-11.0982220173","0.017723526","0.000175633","1244"
"172","mildessa","0.0","-0.0947963023235","0.508000007831","0.0142036995941","0.38400000846","-1.12979631889","1.27900002163","TOP","-1.18142816437e-16","0.138443644551","0.704797205267","-0.695768824202","-12.2389117918","262.640579992","6.05269048178","0.016399110","0.000117367","1245"
"173","mildessa","0.755","-0.081796301706","2.19255029038e-16","-1.14179631946","1.07600001851","0.110203700894","0.351000006893","TOP","0.535178467825","0.276535055364","0.59219623294","-0.535178467825","-17.6145308985","271.456835284","-3.2128477534","0.003837622","0.000039516","1247"
"174","mildessa","0.0","0.28020370245","0.0","-0.136796304318","0.594000011915","-1.11279631808","1.33600002108","TOP","0.437604024668","0.487888963464","0.615605226195","-0.437604024668","2.06792708522","264.06452664","-4.44913993643","0.009790610","0.000050995","1248"
"175","mildessa","0.0","-0.565796311656","0.732000011951","-0.584796309299","0.713000011048","-0.355796308201","0.554000010015","SIDE","0.976578342224","0.0222233699846","0.214011362609","-3.37502324376e-17","-74.8585066748","104.262262501","-160.495075384","0.009488238","0.000046411","1250"
"176","mildessa","0.0","-0.954796317094","1.4050000211","-1.57079632679","1.57079632679","-0.527796309851","1.35200002184","SIDE","5.82253697776e-17","0.715038196966","-0.104562468787","0.691221431236","-157.427638137","94.2644148001","6.04292096623","0.003194073","0.000064882","1253"
"177","mildessa","0.755","-1.1427963195","1.07700001856","-0.100796302608","1.01000001538","0.00420369911915","0.0","TOP","7.33443399295e-17","0.223206159221","-0.614285784988","0.756856647488","-17.6145308985","271.456835284","-3.2128477534","0.003723309","0.000013741","1256"
"178","mildessa","0.0","-0.618796310914","0.770000013756","-0.560796311419","0.713000011048","-0.338796307394","0.532000008971","SIDE","4.37298608755e-16","-0.446495531629","0.000447244468865","0.894785751009","141.903640529","98.5947203556","-105.348673682","0.003987964","0.000041307","1257"
"179","mildessa","0.0","-0.154796305173","0.672000012361","-0.551796310991","1.11000001687","-0.971796314642","1.47400002438","TOP","0.508410075753","0.447687655401","-0.531614665851","0.508410075753","-9.33231748553","253.236738345","16.5128408334","0.011441746","0.000056625","1258"
"180","mildessa","0.755","-0.0337963026857","0.293000007397","-0.605796310297","1.15100001881","-0.971796314642","1.47400002438","TOP","0.508410075753","0.447687655401","-0.531614665851","0.508410075753","-9.33231748553","253.236738345","16.5128408334","0.015552870","0.000146266","1259"
"181","mildessa","0.755","-0.899796314482","1.42800002219","-0.873796313247","1.43100002233","-0.165796305696","0.473000009428","TOP","-2.99170653566e-16","-0.0403968769134","0.707409839656","-0.705648220499","11.2286891769","251.873004258","1.83113101924","0.015631223","0.000124746","1262"
"182","mildessa","0.0","-0.550796310944","0.54000000935","-0.603796310202","0.728000011761","-0.316796306349","0.345000006608","SIDE","1.5798534968e-16","-0.20707789724","-0.0459456206105","0.977244976667","73.0174372853","70.6500625789","-165.452673648","0.011897886","0.000056024","1264"
"183","mildessa","0.0","-0.505796308806","1.08100001875","-0.935796316192","1.45800002362","-0.589796309537","1.14200001839","TOP","-2.91107544475e-17","-0.00532066219249","0.729983230736","-0.683444345502","-1.85744279608","251.309415581","-11.1113835488","0.012194279","0.000086668","1266"
"184","mildessa","0.0","-0.550796310944","0.716000011191","-0.566796311704","0.705000010668","-0.373796305796","0.571000010823","SIDE","0.951254958263","0.0289083885256","0.307047731556","5.47084709806e-18","-103.245014362","105.726456505","-143.694862243","0.006585315","0.000018142","1269"
"185","mildessa","0.0","-0.934796316144","1.46300002385","-0.597796309917","1.22500001907","-0.607796310392","1.16000001924","TOP","5.84058649525e-17","0.00480273578058","-0.693694056288","0.720253767779","-1.80431702037","250.365638408","16.0944365361","0.008203933","0.000124029","1271"
"186","mildessa","0.0","-0.778796311994","1.45300002338","-1.57079632679","1.57079632679","-0.590796309584","1.27500002144","SIDE","0.0383338520455","0.988857288003","0.143846375524","-1.45604477262e-16","-2.04881634615","86.9226464884","159.404242761","0.008333494","0.000044363","1279"
"187","mildessa","0.0","-0.889796314007","1.48700002499","-0.888796313959","1.47800002457","-0.662796313004","1.24500002002","TOP","0.497343982653","0.503480856841","0.501801706487","-0.497343982653","-0.624695888734","249.19954889","2.70291400913","0.014424741","0.000112307","1282"
"188","mildessa","0.755","-0.923796315622","1.46100002376","-0.282796304734","0.707000010763","-0.603796310202","1.14000001829","TOP","0.683444345502","0.729983230736","0.00532066219249","-1.17392090946e-16","-1.85817007142","251.409196169","-11.1048027831","0.019523661","0.000146300","1283"
"189","mildessa","0.755","0.129203701797","0.0","-1.07079631608","1.47300002433","-0.404796307269","0.952000015881","TOP","-9.77480540781e-18","-0.000979041622075","0.743150809923","-0.669123243647","-1.03630027025","254.877721741","-25.5274381564","0.010719056","0.000072394","1285"
"190","mildessa","0.0","-1.18279631814","1.57079632679","-0.901796314577","1.55379632925","-0.501796308616","1.24900002021","SIDE","0.891854127018","0.0538606998634","0.449104933318","-1.55606027795e-16","-127.298340006","69.0147966961","-91.9868531348","0.006105920","0.000068751","1289"
"191","mildessa","0.0","0.46020370448","-2.125203971e-16","-0.224796305239","0.795000014943","-1.00079631602","1.24500002002","TOP","7.28839099539e-17","0.209157620388","0.761637942674","-0.613319438884","19.3423876401","264.450383556","-0.998489325838","0.008285226","0.000040184","1292"
"192","mildessa","0.0","-0.660796312909","0.810000012396","-0.610796310534","0.648000011221","-0.297796305446","0.413000006578","SIDE","0.983093665512","0.0287750582634","0.180828208121","-1.91454287365e-16","-67.5627841105","86.063994328","-166.076649498","0.015552162","0.000077564","1293"
"193","mildessa","0.755","-0.269796307376","0.651000011363","-0.930796315954","1.45700002357","-0.580796309109","1.12000001734","TOP","-2.91107544475e-17","-0.00532066219249","0.729983230736","-0.683444345502","-1.86253372348","252.0078797","-11.0653181887","0.020052291","0.000144036","1302"
"194","mildessa","0.0","-0.901796314577","1.49600002542","-0.904796314719","1.50679632701","-0.632796311579","1.18200002029","TOP","0.703350605432","0.710842117538","-0.00118733860248","-1.96384784072e-16","-0.625698027184","248.599583372","2.69655649773","0.013966730","0.000121999","1306"
"195","mildessa","0.0","-1.10379631765","1.43600002257","-1.09979631746","1.45200002333","-0.163796305601","0.467000009143","TOP","-2.99170653566e-16","-0.0403968769134","0.707409839656","-0.705648220499","11.2058843881","252.272350279","1.83277949047","0.014502831","0.000096855","1307"
"196","mildessa","0.755","-0.296796305399","0.799000015133","0.206203702194","0.0","-1.11779631832","1.4050000211","TOP","9.57226900471e-18","-0.0867389715852","-0.683376169797","0.724895414086","-23.2633161858","257.730646627","13.9631286603","0.011494493","0.000117092","1314"
"197","mildessa","0.0","-1.1657963206","1.57079632679","-0.99679631583","1.57079632679","-0.555796311181","1.37700002303","SIDE","0.839710744746","0.0342526349917","0.541952601391","6.19757512988e-17","-141.797720395","64.7371576837","-63.2758676132","0.004430729","0.000027329","1317"
"198","mildessa","0.0","-0.558796311324","0.48800001014","-0.599796310012","0.653000011458","-0.325796306776","0.483000009903","SIDE","0.955431990008","0.0384221696223","-0.292700272208","-9.25977968082e-17","98.7003222157","108.234846999","-147.464506581","0.006183486","0.000035728","1330"
"199","mildessa","0.0","-0.482796307714","1.03800001671","-0.504796308759","1.05200001737","-0.958796317284","1.43600002257","TOP","0.705648220499","0.707409839656","0.0403968769134","-1.91750545379e-16","11.2172867825","252.072677269","1.83195525486","0.013699042","0.000103701","1332"
"200","mildessa","0.755","-0.325796306776","0.760000013281","-0.359796308391","0.794000014896","-0.958796317284","1.43600002257","TOP","0.705648220499","0.707409839656","0.0403968769134","-1.91750545379e-16","11.2172867825","252.072677269","1.83195525486","0.022499482","0.000139106","1333"
"201","mildessa","0.755","-1.17279631767","1.28700002201","0.0832036996118","0.433000007528","0.0272037002116","0.0010000000475","TOP","0.512578462951","0.544553638766","0.421886208763","-0.512578462951","-22.9489327936","260.207527716","13.8357618622","0.005008269","0.000027197","1337"
"202","mildessa","0.0","-0.491796308141","0.509000007878","-0.723796312642","0.796000014991","-0.378796306034","0.0","SIDE","0.0383338520455","0.988857288003","0.143846375524","-1.45604477262e-16","-2.32353307656","88.8111587294","184.241033058","0.005555814","0.000026229","1343"
"203","mildessa","0.0","-0.591796309632","1.22000001883","-0.948796316809","1.47500002442","-0.591796309632","1.15200001886","TOP","0.498968641847","0.471649389095","0.528779200303","-0.498968641847","11.2286891769","251.873004258","1.83113101924","0.012532277","0.000123813","1347"
"204","mildessa","0.755","-0.337796307346","0.803000012063","-0.910796315004","1.47000002419","-0.605796310297","1.13900001824","TOP","0.720253767779","0.693694056288","0.00480273578058","-2.15559790237e-16","-1.80708437137","250.765347039","16.0794241431","0.020238787","0.000164814","1348"
"205","mildessa","0.755","-0.889796314007","1.45300002338","-0.922796315574","1.47500002442","-0.148796304888","0.450000008335","TOP","0.702677571665","0.709695882054","-0.0507541650864","-1.5799892716e-16","-11.3851891103","251.586585611","2.98960006206","0.017630370","0.000182341","1351"
"206","mildessa","0.0","-0.626796311294","0.780000014231","-0.593796309727","0.601000008988","-0.324796306729","0.46800000919","SIDE","0.887128593228","0.0455073325558","-0.459273275687","-7.82174529924e-17","145.732505728","89.2586646736","-103.490140454","0.013683683","0.000064250","1359"
"207","mildessa","0.0","-0.574796308824","1.04700001713","-0.621796311056","0.770000013756","-0.331796307061","0.529000008828","SIDE","0.99990820022","0.00671822529769","-0.0117667574835","-2.65884333344e-16","2.16437134607","100.420043549","-176.477165087","0.008471654","0.000063696","1361"
"208","mildessa","0.755","-1.08079631656","1.45600002352","-0.462796310024","0.953000015928","-0.128796303938","0.40800000634","TOP","0.484085774922","0.52965251854","-0.500789511312","0.484085774922","15.2605936116","253.118938112","-11.4922416758","0.020964387","0.000183475","1362"
"209","mildessa","0.0","-1.03579631768","1.51179632725","1.09820371523","1.57079632679","-0.260796306948","0.884000015911","TOP","0.491982853732","0.59626132308","0.400472443331","-0.491982853732","-13.5874586182","255.775316964","5.8300100725","0.002068480","0.000022296","1363"
"210","mildessa","0.755","-0.926796315764","1.45400002343","-0.306796305874","0.747000012663","-0.578796309014","1.12600001763","TOP","0.496868075912","0.537719385087","0.465942156475","-0.496868075912","-11.3209942421","252.484222949","3.00083967726","0.019096666","0.000144575","1367"
"211","mildessa","0.0","-1.22979632038","-5.04459463636e-16","-1.11379631813","1.15200001886","0.225203703097","-4.986388782e-16","TOP","0.6797066812","0.724199623425","-0.116334573381","-1.63338548132e-16","-17.8496609169","262.031190377","-8.95074847491","0.003231064","0.000025250","1372"
"212","mildessa","0.0","-0.595796309822","0.710000010906","-0.563796311561","0.625000010128","-0.353796308106","0.566000010585","SIDE","3.35911449084e-16","0.448362800944","-0.0280470770333","0.893411529028","-144.21833014","105.137447304","-104.561184239","0.005139174","0.000043043","1374"
"213","mildessa","0.755","-0.333796307156","0.755000013043","-0.312796306159","0.742000012426","-0.962796317474","1.4260000221","TOP","3.91091118287e-17","0.0507541650864","0.709695882054","-0.702677571665","-11.2995959526","252.783435395","3.00458621566","0.020695450","0.000132490","1375"
"214","mildessa","0.0","-0.477796307476","1.02200001595","-0.468796310309","1.02600001614","-0.962796317474","1.4260000221","TOP","3.91091118287e-17","0.0507541650864","0.709695882054","-0.702677571665","-11.2995959526","252.783435395","3.00458621566","0.013975718","0.000102231","1376"
"215","mildessa","0.0","-1.57079632679","1.57079632679","-1.06879631925","1.57079632679","-0.590796309584","1.466000024","SIDE","0.850084506191","0.025215116681","-0.526042327408","-1.22438896134e-16","136.90460543","83.1385478903","-66.3333166326","0.004547261","0.000021593","1378"
"216","mildessa","0.0","-0.599796310012","0.724000011571","-0.611796310582","0.764000013471","-0.338796307394","0.518000008306","SIDE","2.35178263283e-16","0.00210983902395","-0.0171572352311","0.999850577766","-1.39660546237","63.1235539891","-177.804285032","0.009620269","0.000035138","1379"
"217","mildessa","0.0","-1.13579631917","1.38300002331","-0.905796314767","1.424000022","-0.126796303843","0.401000006008","TOP","0.484085774922","0.52965251854","-0.500789511312","0.484085774922","15.2438270051","253.717524944","-11.4546553634","0.003368897","0.000049991","1383"
"218","mildessa","0.0","-0.626796311294","0.728000011761","-0.598796309964","0.616000009701","-0.310796306064","0.443000008003","SIDE","0.951570259249","0.0354735277307","-0.305377914303","1.42194892927e-16","102.589648575","87.5483550114","-146.524420193","0.007486877","0.000041818","1388"
"219","mildessa","0.0","-0.620796311009","0.761000013328","-0.598796309964","0.672000012361","-0.319796306491","0.44400000805","SIDE","1.75326907373e-16","0.0109905854171","0.0178487943301","0.99978028965","-3.71806325543","74.0437058599","-178.981097426","0.012252344","0.000054081","1389"
"220","mildessa","0.0","-0.629796311436","0.790000014706","-0.631796311531","0.753000012948","-0.320796306539","0.505000007688","SIDE","-5.36187488961e-18","0.311125242413","-0.0017897165368","0.950367234519","-104.944421609","79.1323956675","-143.263380003","0.005964718","0.000025531","1393"
"221","mildessa","0.0","-0.617796310867","0.699000013643","-0.567796311751","0.538000009255","-0.310796306064","0.470000009285","SIDE","2.27951962419e-16","0.307047731556","-0.0289083885256","0.951254958263","-104.062840308","105.803454404","-144.828543101","0.000252736","0.000025216","1407"
"222","mildessa","0.755","-1.04779631825","1.50879632711","0.0532036981869","6.46711904334e-15","-0.472796307239","0.941000015358","TOP","0.501408488072","0.487130129078","-0.509787498398","0.501408488072","42.1695705735","247.448611619","0.508328355248","0.008037883","0.000115624","1408"
"223","mildessa","0.0","-0.614796310724","0.825000013108","-0.587796309442","0.707000010763","-0.359796308391","0.550000009825","SIDE","0.850084506191","0.025215116681","-0.526042327408","-1.24479544403e-16","159.183134559","84.2064385945","-77.4254241557","0.014863156","0.000070127","1409"
"224","mildessa","0.0","-0.609796310487","0.800000015181","-0.508796308949","0.514000008116","-0.364796308629","0.593000011868","SIDE","-1.43169568371e-16","0.840586742806","-0.00213764108819","-0.54167274097","160.764583907","98.4033100379","73.7740407621","0.004173479","0.000037526","1410"
"225","mildessa","0.0","-0.618796310914","0.807000012253","-0.565796311656","0.655000011553","-0.344796307679","0.474000009475","SIDE","0.839710744746","0.0342526349917","0.541952601391","6.19757512988e-17","-164.469976506","66.1700957506","-73.494653811","0.014186007","0.000065541","1412"
"226","mildessa","0.755","-1.09679631732","1.37900002312","0.0732036991368","0.409000006388","-0.235796305761","0.791000014753","TOP","0.491982853732","0.59626132308","0.400472443331","-0.491982853732","-12.624210903","260.679076179","5.98906750474","0.012845660","0.000083870","1413"
"227","mildessa","0.0","1.03220371209","1.57079632679","-1.08679631684","1.38000002317","-0.0687963043482","0.735000012093","TOP","0.772271855545","0.628709739282","-0.0912153762531","-2.78536255694e-16","-0.222809410491","260.225427845","12.4532380912","0.002750776","0.000030871","1415"
"228","mildessa","0.755","-0.455796309691","0.988000017591","-1.0697963193","1.43800002267","-0.131796304081","0.375000008033","TOP","-8.57085583103e-17","-0.0204092281365","0.728632546928","-0.684600668247","15.2438270051","253.717524944","-11.4546553634","0.021498076","0.000174668","1418"
"229","mildessa","0.0","-1.57079632679","1.57079632679","-1.04179631797","1.57079632679","-0.494796308284","1.31400002004","SIDE","0.951570259249","0.0354735277307","-0.305377914303","1.40371881479e-16","88.1125274583","85.8666533121","-126.323109751","0.004242138","0.000018922","1419"
"230","mildessa","0.0","-0.569796311846","0.529000008828","-0.597796309917","0.657000011648","-0.325796306776","0.47600000957","SIDE","0.975666182056","0.0395340919308","-0.215667699872","-1.40461109673e-16","73.8567691251","108.72638866","-161.531261739","0.009783276","0.000047729","1425"
"231","mildessa","0.0","-0.958796317284","1.49500002537","-0.576796308919","1.23600001959","-0.592796309679","1.15900001919","TOP","0.496868075912","0.537719385087","0.465942156475","-0.496868075912","-11.3994546366","251.387110647","2.98710236979","0.013458652","0.000103027","1426"
"232","mildessa","0.755","-0.495796308331","1.08400001889","-1.05879631877","1.37100002274","-0.116796303368","0.48400000995","TOP","0.520183814656","0.42319165044","0.528891694904","-0.520183814656","3.11447685337","258.018106419","9.2499108888","0.016766291","0.000110831","1429"
"233","mildessa","0.0","-0.608796310439","0.780000014231","-0.608796310439","0.782000014326","-0.350796307964","0.555000010063","SIDE","0.999850577766","0.0171572352311","0.00210983902395","-1.42031378451e-16","-1.39280831935","63.0926755784","-176.904822856","0.007447972","0.000028662","1433"
"234","mildessa","0.0","1.03220371209","1.57079632679","-0.943796316572","1.48700002499","-0.430796308504","1.02300001599","TOP","-9.92069802583e-18","-0.000979041622075","0.743150809923","-0.669123243647","-1.0327627327","252.192520379","-25.809718232","0.005439593","0.000030843","1437"
"235","mildessa","0.0","-0.605796310297","0.758000013186","-0.502796308664","0.423000007053","-0.353796308106","0.553000009968","SIDE","-7.97726937562e-17","0.948661855029","-0.00547063279034","-0.316244773853","106.385477603","98.2540615667","143.81594182","0.002705146","0.000035377","1444"
"236","mildessa","0.0","-1.18779631838","1.57079632679","-1.57079632679","1.57079632679","-0.535796310231","1.4260000221","SIDE","2.54404988735e-16","0.545891702525","-0.00187582493204","0.837853644973","-140.127050033","79.0204376244","-61.6925007652","0.002570835","0.000015654","1445"
"237","mildessa","0.0","-0.622796311104","1.30500001961","-0.931796316002","1.47300002433","-0.619796310961","1.17100001976","TOP","0.720253767779","0.693694056288","0.00480273578058","-2.16161912556e-16","-1.80016599386","249.766075461","16.1169551255","0.011589970","0.000097017","1446"
"238","mildessa","0.755","0.25220370112","0.0950000045123","-0.417796307886","1.15300001891","-1.03079631744","1.39800002403","TOP","0.756856647488","0.614285784988","0.223206159221","-2.93377359718e-16","-14.4047645663","262.62323572","-1.82904000245","0.006477631","0.000050824","1452"
"239","mildessa","0.755","-1.04579631816","1.35000002175","-0.386796306414","0.928000014741","-0.151796305031","0.516000008211","TOP","0.0","0.074741218212","-0.673224589747","0.735651005613","3.03750001529","258.711468147","9.19225552232","0.017168044","0.000098617","1453"
"240","mildessa","0.0","-1.13479631912","1.38200002327","-0.892796314149","1.424000022","-0.132796304128","0.44000000786","TOP","0.508410075753","0.531614665851","0.447687655401","-0.508410075753","-9.22137720048","254.53124506","16.468740644","0.013120226","0.000106975","1457"
"241","mildessa","0.0","-1.13579631917","1.09100001922","-1.17879631795","0.974000016926","0.191203701482","0.0340000016149","TOP","0.695768824202","0.704797205267","-0.138443644551","-2.99189630056e-16","-12.315971614","262.24827923","6.03996588637","0.011293197","0.000079965","1461"
"242","mildessa","0.0","-1.01479631668","1.57079632679","-1.57079632679","1.57079632679","-0.636796311769","1.50879632711","SIDE","3.60851629181e-16","0.180828208121","-0.0287750582634","0.983093665512","-57.9595910813","84.5358453639","-140.877769534","0.002568089","0.000020619","1462"
"243","mildessa","0.0","-0.932796316049","1.48200002476","-0.530796309994","1.18700002052","-0.622796311104","1.18500002043","TOP","0.683444345502","0.729983230736","0.00532066219249","-1.16757539103e-16","-1.84871549196","250.112048519","-11.1903527376","0.012676843","0.000087886","1467"
"244","mildessa","0.0","-0.628796311389","0.780000014231","-0.549796310896","0.545000009588","-0.317796306396","0.35600000713","SIDE","0.891854127018","0.0538606998634","0.449104933318","-1.55606027795e-16","-147.253047923","71.4079446093","-106.703869648","0.008392039","0.000044299","1468"
"245","mildessa","0.755","-1.07779631642","1.46100002376","-0.481796307666","0.999000018113","-0.124796303748","0.361000007368","TOP","0.693128894753","0.720479378791","-0.0219499429196","-1.40153606912e-16","-17.0751385228","252.018245522","-14.8079511825","0.020387377","0.000134116","1471"
"246","mildessa","0.0","-0.587796309442","0.663000011933","-0.516796309329","0.726000011666","-0.431796308551","0.642000010936","SIDE","0.736494488235","-0.0904746428782","-0.670365726895","-7.53721203865e-17","177.176820238","61.3594620814","-9.78005958391","0.006097658","0.000024960","1476"
"247","mildessa","0.755","0.0122036994991","0.0860000040848","-0.658796312814","1.25000002026","-0.967796317712","1.49300002528","TOP","-4.33392314711e-17","0.0219499429196","0.720479378791","-0.693128894753","-17.1207809447","250.520090202","-14.8666681919","0.015616391","0.000141181","1483"
"248","mildessa","0.0","-0.0657963042057","-4.87286577369e-16","-0.563796311561","1.10200001649","-0.967796317712","1.49300002528","TOP","-4.09314963894e-17","0.0219499429196","0.720479378791","-0.693128894753","-17.1207809447","250.520090202","-14.8666681919","0.010653242","0.000049053","1484"
"249","mildessa","0.0","-0.555796311181","0.658000011696","-0.603796310202","0.783000014373","-0.367796308771","0.523000008543","SIDE","-8.38585265979e-17","-0.305377914303","-0.0354735277307","0.951570259249","101.834118321","87.4605905656","-145.470156636","0.009062582","0.000046229","1486"
"250","mildessa","0.755","0.24420370074","0.0540000025649","-0.238796305903","0.830000013346","-1.11279631808","1.33600002108","TOP","0.437604024668","0.487888963464","0.615605226195","-0.437604024668","2.06792708522","264.06452664","-4.44913993643","0.008263262","0.000067403","1497"
"251","mildessa","0.0","-0.952796316999","1.3700000227","-1.17179631762","0.956000016071","0.182203701054","0.0","TOP","0.724895414086","0.683376169797","-0.0867389715852","-2.58451263127e-16","-23.0118094802","259.712151434","13.8612352251","0.003394940","0.000026403","1499"
"252","mildessa","0.0","-0.602796310154","0.762000013376","-0.570796308634","0.765000013518","-0.358796308344","0.598000012105","SIDE","-2.85686871778e-17","0.526253723557","-0.0198416751797","0.850096068905","-159.970136726","102.995444425","-76.9406170937","0.004855208","0.000019502","1502"
"253","mildessa","0.0","-1.15579632012","1.57079632679","-0.98079631507","1.57079632679","-0.546796310754","1.42100002186","SIDE","4.37298608755e-16","-0.446495531629","0.000447244468865","0.894785751009","121.999661761","98.6146577207","-90.3707121488","0.004277642","0.000022093","1507"
"254","mildessa","0.755","-0.933796316097","1.51879632758","0.249203700977","-3.25370792568e-16","-0.670796310124","1.3870000235","TOP","0.480625203494","0.59434743038","0.429825498932","-0.480625203494","-18.8776149577","255.632027106","-9.44473323888","0.006439562","0.000057100","1513"
"255","mildessa","0.0","1.03220371209","1.57079632679","-0.853796315557","1.48200002476","-0.583796309252","1.3090000198","TOP","-0.491982853732","-0.400472443331","0.59626132308","-0.491982853732","-13.8379030405","254.500339485","5.78865513742","0.000724175","0.000058355","1517"
"256","mildessa","0.0","-1.57079632679","1.57079632679","-1.06579631911","1.57079632679","-0.474796307334","1.29400002235","SIDE","0.983093665512","0.0287750582634","0.180828208121","-1.90572009543e-16","-58.7062296048","84.6546573968","-142.836956908","0.001968361","0.000021242","1526"
"257","mildessa","0.0","-0.610796310534","0.725000011618","-0.593796309727","0.818000012776","-0.359796308391","0.58000001125","SIDE","9.55969164056e-17","0.889165189829","-0.0284942737239","0.45669830475","-145.146522831","102.026447408","105.646789935","0.000826620","0.000034120","1529"
"258","mildessa","0.0","-1.13679631922","1.39900002407","-0.920796315479","1.50000002561","-0.126796303843","0.3680000077","TOP","0.693128894753","0.720479378791","-0.0219499429196","-1.40153606912e-16","-17.0933954915","251.418983394","-14.8314379862","0.008327879","0.000077046","1530"
"259","mildessa","0.0","-0.600796310059","0.664000011981","-0.608796310439","0.774000013946","-0.333796307156","0.515000008163","SIDE","1.36346652857e-16","0.541952601391","-0.0342526349917","0.839710744746","-164.196926435","66.1528383661","-73.3715853224","0.010924273","0.000059102","1534"
"260","mildessa","0.0","-0.945796316667","1.50179632678","1.09820371523","1.57079632679","-0.424796308219","1.01000001538","TOP","0.669123243647","0.743150809923","0.000979041622075","-2.35596352953e-16","-1.03210763315","251.695260868","-25.86199232","0.005495756","0.000058503","1535"
"261","mildessa","0.0","-0.571796308682","0.673000012408","-0.603796310202","0.746000012616","-0.334796307204","0.518000008306","SIDE","0.850096068905","0.0198416751797","0.526253723557","-1.36721574351e-16","-160.864869225","103.029179088","-77.3859437742","0.008279687","0.000044230","1538"
"262","mildessa","0.755","-0.328796306919","1.04300001694","-1.17279631767","1.2910000222","0.182203701054","5.61173531411e-16","TOP","0.724895414086","0.683376169797","-0.0867389715852","-2.58451263127e-16","-22.9992341429","259.81122669","13.8561405525","0.007402630","0.000046990","1543"
"263","mildessa","0.0","-0.548796310849","0.637000010698","-0.594796309774","0.68800001312","-0.333796307156","0.485000009998","SIDE","-0.447097686809","-0.0124270713512","0.894398807215","3.78210564557e-17","142.71751442","100.136682459","109.214491722","0.010491319","0.000055683","1544"
"264","mildessa","0.0","1.03220371209","1.57079632679","-1.16179632041","1.28600002197","0.0762036992793","0.454000008525","TOP","-1.51176440527e-16","-0.0903090354449","0.780288224508","-0.618865546634","2.10146057766","263.774790522","-4.51934320192","0.003761844","0.000018274","1546"
"265","mildessa","0.0","-0.929796315907","1.48600002495","-0.575796308872","1.24500002002","-0.649796312386","1.22100001888","TOP","0.498968641847","0.528779200303","-0.471649389095","0.498968641847","11.2914023463","250.774802702","1.82659772337","0.011125964","0.000083420","1550"
"266","mildessa","0.755","-0.306796305874","0.711000010953","-0.300796305589","0.678000012645","-0.983796315212","1.45700002357","TOP","0.483268131268","0.512413816289","0.519938368922","-0.483268131268","-1.86980647692","253.005685585","-10.9995105314","0.020460571","0.000146592","1551"
"267","mildessa","3.02709246558e-16","-0.441796309026","0.960000016261","-0.444796309169","0.945000015548","-0.983796315212","1.45700002357","TOP","0.483268131268","0.512413816289","0.519938368922","-0.483268131268","-1.86980647692","253.005685585","-10.9995105314","0.015423400","0.000121574","1552"
"268","mildessa","0.755","-1.07179631613","1.48400002485","0.159203699962","-5.48618314037e-16","-0.401796307126","0.949000015738","TOP","0.669123243647","0.743150809923","0.000979041622075","-2.35434319698e-16","-1.03538313089","254.181558425","-25.6006218797","0.012115840","0.000107772","1554"
"269","mildessa","0.0","-0.546796310754","1.21800001874","-0.920796315479","1.46900002414","-0.640796311959","1.2110000184","TOP","-0.496868075912","-0.465942156475","0.537719385087","-0.496868075912","-11.3923218735","251.486848129","2.98835121592","0.004318175","0.000083184","1555"
"270","mildessa","0.0","-0.904796314719","1.50000002561","-0.902796314624","1.49900002556","-0.655796312671","1.23600001959","TOP","-0.497343982653","-0.501801706487","0.503480856841","-0.497343982653","-0.625196957961","248.899566131","2.69973525343","0.013752132","0.000074876","1557"
"271","mildessa","0.0","-0.908796314909","1.52679632796","-1.13579631917","1.57079632679","-0.451796309501","1.17500001995","SIDE","2.84804828596e-16","-0.520315695945","-0.0460991193494","0.852728824274","140.72470166","67.2192809491","-69.4468086503","0.004862038","0.000047911","1563"
"272","mildessa","0.0","-0.617796310866","0.743000012473","-0.171796302721","0.0","-0.326796306824","0.516000008211","SIDE","6.43400908779e-17","0.980734804344","-0.00462223718636","0.195289217498","-70.5319255618","98.9298162222","165.98664295","0.003020469","0.000037883","1569"
"273","mildessa","0.755","-0.466796310214","0.975000016973","-1.08479631675","1.47600002447","-0.132796304128","0.37600000808","TOP","-0.490116141716","-0.493934900963","0.524976807934","-0.490116141716","-17.0903526634","251.518860416","-14.8275235189","0.006267941","0.000085786","1572"
"274","mildessa","0.0","-0.575796308872","0.670000012266","-0.603796310202","0.796000014991","-0.353796308106","0.50000001071","SIDE","0.99978028965","-0.0178487943301","0.0109905854171","-8.32308034072e-18","-3.70707508407","74.0615507338","-178.481536767","0.013147694","0.000069383","1574"
"275","mildessa","0.0","-0.629796311436","0.809000012348","-0.653796312576","0.831000013393","-0.329796306966","0.554000010015","SIDE","2.54404988735e-16","0.545891702525","-0.00187582493204","0.837853644973","-162.913589746","79.0987380622","-71.7560775135","0.013602283","0.000056449","1576"
"276","mildessa","0.0","-0.845796315177","1.38400002336","-1.10379631765","1.3490000217","-0.144796304698","0.463000008953","TOP","0.719000424377","0.692471312189","-0.0593453582143","-3.57077778733e-16","-9.18724172816","254.929554819","16.4551713549","0.009528338","0.000082993","1578"
"277","mildessa","0.755","-0.839796314892","1.41100002138","-1.07879631646","1.44800002314","0.205203702147","0.00700000033248","TOP","0.695768824202","0.704797205267","-0.138443644551","-2.99189630056e-16","-13.1636296587","257.93297084","5.89999533688","0.009861790","0.000088385","1582"
"278","mildessa","0.0","-1.0087963164","1.57079632679","-1.15779632022","1.57079632679","-0.538796310374","1.42300002195","SIDE","0.99990820022","0.00671822529769","-0.0117667574835","-2.65884333344e-16","1.5782053031","100.08537229","-151.576311597","0.004496098","0.000030323","1584"
"279","mildessa","0.0","-1.06579631911","1.57079632679","-1.57079632679","1.57079632679","-0.614796310724","1.49000002514","SIDE","4.26892471757e-17","0.954947776842","0.00538334365382","-0.296725063173","87.5924432324","79.027953492","126.442597035","0.004125678","0.000022180","1586"
"280","mildessa","0.0","-0.588796309489","0.654000011506","-0.635796311721","0.797000015038","-0.322796306634","0.46000000881","SIDE","2.53040385344e-16","-0.526042327408","-0.025215116681","0.850084506191","160.435239847","84.2664565423","-78.0488264641","0.006325519","0.000024200","1589"
"281","mildessa","0.0","-1.13179631898","1.57079632679","-0.658796312814","1.29700002249","-0.577796308967","1.45500002347","SIDE","-8.000126881e-17","0.948661855029","-0.00547063279034","-0.316244773853","91.4390115967","98.3402531076","123.888477733","0.012315260","0.000060315","1591"
"282","mildessa","0.0","-0.602796310154","0.777000014088","-0.611796310581","0.697000013548","-0.342796307584","0.533000009018","SIDE","1.98416062415e-16","0.451903903159","0.0229436187617","0.891771524926","-145.243917284","73.4188484769","-104.554180225","0.012808242","0.000050119","1607"
"283","mildessa","0.0","-1.57079632679","1.57079632679","-0.752796314019","1.38500002341","-0.540796310469","1.20100001793","SIDE","0.691221431236","0.104562468787","0.715038196966","-1.40540368491e-16","-158.41613765","94.4089664478","6.087346835","0.009323047","0.000048406","1612"
"284","mildessa","0.0","-0.564796311609","0.520000008401","-0.633796311626","0.716000011191","-0.285796304876","0.281000006828","SIDE","2.88873469005e-16","-0.520315695945","-0.0460991193494","0.852728824274","162.829247368","69.1777075326","-80.7632446771","0.008856150","0.000039671","1619"
"285","mildessa","0.755","-1.12879631884","1.28000002168","-0.517796309376","1.2110000184","0.214203702574","0.0780000037048","TOP","0.546078665975","0.509063931142","0.380065908948","-0.546078665975","0.368912396567","264.30392073","11.6434459622","0.011395897","0.000061185","1625"
"286","mildessa","0.0","-0.611796310582","0.695000013453","-0.606796310344","0.741000012378","-0.352796308059","0.554000010015","SIDE","2.03804208647e-16","0.834148135478","-0.0378142957004","0.550242643857","-164.760458247","104.040896099","71.9081425099","0.000695134","0.000031810","1626"
"287","mildessa","0.0","-0.101796302656","0.434000007575","-0.554796311134","1.10900001682","-0.973796314737","1.47700002452","TOP","0.484085774922","0.500789511312","0.52965251854","-0.484085774922","15.2689769148","252.819644696","-11.511034832","0.011340880","0.000088316","1637"
"288","mildessa","0.755","-0.00879630149832","0.171000004862","-0.601796310107","1.14800001867","-0.973796314737","1.47700002452","TOP","0.484085774922","0.500789511312","0.52965251854","-0.484085774922","15.2689769148","252.819644696","-11.511034832","0.004844005","0.000087626","1638"
"289","mildessa","0.0","-0.535796310231","0.0","-0.585796309347","0.775000013993","-0.379796306081","0.614000009606","SIDE","0.857745470319","0.0122801208584","-0.513927919828","-2.99318484712e-16","156.284365291","101.383619317","-80.3164609755","0.008253169","0.000030827","1640"
"290","mildessa","0.755","-0.500796308569","1.18100002024","-1.13779631927","1.29500002239","0.203203702052","0.118000002345","TOP","0.551449067185","0.397844314304","0.483247094329","-0.551449067185","4.75533293001","263.249788286","8.19517884692","0.013049847","0.000067994","1642"
"291","mildessa","0.0","-0.580796309109","0.551000009873","-0.600796310059","0.731000011903","-0.326796306824","0.451000008383","SIDE","0.976905400786","-0.0308854210984","-0.211428306238","7.63565329939e-17","73.4277973854","70.7684116616","-163.75709267","0.008272755","0.000038485","1643"
"292","mildessa","0.0","-1.03279631754","1.57079632679","-1.57079632679","1.57079632679","-0.520796309519","1.35600002203","SIDE","2.53040385344e-16","-0.526042327408","-0.025215116681","0.850084506191","138.156710718","83.1985658381","-66.956718941","0.001629347","0.000016300","1651"
"293","mildessa","0.755","-0.98079631507","1.50479632692","-0.982796315165","1.49800002552","0.0962037002293","0.0","TOP","-1.7124646546e-17","-0.01602117949","-0.704927214672","0.709098684121","42.2104687264","249.248118389","0.498172956853","0.008729894","0.000088464","1652"
"294","mildessa","0.0","-0.654796312624","0.760000013281","-0.482796307714","0.450000008335","-0.344796307679","0.2720000064","SIDE","0.691221431236","0.104562468787","0.715038196966","-1.60617563989e-16","-183.039658994","98.0097477668","7.19399515703","0.009468400","0.000043510","1658"
"295","mildessa","0.0","-0.885796313817","1.36300002236","-1.12279631855","1.31700002018","-0.114796303273","0.47600000957","TOP","0.520183814656","0.42319165044","0.528891694904","-0.520183814656","3.03750001529","258.711468147","9.19225552232","0.014010012","0.000117925","1662"
"296","mildessa","0.0","0.315203704112","0.0","-0.263796307091","0.861000014818","-1.03079631744","1.39800002403","TOP","0.756856647488","0.614285784988","0.223206159221","-2.56705189753e-16","-14.4047645663","262.62323572","-1.82904000245","0.009982017","0.000057086","1666"
"297","mildessa","0.755","-0.433796308646","1.17000001972","0.25220370112","0.11200000206","-1.02379631711","1.42900002224","TOP","0.535178467825","0.59219623294","-0.276535055364","0.535178467825","-14.2358294904","262.158309411","-1.75620801305","0.006035722","0.000037868","1668"
"298","mildessa","0.0","-1.57079632679","1.57079632679","-0.819796313942","1.48000002466","-0.531796310041","1.24000001978","SIDE","0.449933569796","0.0937218973018","0.888130614683","3.90646026001e-17","-127.576759035","87.8052290178","95.1439249382","0.008257678","0.000049949","1672"
"299","mildessa","0.755","0.161203700057","0.0","-0.987796315402","1.45400002343","-0.541796310516","1.20300001802","TOP","-0.491982853732","-0.400472443331","0.59626132308","-0.491982853732","-13.1250997475","258.129121221","5.90635763458","0.010538653","0.000053154","1673"
"300","mildessa","0.0","-0.572796308729","0.702000010526","-0.591796309632","0.747000012663","-0.373796305796","0.56800001068","SIDE","4.31433881031e-17","0.954947776842","0.00538334365382","-0.296725063173","101.709285954","79.1075346142","146.966157117","0.012577535","0.000061648","1676"
"301","mildessa","0.755","-1.0677963192","1.43600002257","-0.492796308189","1.06200001785","-0.131796304081","0.43600000767","TOP","0.508410075753","0.531614665851","0.447687655401","-0.508410075753","-9.17017399199","255.128709699","16.4483867104","0.018284545","0.000151186","1677"
"302","mildessa","0.755","-0.442796309074","0.961000016308","-1.0677963192","1.43600002257","-0.143796304651","0.46000000881","TOP","0.719000424377","0.692471312189","-0.0593453582143","-3.57077778733e-16","-9.17017399199","255.128709699","16.4483867104","0.019417856","0.000132333","1678"
"303","mildessa","0.0","-1.09779631737","1.40200002096","1.09820371523","1.57079632679","-0.0537963036357","0.693000013358","TOP","0.0","0.0603888848879","-0.623025709889","0.779866749772","5.13209522056","259.362771761","9.06071608013","0.000935320","0.000023311","1684"
"304","mildessa","0.755","-1.01279631659","1.51679632749","-0.987796315402","1.48600002495","0.179203700912","2.00542919808e-16","TOP","0.473141583032","0.526179264111","-0.524794690171","0.473141583032","-1.0340729318","253.187039402","-25.7051700558","0.011513803","0.000069139","1688"
"305","mildessa","0.0","-1.57079632679","1.57079632679","-0.997796315877","1.57079632679","-0.518796309424","1.34200002137","SIDE","0.887128593228","0.0455073325558","-0.459273275687","-7.82174529924e-17","125.434121182","87.2473886321","-89.1919428934","0.003868577","0.000018999","1696"
"306","mildessa","0.0","-0.674796310314","0.768000013661","-0.514796309234","0.50000001071","-0.338796307394","0.3280000058","SIDE","0.449933569796","0.0937218973018","0.888130614683","3.90646026001e-17","-147.48481997","89.9060700558","109.968353316","0.008628268","0.000039036","1697"
"307","mildessa","0.0","-0.599796310012","0.786000014516","-0.550796310944","0.803000012063","-0.422796308124","0.676000012551","SIDE","0.582903138157","-0.0346178504934","-0.811803877765","7.73761666784e-17","164.579927233","73.5964344711","61.7633094694","0.010988236","0.000043474","1699"
"308","mildessa","0.0","-0.091796302181","0.531000008923","0.15220369963","0.326000005705","-1.12879631884","1.23900001973","TOP","0.551449067185","0.483247094329","-0.397844314304","0.551449067185","4.43508501375","266.553752016","7.45947226923","0.013828244","0.000086284","1701"
"309","mildessa","0.0","-0.965796317617","1.52679632796","1.09820371523","1.57079632679","-0.470796307144","0.936000015121","TOP","0.501408488072","0.487130129078","-0.509787498398","0.501408488072","42.1741148127","247.648556816","0.507199977648","0.007304017","0.000031865","1703"
"310","mildessa","0.0","-0.585796309347","1.14700001862","-0.081796301706","0.3680000077","-0.970796314595","1.50079632673","TOP","0.490116141716","0.524976807934","0.493934900963","-0.490116141716","-17.0964383197","251.319106373","-14.8353524535","0.011052675","0.000097251","1704"
"311","mildessa","0.755","-0.649796312386","1.22000001883","0.0122036994992","0.0840000039898","-0.970796314595","1.50079632673","TOP","0.490116141716","0.524976807934","0.493934900963","-0.490116141716","-17.0964383197","251.319106373","-14.8353524535","0.017221674","0.000163030","1705"
"312","mildessa","0.0","-0.641796312006","0.770000013756","-0.623796311151","0.734000012046","-0.317796306396","0.516000008211","SIDE","-0.296725063173","-0.00538334365382","0.954947776842","-6.83482095738e-17","102.049314302","79.1094514619","147.460502232","0.006134656","0.000041107","1716"
"313","mildessa","0.0","-0.583796309252","0.750000012806","-0.551796310991","0.705000010668","-0.386796306414","0.582000011345","SIDE","-0.474746245969","0.00489034519964","0.880109133268","3.44930641918e-17","146.696709933","78.1000500644","102.054893616","0.011793178","0.000051659","1725"
"314","mildessa","0.755","-0.132796304128","0.626000010176","0.172203700579","0.114000002155","-1.12879631884","1.23900001973","TOP","0.551449067185","0.483247094329","-0.397844314304","0.551449067185","4.43508501375","266.553752016","7.45947226923","0.013942538","0.000075948","1727"
"315","mildessa","0.0","-1.57079632679","1.57079632679","-1.15079631988","1.57079632679","-0.507796308901","1.37700002303","SIDE","-0.296725063173","-0.00538334365382","0.954947776842","-6.83482095738e-17","87.9324715809","79.0298703397","126.93694215","0.004122958","0.000028424","1728"
"316","mildessa","0.755","0.228203703239","0.155000004102","-0.912796315099","1.55979632953","-0.744796313639","1.50379632687","TOP","0.779866749772","0.623025709889","0.0603888848879","-2.04643369956e-16","5.49001939658","255.670106061","9.88297645167","0.016554318","0.000177295","1739"
"317","mildessa","0.755","0.165203700247","0.15200000396","-0.115796303321","0.581000011298","-1.13579631917","1.25000002026","TOP","0.546078665975","0.380065908948","-0.509063931142","0.546078665975","0.608418796355","265.954738962","11.3156730204","0.011885360","0.000088734","1740"
"318","mildessa","3.2786273696e-16","0.141203699107","0.37600000808","-0.079796301611","0.504000007641","-1.13579631917","1.25000002026","TOP","0.546078665975","0.380065908948","-0.509063931142","0.546078665975","0.608418796355","265.954738962","11.3156730204","0.014232205","0.000109787","1742"
"319","mildessa","0.0","-1.09379631718","1.33600002108","-0.778796311994","1.37200002279","-0.155796305221","0.531000008923","TOP","0.0","0.074741218212","-0.673224589747","0.735651005613","3.18045700029","257.423796366","9.29932977436","0.006311288","0.000070227","1743"
"320","mildessa","0.0","-0.963796317522","1.57079632679","-1.57079632679","1.57079632679","-0.598796309964","1.44200002286","SIDE","-8.38585265979e-17","-0.305377914303","-0.0354735277307","0.951570259249","87.3569972043","85.7788888663","-125.268846194","0.002047576","0.000019772","1744"
"321","mildessa","0.0","-0.540796310469","0.559000010253","-0.622796311104","0.796000014991","-0.343796307631","0.433000007528","SIDE","3.67622029064e-16","-0.459273275687","-0.0455073325558","0.887128593228","146.139940209","89.2990355321","-103.777137613","0.012259255","0.000047305","1752"
"322","mildessa","0.0","-1.57079632679","1.57079632679","-0.909796314957","1.56979633001","-0.471796307191","1.19600002095","SIDE","0.565968373913","0.0803729658195","0.820499839181","-7.35612895392e-17","-146.520905637","88.4585832951","59.8143911552","0.009779361","0.000044605","1756"
"323","mildessa","0.0","-0.271796304211","0.862000014866","0.48420370562","1.13900001824","-1.02379631711","1.42900002224","TOP","0.535178467825","0.59219623294","-0.276535055364","0.535178467825","-14.2358294904","262.158309411","-1.75620801305","0.006565614","0.000055128","1761"
"324","mildessa","0.0","-1.57079632679","1.57079632679","-0.999796315972","1.57079632679","-0.640796311959","1.50479632692","SIDE","-0.474746245969","0.00489034519964","0.880109133268","3.44930641918e-17","125.880493711","78.2157158145","88.3735243991","0.005287427","0.000016238","1765"
"325","mildessa","0.0","-1.57079632679","1.57079632679","-0.831796314512","1.52879632806","-0.565796311656","1.30200001947","SIDE","0.311074218791","0.104098428498","0.944667321118","1.02834630227e-16","-94.0706940339","85.6332977672","127.623107723","0.005272787","0.000032082","1768"
"326","mildessa","0.0","-0.660796312909","0.687000013073","-0.510796309044","0.55200000992","-0.359796308391","0.374000007985","SIDE","0.311074218791","0.104098428498","0.944667321118","1.10179960958e-16","-108.710881384","87.2465858126","147.712167334","0.008692052","0.000038685","1771"
"327","mildessa","0.0","-0.701796311597","0.808000012301","-0.552796311039","0.532000008971","-0.298796305494","0.298000007635","SIDE","0.565968373913","0.0803729658195","0.820499839181","-9.80817193855e-17","-169.656165774","90.7248231934","68.7660387777","0.008849596","0.000040392","1774"
"328","mildessa","0.0","-0.900796314529","1.57079632679","-1.57079632679","1.57079632679","-0.551796310991","1.34200002137","SIDE","3.59800283765e-16","-0.459273275687","-0.0455073325558","0.887128593228","125.841555662","87.2877594905","-89.4789400522","0.003606154","0.000023512","1775"
