ipa-fxm/offline_grasp_database/grasping/grasp_generated/Openrave/fanta-small/fanta-small.csv
"id","object","sdh_knuckle_joint","sdh_finger_12_joint","sdh_finger_13_joint","sdh_finger_22_joint","sdh_finger_23_joint","sdh_thumb_2_joint","sdh_thumb_3_joint","direction","qw","qx","qy","qz","pos-x","pos-y","pos-z","eps_l1","vol_l1","indicee"
"0","fanta-small","0.755","-0.180796303149","1.1780000201","-0.156796305268","1.57079632679","-1.1447963196","1.64674527042e-15","SIDE","0.693739074098","0.124862261135","-0.147856720792","0.693739074098","2.78596904478","224.677233407","-121.299304017","0.001877567","0.000033451","34"
"1","fanta-small","0.0","-0.867796316222","1.57079632679","-0.257796306806","1.57079632679","-1.12679631874","-7.24339669136e-16","SIDE","0.693739074098","0.124862261135","-0.147856720792","0.693739074098","2.86253939429","225.585373371","-123.519533624","0.000566725","0.000042774","40"
"2","fanta-small","0.755","-0.102796302703","0.985000017448","-0.145796304746","1.54479632882","-0.0427963031132","0.00400000018999","SIDE","-0.490483242011","-0.49661474643","0.521752980097","0.490483242011","149.203294956","213.357722231","4.87787597442","0.000138590","0.000000402","46"
"3","fanta-small","0.755","-0.406796307364","1.57079632679","-0.304796305779","1.57079632679","0.0362036973794","0.26800000621","SIDE","0.702527838287","0.103251968395","0.0474162829341","-0.702527838287","7.46215680418","238.469347993","-115.90211445","0.001690159","0.000003361","76"
"4","fanta-small","0.755","-0.226796305333","1.26900002116","-0.169796305886","1.57079632679","-0.0277963024008","0.00700000033248","SIDE","0.702527838287","0.103251968395","0.0474162829341","-0.702527838287","9.41640227228","243.742727283","-140.168974476","0.000056791","0.000000013","77"
"5","fanta-small","0.755","-0.180796303149","1.11000001687","-0.260796306948","1.57079632679","0.0372036974269","0.00400000018999","SIDE","-0.490483242011","-0.49661474643","0.521752980097","0.490483242011","124.318588367","213.971996969","3.93865047196","0.000100554","0.000000466","83"
"6","fanta-small","0.0","-0.103796302751","1.57079632679","-0.560796311419","1.57079632679","0.0982037003243","1.57079632679","SIDE","0.708865979641","0.138904321261","0.691530630155","-9.7887246718e-17","-117.014482019","236.752427717","-0.753263860994","0.000760083","0.000004079","104"
"7","fanta-small","0.755","-0.0197963020208","0.663000011933","-0.00379630126083","1.28400002187","-1.18679631833","1.05182742475e-15","SIDE","0.702527838287","0.0474162829341","-0.103251968395","0.702527838287","9.98125848458","245.266947807","-147.183081384","0.005098174","0.000029257","136"
"8","fanta-small","0.755","-0.219796305001","1.2510000203","-0.175796302911","1.57079632679","-1.04979631835","-7.43965824869e-16","SIDE","0.689592539727","0.150002703716","-0.1625529058","0.689592539727","1.34860733227","245.286492066","-119.566742101","0.000416906","0.000043585","137"
"9","fanta-small","0.0","-1.14679631969","1.57079632679","-0.180796303149","1.57079632679","0.133203698727","1.57079632679","SIDE","1.95774493436e-16","0.691530630155","-0.138904321261","0.708865979641","-122.710635867","237.896585835","-0.782209016642","0.000301626","0.000007275","149"
"10","fanta-small","0.0","-0.411796307601","1.35500002198","-0.112796303178","1.57079632679","0.0762036992793","1.45500002347","SIDE","2.61031496037e-16","-0.0394817918218","-0.106538542224","0.99352439685","9.46347362331","243.86974566","-140.753483385","0.001195583","0.000014096","152"
"11","fanta-small","0.0","-0.198796304004","0.874000015436","-0.990796315545","1.57079632679","-0.819796313942","-5.03545417133e-16","SIDE","0.126031549362","0.779251988697","0.600831453274","-0.126031549362","5.61335115487","224.784357238","154.644826327","0.005564601","0.000044416","154"
"12","fanta-small","0.0","-0.110796303083","1.57079632679","-0.434796308694","1.31500002008","0.0702036989944","1.40900002129","SIDE","0.99352439685","0.106538542224","-0.0394817918218","6.46031127315e-17","9.59684245121","244.229631062","-142.40959196","0.003763402","0.000014526","156"
"13","fanta-small","0.0","-0.903796314672","0.0","0.188203701339","1.31500002008","-0.388796306509","1.57079632679","SIDE","0.488533923891","0.680861432329","-0.243098581613","-0.488533923891","141.839390531","256.504800799","6.09211071678","0.002822005","0.000019150","186"
"14","fanta-small","0.755","-0.113796303226","0.780000014231","-0.215796304811","1.22700001916","-0.939796316382","0.0","SIDE","0.602990056266","0.482112766209","0.200930994986","0.602990056266","-132.003539815","221.300585121","-72.5754983145","0.005231815","0.000041231","190"
"15","fanta-small","0.0","-0.806796313324","1.57079632679","-0.0547963036832","0.660000011791","-0.793796312707","0.0","SIDE","0.515987313497","-0.275025156564","-0.625999479135","0.515987313497","148.738038834","238.722796388","-9.2837544633","0.002851308","0.000031101","197"
"16","fanta-small","0.0","-0.634796311674","1.57079632679","-1.57079632679","1.57079632679","-0.0707963011835","1.47200002428","SIDE","2.36577993723e-16","-0.00887433299876","-0.221010190987","0.975231122193","1.3139892272","244.424347946","-117.762439021","0.002236091","0.000013561","198"
"17","fanta-small","0.755","-0.126796303843","1.0400000168","-0.847796315272","-7.42426601905e-16","-0.0747963013735","0.30400000466","SIDE","0.690697150473","0.283320687257","-0.665332123454","-2.41109223601e-16","140.067200804","226.022559882","5.53403593523","0.000720945","0.000033914","200"
"18","fanta-small","0.0","-0.215796304811","1.57079632679","-0.896796314339","1.57079632679","0.120203701369","1.57079632679","SIDE","0.99352439685","0.106538542224","-0.0394817918218","6.28570826577e-17","7.64259698311","238.956251772","-118.142731935","0.000262474","0.000005830","210"
"19","fanta-small","0.0","-0.579796309062","1.27700002154","-0.0977963024659","1.57079632679","0.0802036994693","1.32000002032","SIDE","1.76197044092e-16","0.691530630155","-0.138904321261","0.708865979641","-147.13252629","242.802089605","-0.906309495375","0.002052172","0.000014159","214"
"20","fanta-small","0.0","-1.57079632679","1.57079632679","-0.666796313194","1.57079632679","-0.087796301991","1.54079632863","SIDE","0.975231122193","0.221010190987","-0.00887433299876","-1.97444791754e-16","1.28283293827","243.648418378","-116.138566544","0.002391741","0.000013921","219"
"21","fanta-small","0.755","-0.434796308694","1.57079632679","0.00120369897666","0.478000009665","-0.797796312897","0.0","SIDE","0.515987313497","-0.275025156564","-0.625999479135","0.515987313497","148.0871546","238.469258756","-9.23827431893","0.007672646","0.000030414","222"
"22","fanta-small","0.0","-1.0087963164","1.57079632679","-0.209796304526","0.968000016641","-0.890796314054","0.0","SIDE","0.621040267803","-0.158277886683","-0.451182980752","0.621040267803","122.501380173","226.260140296","-89.3567295953","0.005757414","0.000049936","224"
"23","fanta-small","0.0","-0.0567963037782","1.57079632679","0.0582036984244","0.995000017923","-0.583796309252","1.43300002243","SIDE","1.59868862824e-16","0.400027482325","0.911476878035","-0.0958536081364","9.44419868313","239.599491453","143.587008811","0.001161017","0.000014501","225"
"24","fanta-small","0.0","-0.819796313942","0.0","-0.252796306568","1.07900001865","-0.391796306651","1.53279632825","SIDE","0.333654648861","0.833894593531","-0.286302213519","-0.333654648861","118.369400355","225.089730212","87.8928480404","0.000941459","0.000036620","227"
"25","fanta-small","0.0","-0.622796311104","1.57079632679","-0.775796311852","1.57079632679","-0.170796302674","1.57079632679","SIDE","0.981095207338","0.192841441479","-0.0162595383527","-3.2533959721e-16","2.81149249462","224.979946729","-122.039380553","0.001576694","0.000008045","229"
"26","fanta-small","0.0","-0.985796315307","1.57079632679","-0.502796308664","1.57079632679","-0.0887963020385","1.57079632679","SIDE","0.20571342234","0.977030732925","-0.0556141599622","-2.00632125663e-16","1.76144516864","232.105687856","114.301745059","0.002603606","0.000008261","237"
"27","fanta-small","0.755","-0.0347963027332","0.928000014741","-0.00779630145082","1.57079632679","-1.57079632679","0.599000012153","SIDE","0.702527838287","0.0474162829341","-0.103251968395","0.702527838287","8.02701301648","239.993568517","-122.916221358","0.000032463","0.000032734","240"
"28","fanta-small","0.755","-0.962796317474","0.0","-0.129796303986","0.765000013518","-0.391796306651","1.53279632825","SIDE","0.333654648861","0.833894593531","-0.286302213519","-0.333654648861","118.369400355","225.089730212","87.8928480404","0.000497542","0.000066701","244"
"29","fanta-small","0.755","-0.209796304526","1.05600001756","-0.111796303131","0.828000013251","-0.908796314909","0.0","SIDE","0.621040267803","-0.158277886683","-0.451182980752","0.621040267803","120.684581553","225.386992241","-88.0540959543","0.002935749","0.000038041","247"
"30","fanta-small","0.755","-0.099796302561","0.715000011143","-0.087796301991","0.978000017116","-0.956796317189","0.0","SIDE","0.693739074098","0.124862261135","-0.147856720792","0.693739074098","3.58070541442","234.102968861","-144.343435705","0.002734432","0.000045336","250"
"31","fanta-small","1.66533453694e-16","0.53620370483","0.641000010888","0.502203706475","0.70000001369","-1.57079632679","0.599000012153","SIDE","0.702527838287","0.0474162829341","-0.103251968395","0.702527838287","8.02701301648","239.993568517","-122.916221358","0.004947466","0.000056150","253"
"32","fanta-small","0.755","-0.0907963021335","0.698000013595","-0.421796308076","1.56679632986","-0.766796314684","0.0","SIDE","0.499422485015","0.641459839341","0.299472264885","0.499422485015","-153.089148913","222.58486657","0.0638613218143","0.003761651","0.000060923","258"
"33","fanta-small","0.755","-1.57079632679","1.57079632679","-0.471796307191","1.57079632679","-0.276796304449","1.54379632877","SIDE","0.719676072056","0.270396456426","0.639493633793","-1.15700285281e-16","-124.742837827","241.42368086","-4.36699439405","0.002530691","0.000013993","267"
"34","fanta-small","0.0","0.0322036971895","1.54479632882","-0.0687963043482","1.57079632679","-0.691796311122","1.57079632679","SIDE","0.0677787363144","0.927373626766","0.36164933594","-0.0677787363144","7.58757845225","235.369116075","119.821887659","0.004193329","0.000012670","272"
"35","fanta-small","0.0","-0.206796304384","1.00400001509","-1.00379631616","1.57079632679","-0.908796314909","1.83370033541e-16","SIDE","0.602990056266","0.482112766209","0.200930994986","0.602990056266","-135.380862244","222.690893556","-74.4384892131","0.006588747","0.000045282","276"
"36","fanta-small","0.0","-0.713796312167","1.57079632679","-0.760796314399","1.57079632679","-0.242796306093","1.57079632679","SIDE","2.1686203394e-17","-0.22299251408","-0.169876166981","0.95990438407","56.8386017483","212.058188707","-114.418054007","0.000820125","0.000007669","278"
"37","fanta-small","0.0","-0.273796304306","1.57079632679","-1.3157963212","1.57079632679","-0.0947963023234","1.57079632679","SIDE","0.690891300846","0.309545080293","-0.653338391404","-1.20520734224e-16","109.240306914","241.059686769","4.45494032366","0.003453869","0.000005949","280"
"38","fanta-small","0.0","-0.101796302656","1.57079632679","0.0972037002768","1.47300002433","-1.04379631806","1.57079632679","SIDE","1.67481665816e-16","0.400027482325","0.911476878035","-0.0958536081364","7.53389674036","235.246800381","119.134750696","0.004751649","0.000010620","281"
"39","fanta-small","0.0","-0.249796306426","1.0590000177","-0.813796313657","0.0","-0.346796307774","1.30300001951","SIDE","0.2733453756","-0.334183162496","0.859584914468","-0.2733453756","-110.154509562","202.407643936","112.653422049","0.002010096","0.000029863","286"
"40","fanta-small","0.755","-0.499796308521","1.57079632679","-0.110796303083","0.637000010698","-0.652796312529","0.0","SIDE","-0.488396638846","0.270122877026","0.670798835446","-0.488396638846","148.890426689","229.779784783","5.97443491726","0.008511709","0.000023567","287"
"41","fanta-small","0.0","-0.808796313419","0.14400000358","-0.333796307156","1.31600002013","-0.283796304781","1.31500002008","SIDE","0.29493370367","0.865755394752","-0.276578772389","-0.29493370367","105.041296321","211.754114824","102.630173545","0.003659646","0.000038539","291"
"42","fanta-small","0.0","-0.153796305126","-1.84001139549e-16","-0.108796302988","0.0","-0.124796303748","0.0","TOP","0.693624652976","0.719455543925","0.0356168653689","-1.75066792677e-16","-6.79789747282","358.538154053","4.49011752369","0.003956670","0.000003368","297"
"43","fanta-small","0.0","-0.107796302941","-3.89155798702e-16","-0.179796303101","-6.83548134705e-16","-0.107796302941","1.02177487378e-15","TOP","0.490466695718","0.483546966845","0.533916820899","-0.490466695718","-6.80777936779","358.737766907","4.49767146048","0.003617652","0.000002284","298"
"44","fanta-small","0.0","-0.228796305428","0.0","-0.155796305221","0.0","-0.0577963038257","1.78463494607e-16","TOP","0.490466695718","0.533916820899","-0.483546966845","0.490466695718","-6.91648021245","360.933508292","4.58076476511","0.004481799","0.000003621","300"
"45","fanta-small","0.755","-0.489796308046","1.57079632679","-0.496796308379","1.57079632679","-1.57079632679","1.57079632679","SIDE","0.689592539727","0.1625529058","0.150002703716","-0.689592539727","1.4074581109","246.75213707","-122.634057335","0.001974662","0.000008690","305"
"46","fanta-small","0.0","-0.462796310024","1.57079632679","-0.216796304859","0.558000010205","-0.176796302959","0.478000009665","SIDE","2.08908526289e-16","0.161821684602","0.963234611761","-0.214459378666","9.13604270939","254.6738445","144.429293437","0.003273919","0.000011337","308"
"47","fanta-small","0.0","-0.494796308284","1.57079632679","-0.225796305286","0.611000009463","-0.173796302816","0.529000008828","SIDE","0.719676072056","0.270396456426","0.639493633793","-1.15700285281e-16","-147.855501381","251.196385376","-5.26762223173","0.002383605","0.000010345","310"
"48","fanta-small","0.0","-0.190796303624","0.0","-0.233796305666","0.0","-0.0407963030182","0.0","TOP","-3.85785832773e-17","-0.0356168653689","0.719455543925","-0.693624652976","-6.92142115993","361.033314719","4.5845417335","0.004386292","0.000003412","312"
"49","fanta-small","4.99600361081e-16","-0.861796315937","0.0","-0.292796305209","1.03700001666","-0.395796306841","1.5317963282","SIDE","-3.47463343454e-17","0.798805863655","-0.472565785664","0.372277813482","-96.9327684258","223.82190245","116.539191827","0.000721734","0.000038056","316"
"50","fanta-small","0.0","-0.831796314512","0.24400000507","-0.385796306366","1.30300001951","-0.211796304621","1.197000021","SIDE","-6.57620390837e-17","0.844121502385","-0.371515141667","0.386568737385","-106.369301919","200.741696617","108.586872304","0.007832790","0.000055236","320"
"51","fanta-small","0.755","-0.910796315004","0.0","-0.145796304746","0.735000012093","-0.395796306841","1.5317963282","SIDE","-3.47463343454e-17","0.798805863655","-0.472565785664","0.372277813482","-96.9327684258","223.82190245","116.539191827","0.008348336","0.000080179","321"
"52","fanta-small","0.0","-0.178796303054","1.25200002035","-0.859796315842","-4.87286577369e-16","-0.484796307809","1.54579632887","SIDE","0.211075160856","-0.350771975225","0.887611161678","-0.211075160856","-89.4483056614","185.218640255","125.815746224","0.004045551","0.000033337","323"
"53","fanta-small","0.0","-0.298796305494","1.05300001742","-0.762796314494","0.0","-0.263796307091","1.15900001919","SIDE","-0.417099243731","-0.416610784989","0.807752235967","1.71807482417e-16","109.353781029","213.978345917","106.803335032","0.003724725","0.000028909","324"
"54","fanta-small","0.0","0.180203700959","1.33400002099","0.754203708665","0.339000006323","-1.57079632679","0.736000012141","SIDE","0.501243941156","0.587206185481","0.390765810481","0.501243941156","-125.357729416","238.428294362","-0.795660292156","0.004014711","0.000050146","325"
"55","fanta-small","0.0","-1.48479632271","1.57079632679","-0.293796305256","1.57079632679","-0.0477963033507","1.57079632679","SIDE","0.0","0.652896923161","-0.258536626856","0.711958159094","-119.149971096","223.143010813","-1.66012281097","0.005518103","0.000006443","328"
"56","fanta-small","0.755","-0.160796305458","0.682000012835","-0.858796315794","0.0","-0.407796307411","1.52979632811","SIDE","0.373560742334","-0.32045050349","0.786267269054","-0.373560742334","-136.630167685","224.248750616","72.634028642","0.007731910","0.000078303","332"
"57","fanta-small","0.755","-0.806796313324","0.0420000019949","-0.105796302846","1.03900001675","-0.071796301231","0.241000004928","SIDE","1.1789310447e-16","0.665339471534","-0.24182173298","0.706290051662","-146.88616955","220.330355477","0.0486237302853","0.004887127","0.000042155","335"
"58","fanta-small","0.0","-0.981796315117","1.54679632891","-0.201796304146","0.663000011933","-0.621796311056","0.0","SIDE","-0.488396638846","0.270122877026","0.670798835446","-0.488396638846","154.221125843","232.049774905","6.24050931127","0.000402645","0.000041264","340"
"59","fanta-small","0.755","-0.164796305648","0.681000012788","-0.815796313752","1.02580336867e-14","-0.461796309976","1.57000632679","SIDE","-0.355426773296","-0.509607164304","0.783563875452","2.47955572476e-16","90.4535949015","226.156936771","121.766203853","0.008474858","0.000048122","341"
"60","fanta-small","0.0","-0.468796310309","1.57079632679","-1.57079632679","1.57079632679","-0.288796305019","1.57079632679","SIDE","1.14108362087e-16","-0.637120629919","-0.248176323513","0.72971625676","125.017959114","229.48316122","-7.6263281602","0.002777610","0.000013634","347"
"61","fanta-small","0.0","-0.288796305019","0.738000012236","-0.546796310754","1.57079632679","-0.177796303006","0.646000011126","SIDE","1.14108362087e-16","-0.637120629919","-0.248176323513","0.72971625676","148.180138062","238.505478417","-9.24477148241","0.003439267","0.000015805","352"
"62","fanta-small","0.0","0.110203700894","0.990000017686","0.602203707965","-2.76305403234e-16","-1.15079631988","0.0","SIDE","0.501243941156","0.587206185481","0.390765810481","0.501243941156","-149.779619839","243.333798131","-0.919760770889","0.000869805","0.000029872","354"
"63","fanta-small","0.755","0.0452036978069","0.527000008733","-0.0337963026858","1.39100002369","-1.15079631988","0.0","SIDE","0.501243941156","0.587206185481","0.390765810481","0.501243941156","-149.779619839","243.333798131","-0.919760770889","0.003111674","0.000039595","355"
"64","fanta-small","0.0","-0.918796315384","1.57079632679","-1.57079632679","1.57079632679","-0.243796306141","1.57079632679","SIDE","2.38340912048e-16","0.213637501201","-0.177027884234","0.960739374796","-54.9296310598","211.299378699","-109.097238059","0.000014098","0.000002729","361"
"65","fanta-small","0.0","-0.713796312167","1.57079632679","-0.679796310552","1.57079632679","-0.179796303101","1.55679632939","SIDE","1.3879977381e-16","-0.0162595383527","-0.192841441479","0.981095207338","2.8529681006","225.471855876","-123.242004923","0.004527485","0.000021527","374"
"66","fanta-small","0.0","-0.591796309632","1.57079632679","-0.965796317617","1.57079632679","-0.217796304906","1.57079632679","SIDE","0.95990438407","0.169876166981","-0.22299251408","-1.66260892687e-16","53.9703115781","209.873119213","-108.771073539","0.001430438","0.000002822","378"
"67","fanta-small","0.0","-0.339796307441","1.32900002075","-0.843796315082","6.51030455176e-16","-0.317796306396","1.33900002122","SIDE","-0.351820226969","-0.379539461449","0.855670687296","2.27060517783e-16","94.2371558754","189.904458002","118.119549998","0.006017982","0.000035516","381"
"68","fanta-small","0.0","-0.182796303244","0.550000009825","-0.514796309234","1.57079632679","-0.246796306283","0.0","SIDE","1.20520734224e-16","-0.653338391404","-0.309545080293","0.690891300846","142.922716545","257.018069639","6.14651682517","0.002311266","0.000012532","384"
"69","fanta-small","0.0","-0.636796311769","1.23300001945","-0.395796306841","1.1950000209","-0.189796303576","1.02500001609","SIDE","0.0206942094113","0.993094834516","-0.113605233377","-0.0206942094113","5.28851751514","141.390112253","159.988554979","0.008180585","0.000046060","388"
"70","fanta-small","0.755","-0.744796313639","0.14000000339","-0.180796303149","1.13100001786","-0.071796301231","0.401000006008","SIDE","0.178235526395","0.975866360421","-0.1261623705","-3.05751330274e-16","5.27605190072","222.175346372","147.621344737","0.012480960","0.000047411","396"
"71","fanta-small","0.755","-0.220796305049","0.502000007546","-0.413796307696","1.57079632679","-0.246796306283","0.0","SIDE","1.20520734224e-16","-0.653338391404","-0.309545080293","0.690891300846","142.561607873","256.846980026","6.12838145571","0.008350235","0.000016724","420"
"72","fanta-small","0.0","-0.577796308967","1.57079632679","-1.01179631654","1.57079632679","-0.165796305696","1.57079632679","SIDE","0.878283569507","0.20711517826","-0.430953912231","-2.37015497437e-16","96.0745280778","213.559473177","-70.408836206","0.001065999","0.000002306","428"
"73","fanta-small","0.755","-1.20679631928","0.933000014978","-0.206796304384","1.57079632679","-0.0587963038732","0.213000003598","SIDE","0.214459378666","0.963234611761","-0.161821684602","-2.08908526289e-16","6.64358862511","239.837649659","111.822497808","0.002752349","0.000042989","437"
"74","fanta-small","0.755","-0.153796305126","1.57079632679","-1.25779632171","0.691000013263","-0.0947963023235","0.279000006733","SIDE","0.690891300846","0.309545080293","-0.653338391404","-1.20520734224e-16","109.240306914","241.059686769","4.45494032366","0.002018328","0.000046513","440"
"75","fanta-small","0.755","-0.322796306634","1.41900002176","-0.704796311739","0.0","-0.0927963022285","0.775000013993","SIDE","0.878283569507","0.20711517826","-0.430953912231","-2.37015497437e-16","117.732283394","223.96812646","-85.9373160002","0.008801478","0.000051714","442"
"76","fanta-small","0.0","-0.0207963020683","0.675000012503","-0.658796312814","1.57079632679","-0.756796314209","0.0","SIDE","0.508887830809","0.643389452928","0.260991117033","0.508887830809","-145.738451223","250.301235166","-5.18512744261","0.004864023","0.000027491","447"
"77","fanta-small","0.0","-0.891796314102","0.187000005622","-0.313796306206","1.31200001994","-0.402796307174","1.47400002438","SIDE","0.248774468249","0.873425472368","-0.336675618531","-0.248774468249","94.41778124","189.984575803","118.345283529","0.002984726","0.000060528","452"
"78","fanta-small","0.0","-1.04279631801","1.57079632679","-0.514796309234","1.57079632679","-0.124796303748","1.57079632679","SIDE","0.178235526395","0.975866360421","-0.1261623705","-3.05751330274e-16","4.00735698755","212.361986949","121.203689624","0.000573380","0.000002928","454"
"79","fanta-small","0.755","0.0262037001641","0.391000008793","-0.357796308296","1.57079632679","-0.743796313592","1.34304644207e-16","SIDE","0.151645680944","0.795534936375","0.566684515325","-0.151645680944","9.11522020133","254.549899674","144.156889115","0.007966379","0.000022009","455"
"80","fanta-small","0.0","-0.422796308124","1.26900002116","-0.525796309756","1.25000002026","-0.185796303386","1.06000001775","SIDE","-0.355557543566","-0.0633060280941","0.932508005339","2.49277158427e-16","103.415419459","142.412748638","118.909952864","0.007285900","0.000024333","459"
"81","fanta-small","0.0","-0.348796307869","1.30500001961","-0.721796312547","0.753000012948","-0.231796305571","1.16300001938","SIDE","-0.450234386356","-0.282423297635","0.847069110696","0.0","119.289953905","188.447292001","93.9571340538","0.003064801","0.000043850","460"
"82","fanta-small","0.0","-0.557796311276","1.57079632679","-0.270796304164","0.629000010318","-0.198796304004","0.5600000103","SIDE","0.711958159094","0.258536626856","0.652896923161","-3.89848409785e-17","-153.557079771","236.767669624","-2.16970760756","0.003434558","0.000018899","465"
"83","fanta-small","0.755","-0.360796308439","1.47600002447","-1.57079632679","1.57079632679","-0.376796305939","1.55579632934","SIDE","1.20520734224e-16","-0.653338391404","-0.309545080293","0.690891300846","120.073566763","246.192375027","4.9990013928","0.004330989","0.000020460","469"
"85","fanta-small","0.0","-1.0677963192","1.57079632679","-0.457796309786","1.57079632679","-0.126796303843","1.57079632679","SIDE","1.5719080596e-16","0.665339471534","-0.24182173298","0.706290051662","-123.380638605","211.787125335","-0.00911750312131","0.000006093","0.000002541","472"
"86","fanta-small","0.755","-0.494796308284","1.57079632679","-1.57079632679","1.57079632679","-0.288796305019","1.57079632679","SIDE","1.52144482782e-16","-0.637120629919","-0.248176323513","0.72971625676","125.017959114","229.48316122","-7.6263281602","0.004074237","0.000018234","474"
"87","fanta-small","0.755","-0.412796307649","1.57079632679","-0.299796305541","0.658000011696","-0.173796302816","0.534000009065","SIDE","0.719676072056","0.270396456426","0.639493633793","-1.15700285281e-16","-147.671410063","251.118546228","-5.26044877181","0.007788226","0.000016045","477"
"88","fanta-small","0.755","-0.807796313372","0.00800000037998","-0.152796305078","1.22900001926","-0.0267963023533","0.0560000026599","SIDE","3.89848409785e-17","0.652896923161","-0.258536626856","0.711958159094","-144.818176049","233.307205023","-2.04028050231","0.004182240","0.000035558","484"
"89","fanta-small","0.755","-0.505796308806","1.57079632679","-0.480796307619","1.57079632679","-1.57079632679","1.57079632679","SIDE","0.693739074098","0.147856720792","0.124862261135","-0.693739074098","3.00259931468","227.246512597","-127.580703306","0.000128368","0.000008058","488"
"91","fanta-small","0.0","-0.233796305666","1.37100002274","-0.744796313639","0.0","-0.127796303891","1.03900001675","SIDE","0.263240166398","-0.230686571442","0.898995514642","-0.263240166398","-93.8995156932","222.027459612","112.852817455","0.001050075","0.000020900","494"
"92","fanta-small","0.755","-0.402796307174","1.57079632679","-0.285796304876","0.58400001144","-0.176796302959","0.487000010093","SIDE","2.16112268575e-16","0.161821684602","0.963234611761","-0.214459378666","9.11522020133","254.549899674","144.156889115","0.008488839","0.000016251","502"
"94","fanta-small","0.755","0.0382036974744","1.07200001832","-0.768796314779","1.57079632679","-0.970796314595","1.25299552102e-15","SIDE","0.151645680944","0.795534936375","0.566684515325","-0.151645680944","7.38625805663","244.258348302","121.538251661","0.012693525","0.000059141","508"
"95","fanta-small","0.755","0.0582036984244","1.07300001837","-0.878796313484","1.57079632679","-0.979796315022","0.0","SIDE","0.508887830809","0.643389452928","0.260991117033","0.508887830809","-124.834883486","241.462600434","-4.37058112402","0.008290528","0.000040067","512"
"96","fanta-small","0.0","-0.909796314957","0.214000003645","-0.453796309596","1.27100002125","-0.191796303671","1.14900001872","SIDE","1.10937468414e-16","0.875669113811","-0.379602629148","0.298505355163","-90.3893166315","185.626568584","127.294966707","0.003511186","0.000048263","513"
"97","fanta-small","0.0","-0.767796314731","1.57079632679","-0.712796312119","1.57079632679","-0.218796304954","1.55379632925","SIDE","0.960739374796","0.177027884234","0.213637501201","-1.66116393245e-16","-57.8031306698","213.680466071","-115.019520476","0.006614454","0.000026867","515"
"98","fanta-small","0.755","-0.665796313146","0.197000006097","-0.293796305256","1.32000002032","-0.083796301801","0.641000010888","SIDE","1.95288352067e-16","0.482984875388","-0.198825537177","0.852756715548","-133.81576175","222.04660434","-73.5751520469","0.011267568","0.000064349","522"
"100","fanta-small","0.755","-0.681796310647","0.0","-0.173796302816","0.683000012883","-0.794796312754","1.57079632679","SIDE","0.488396638846","0.670798835446","-0.270122877026","-0.488396638846","149.80951275","230.171162391","6.02030981278","0.005927247","0.000036323","526"
"101","fanta-small","0.0","-0.515796309281","1.57079632679","-1.0857963168","1.57079632679","-0.133796304176","1.57079632679","SIDE","0.690697150473","0.283320687257","-0.665332123454","-1.607394824e-16","118.367580334","216.782135186","4.45092972334","0.000148757","0.000002474","529"
"102","fanta-small","0.755","-0.395796306841","1.12500001758","-0.806796313324","1.10100001644","-0.199796304051","0.925000014598","SIDE","-3.76950642397e-17","0.98942807197","0.144221360492","-0.0152410490282","3.33994187829","110.548547676","162.292178129","0.015278477","0.000084022","531"
"103","fanta-small","0.0","-0.957796317237","1.57079632679","-1.12979631889","1.57079632679","-0.0667963042532","1.42500002205","SIDE","0.994325807143","-0.0373630809965","-0.0996001477285","-3.04436678987e-16","20.9856992087","61.8757767523","-137.717883351","0.007329483","0.000025040","533"
"105","fanta-small","0.0","-0.635796311721","1.26200002083","-0.413796307696","1.25000002026","-0.158796305363","1.00800001528","SIDE","0.0224462197936","0.103907025263","0.994080310908","0.0224462197936","-6.85209038182","84.9067802811","158.914767073","0.008933982","0.000046121","537"
"106","fanta-small","0.755","-0.0347963027333","0.530000008875","-0.455796309691","1.57079632679","-0.751796313972","0.0","SIDE","0.503430442217","0.644480843818","0.278854839748","0.503430442217","-150.396199591","235.516012171","-2.12289354659","0.004214192","0.000024736","539"
"107","fanta-small","0.755","-1.57079632679","1.57079632679","-0.450796309454","1.5337963283","-0.286796304924","1.5127963273","SIDE","2.01704784003e-16","0.161821684602","0.963234611761","-0.214459378666","7.38625805663","244.258348302","121.538251661","0.002492878","0.000027925","543"
"109","fanta-small","0.755","-0.354796308154","0.0","-0.315796306301","0.491000010283","-0.367796308771","1.57079632679","SIDE","0.689592539727","0.1625529058","0.150002703716","-0.689592539727","1.83862658273","257.490141416","-145.106650787","0.008296664","0.000009966","546"
"110","fanta-small","0.755","-0.299796305541","1.4430000229","-0.607796310392","1.05700001761","-0.286796304924","1.197000021","SIDE","0.948436563353","0.123771483648","-0.291802510495","-2.04851897129e-16","88.4286857028","184.999830098","-119.350592679","0.009842292","0.000041919","548"
"111","fanta-small","0.755","-0.0567963037782","1.30000002263","-0.931796316002","1.57079632679","-0.982796315165","0.0","SIDE","0.503430442217","0.644480843818","0.278854839748","0.503430442217","-127.321775722","226.37891334","-1.78115092285","0.012123700","0.000062857","557"
"113","fanta-small","0.0","-0.836796314749","1.57079632679","-0.562796311514","1.57079632679","-0.257796306806","1.48600002495","SIDE","0.852756715548","0.198825537177","0.482984875388","-1.79014322728e-16","-115.850053484","214.650841494","-63.6649490126","0.003185875","0.000026552","561"
"114","fanta-small","0.755","-0.289796305066","1.56179632963","-0.808796313419","0.50000001071","-1.32679632172","1.57079632679","SIDE","0.503430442217","-0.278854839748","0.644480843818","-0.503430442217","-130.027117292","227.450184867","-1.82121825158","0.003157186","0.000045446","565"
"115","fanta-small","0.0","-0.0667963042532","1.34500002151","-1.49979632342","1.57079632679","-0.989796315497","0.0","SIDE","0.151645680944","0.795534936375","0.566684515325","-0.151645680944","7.23355966419","243.349419582","119.540619967","0.009271211","0.000044200","567"
"116","fanta-small","0.0","-0.403796307221","1.45000002324","-0.344796307679","0.830000013346","-0.160796305458","0.591000011773","SIDE","0.852756715548","0.198825537177","0.482984875388","-1.95288352067e-16","-136.369346936","223.09781313","-74.9837548853","0.009539978","0.000019696","568"
"117","fanta-small","0.755","-0.0827963017535","0.518000008306","-0.830796314464","1.57079632679","-0.623796311151","3.89444668743e-16","SIDE","7.08444492789e-17","0.783563875452","0.509607164304","-0.355426773296","90.397894982","226.120711163","121.691469487","0.010521723","0.000032068","572"
"118","fanta-small","0.0","-0.591796309632","1.25400002045","-0.438796308884","1.29700002249","-0.142796304603","1.01000001538","SIDE","-0.296972379985","0.0789628031011","0.951615616335","-1.27604719e-16","90.5576255782","84.0693157962","129.377117456","0.008541143","0.000033765","578"
"119","fanta-small","0.0","-0.469796310356","1.28900002211","-0.603796310202","1.23100001935","-0.111796303131","0.937000015168","SIDE","1.10805938611e-17","0.939330597834","0.0825507234534","0.332931533547","-103.178770505","82.9876018266","121.640496027","0.010423921","0.000043416","579"
"120","fanta-small","0.755","0.0452036978069","0.335000006133","-0.413796307696","1.57079632679","-0.742796313544","-2.28779236864e-16","SIDE","0.508887830809","0.643389452928","0.260991117033","0.508887830809","-147.763455722","251.157465802","-5.26403550177","0.004645323","0.000028424","581"
"121","fanta-small","0.0","-0.551796310991","1.57079632679","-0.822796314084","1.57079632679","-0.248796306378","1.43900002271","SIDE","2.05413431112e-16","-0.430953912231","-0.20711517826","0.878283569507","104.704322449","217.706926881","-76.5963466643","0.003504269","0.000025936","584"
"122","fanta-small","0.755","-0.967796317712","0.0","-0.116796303368","1.57079632679","-0.830796314464","1.57079632679","SIDE","0.488533923891","0.680861432329","-0.243098581613","-0.488533923891","119.35134942","245.8501958","4.96273065387","0.000361679","0.000021918","586"
"124","fanta-small","0.0","-0.947796316762","1.57079632679","-1.57079632679","1.57079632679","-0.193796303766","1.57079632679","SIDE","0.724194359273","-0.0152996316528","0.689426175358","5.98845963713e-17","-136.153693926","134.420097082","-5.29862474502","0.000018802","0.000003616","591"
"125","fanta-small","0.755","-0.344796307679","1.47700002452","-0.629796311436","0.0","-0.118796303463","0.809000012348","SIDE","0.95990438407","0.169876166981","-0.22299251408","-1.66260892687e-16","66.6464410528","219.529821351","-133.727354567","0.008052713","0.000041612","594"
"126","fanta-small","0.0","-0.432796308599","1.22300001897","-0.498796308474","1.27600002149","-0.148796304888","0.942000015406","SIDE","0.427974757946","-0.0277410211868","0.903364844515","1.61304452865e-16","-124.930645007","133.669635309","100.864227102","0.008001775","0.000041926","596"
"127","fanta-small","0.0","-0.459796309881","1.49600002542","-0.318796306444","0.793000014848","-0.171796302721","0.513000008068","SIDE","9.59916967139e-17","0.1261623705","0.975866360421","-0.178235526395","5.59985918412","224.679996799","154.363887051","0.009177625","0.000030978","599"
"128","fanta-small","0.0","-0.174796302864","1.43000002229","-1.57079632679","1.57079632679","-0.945796316667","0.0","SIDE","0.503430442217","0.644480843818","0.278854839748","0.503430442217","-131.142722062","227.891946321","-1.83774086133","0.010285122","0.000041062","601"
"129","fanta-small","0.0","-0.874796313294","1.57079632679","-1.57079632679","1.57079632679","-0.256796306758","1.57079632679","SIDE","0.427974757946","-0.0277410211868","0.903364844515","1.61304452865e-16","-105.669368597","134.261121109","85.0793775435","0.000002627","0.000004571","602"
"130","fanta-small","0.0","-1.4887963229","1.57079632679","-0.798796312944","1.57079632679","-0.339796307441","1.57079632679","SIDE","0.0206942094113","0.993094834516","-0.113605233377","-0.0206942094113","4.15164818898","140.486647277","135.211071669","0.000038347","0.000005021","607"
"131","fanta-small","0.0","-1.29379632016","1.18300002033","-0.901796314577","1.57079632679","-0.352796308059","1.57079632679","SIDE","7.92410488672e-17","0.875669113811","-0.379602629148","0.298505355163","-77.3667711859","179.981294117","106.82420008","0.000683415","0.000028118","614"
"132","fanta-small","0.0","-0.489796308046","0.956000016071","-0.420796308029","1.21600001864","-0.147796304841","0.891000016243","SIDE","0.697639529551","-0.0881255107635","-0.71100842552","1.39247434441e-16","160.214350457","74.0875775928","3.19028348761","0.008689397","0.000031028","615"
"133","fanta-small","0.0","-1.14379631955","1.57079632679","-1.02279631706","1.57079632679","-0.0657963042057","1.46500002395","SIDE","-1.97785200144e-17","-0.261824763534","0.0253705974376","0.964781905918","75.0122204631","64.6923010517","-116.022315354","0.005829993","0.000020329","619"
"134","fanta-small","0.0","-0.625796311246","0.964000016451","-0.259796306901","1.3700000227","-0.295796305351","1.29200002225","SIDE","1.67790043897e-17","0.827092447533","-0.231464507503","0.512193581569","-130.133433856","185.73115926","77.9324135974","0.002843066","0.000039584","621"
"135","fanta-small","0.0","-0.969796317807","1.57079632679","-0.510796309044","1.57079632679","-0.276796304449","1.45500002347","SIDE","9.95469447403e-17","0.1261623705","0.975866360421","-0.178235526395","4.47957594922","216.014602207","131.036563972","0.003805888","0.000036076","628"
"136","fanta-small","0.0","-0.913796315147","1.57079632679","-0.866796316174","1.57079632679","-0.202796304194","1.57079632679","SIDE","0.705830289178","-0.0576007526333","-0.706035237205","7.86465983146e-17","135.597413235","61.4125528157","0.133602135295","0.001775841","0.000008146","630"
"137","fanta-small","0.0","-0.459796309881","1.31100001989","-0.488796307999","1.2910000222","-0.158796305363","1.0400000168","SIDE","0.713309760207","0.0190027778918","-0.700591236333","5.83664569673e-17","156.731915481","140.12209978","-2.4647635367","0.008139091","0.000032465","634"
"138","fanta-small","0.0","-1.57079632679","1.57079632679","-0.325796306776","1.5337963283","-0.814796313704","0.362000007415","SIDE","-0.488396638846","0.270122877026","0.670798835446","-0.488396638846","131.326693493","222.300559319","5.09776573521","0.006322227","0.000058013","635"
"139","fanta-small","0.0","-0.927796315812","1.57079632679","-1.57079632679","1.57079632679","-0.229796305476","1.57079632679","SIDE","0.389469053639","-0.0172174948202","0.920878609877","-1.40340863143e-16","-97.3423999641","135.331771415","93.8594911537","0.000008454","0.000004568","636"
"140","fanta-small","0.755","-0.188796303529","-6.83548134705e-16","-0.617796310866","-1.53641929899e-16","-0.590796309584","1.57079632679","SIDE","0.503430442217","-0.278854839748","0.644480843818","-0.503430442217","-153.185211514","236.620415806","-2.16420007098","0.006937128","0.000017797","637"
"141","fanta-small","0.0","-0.911796315052","1.57079632679","-1.57079632679","1.57079632679","-0.291796305161","1.57079632679","SIDE","-0.449057037245","-0.00454191908528","0.893491549077","-2.11624675216e-16","105.177448438","137.12297837","80.3124315773","0.000000116","0.000003179","638"
"142","fanta-small","0.755","-0.0967963024185","0.255000005593","-0.210796304574","0.363000007463","-0.208796304479","0.307000004803","TOP","0.490466695718","0.483546966845","0.533916820899","-0.490466695718","-4.28246127032","307.72670553","2.56726303894","0.015960727","0.000101412","641"
"143","fanta-small","0.755","-0.162796305553","0.29200000735","-0.097796302466","0.257000005688","-0.241796306046","0.353000006988","TOP","0.693624652976","0.719455543925","0.0356168653689","-1.70064884315e-16","-4.28246127033","307.72670553","2.56726303894","0.016554497","0.000098808","642"
"144","fanta-small","0.0","-0.568796311799","1.27100002125","-0.532796310089","1.12100001739","-0.0337963026858","0.637000010698","SIDE","-2.15765672885e-17","-0.261824763534","0.0253705974376","0.964781905918","87.5969414991","63.472852261","-137.484976911","0.011947452","0.000038214","644"
"145","fanta-small","0.0","-0.340796307489","0.795000014943","-0.400796307079","1.41300002148","-0.156796305268","0.539000009303","SIDE","2.05413431112e-16","-0.430953912231","-0.20711517826","0.878283569507","123.561179512","226.76947673","-90.1165993225","0.008065823","0.000016555","651"
"146","fanta-small","0.0","-0.471796307191","1.24000001978","-0.515796309281","1.2720000213","-0.115796303321","0.901000013459","SIDE","0.724194359273","-0.0152996316528","0.689426175358","5.50938286616e-17","-161.027751154","133.868096118","-6.51709590058","0.008129865","0.000029880","653"
"147","fanta-small","0.755","-0.911796315052","1.02900001628","-0.626796311294","1.57079632679","-0.135796304271","1.47800002457","SIDE","1.95288352067e-16","0.482984875388","-0.198825537177","0.852756715548","-113.296468298","213.599632704","-62.2563461741","0.011526156","0.000085203","656"
"148","fanta-small","0.755","-0.079796301611","0.481000009808","-0.814796313704","1.57079632679","-0.582796309204","0.0","SIDE","0.373560742334","0.786267269054","0.32045050349","0.373560742334","-137.622390897","224.666376698","73.1642000596","0.009785549","0.000048687","660"
"149","fanta-small","0.755","-0.0357963027807","1.43300002243","-0.474796307334","1.57079632679","-1.12979631889","0.0310000014724","SIDE","0.145461355918","0.730190206319","0.65153990704","-0.145461355918","1.8392411119","233.472408625","117.413982771","0.009962617","0.000093135","663"
"150","fanta-small","0.755","-0.276796304449","0.39200000884","-0.161796305506","0.305000004708","-0.115796303321","0.261000005878","TOP","0.490466695718","0.533916820899","-0.483546966845","0.490466695718","-4.28246127032","307.72670553","2.56726303894","0.007209522","0.000064604","667"
"151","fanta-small","0.755","-1.0277963173","0.936000015121","-0.428796308409","1.57079632679","-0.114796303273","1.09200001927","SIDE","0.178235526395","0.975866360421","-0.1261623705","-3.05751330274e-16","4.15576866582","213.50995178","124.294021658","0.006658373","0.000055999","668"
"152","fanta-small","0.0","-0.447796309311","1.28900002211","-0.463796310071","1.28800002206","-0.164796305648","1.02400001604","SIDE","-0.449057037245","-0.00454191908528","0.893491549077","-2.1113929752e-16","125.166660669","137.224590282","95.1761178424","0.009340953","0.000039430","672"
"153","fanta-small","0.0","-1.57079632679","1.57079632679","-0.688796310979","1.57079632679","-0.349796307916","1.57079632679","SIDE","-0.363675322412","0.111373573032","0.924843871742","1.57558239217e-16","87.9380054494","61.7200998001","98.8131312446","0.000022089","0.000001858","673"
"154","fanta-small","0.0","-0.453796309596","1.24400001997","-0.499796308521","1.27100002125","-0.134796304223","0.942000015406","SIDE","0.389469053639","-0.0172174948202","0.920878609877","-1.38457093168e-16","-115.21052833","134.997694367","111.212487472","0.007866235","0.000031257","676"
"157","fanta-small","0.0","-0.938796316334","1.57079632679","-1.57079632679","1.57079632679","-0.271796304211","1.57079632679","SIDE","0.999990431264","0.000749834892556","0.00430988718746","-2.15279718664e-16","-1.47667602955","136.861169306","-133.759049926","0.000016232","0.000004504","683"
"158","fanta-small","0.755","-0.414796307744","1.57079632679","0.0122036994991","-1.86111747872e-15","-0.630796311484","0.0","SIDE","-0.488533923891","0.243098581613","0.680861432329","-0.488533923891","142.651885041","256.889752429","6.13291529807","0.000116484","0.000013254","685"
"159","fanta-small","0.0","-0.877796313437","1.57079632679","-1.57079632679","1.57079632679","-0.330796307014","1.57079632679","SIDE","-0.355557543566","-0.0633060280941","0.932508005339","2.49277158427e-16","86.8970875187","141.291353454","100.298255393","0.000032319","0.000004085","686"
"160","fanta-small","0.755","-0.210796304574","0.385000008508","-0.274796304354","0.38800000865","-0.083796301801","0.219000003883","TOP","-3.85785832773e-17","-0.0356168653689","0.719455543925","-0.693624652976","-4.28246127032","307.72670553","2.56726303894","0.014560181","0.000110399","693"
"161","fanta-small","0.0","-0.454796309644","1.2930000223","-0.478796307524","1.28900002211","-0.155796305221","1.01600001566","SIDE","0.999990431264","0.000749834892556","0.00430988718746","-2.15279718664e-16","-1.69061678237","136.898390754","-158.578099946","0.007792779","0.000030231","695"
"162","fanta-small","0.0","-0.495796308331","1.26900002116","-0.481796307666","1.26500002097","-0.119796303511","0.932000014931","SIDE","4.80523918495e-17","0.893491549077","0.00454191908528","-0.449057037245","126.129609532","137.229485276","95.8921525526","0.008841018","0.000036072","696"
"163","fanta-small","0.0","-0.368796308819","1.33200002089","-0.478796307524","1.28600002197","-0.240796305998","1.18100002024","SIDE","-6.40548590578e-17","0.866618895862","0.0658938127291","0.494600540618","-132.355556302","81.9109262575","82.9324136696","0.010828168","0.000044182","697"
"164","fanta-small","0.0","-0.439796308931","1.24000001978","-0.471796307191","1.28300002182","-0.152796305078","0.975000016973","SIDE","0.944127154538","-0.0078581861009","-0.329487731144","9.5543932104e-17","98.5985894181","134.820074559","-124.527934554","0.008303787","0.000036188","700"
"165","fanta-small","0.0","-0.728796312879","1.57079632679","-1.57079632679","1.57079632679","-0.344796307679","1.57079632679","SIDE","-3.76950642397e-17","0.98942807197","0.144221360492","-0.0152410490282","2.57659623831","110.437280622","136.993936602","0.000006138","0.000003734","705"
"166","fanta-small","0.0","-0.443796309121","1.26400002092","-0.473796307286","1.28300002182","-0.157796305316","1.00700001523","SIDE","0.930055594158","0.000841220135113","-0.367417860376","4.8727894434e-17","107.993243177","136.907239743","-115.555264296","0.008451827","0.000038833","708"
"167","fanta-small","0.755","-1.08879631694","0.635000010603","-0.328796306919","1.57079632679","-0.0437963031607","0.654000011506","SIDE","3.89848409785e-17","0.652896923161","-0.258536626856","0.711958159094","-121.660081826","224.136974084","-1.69729868291","0.007370429","0.000055627","711"
"168","fanta-small","0.0","-0.510796309044","1.26200002083","-0.412796307649","1.13700001815","-0.174796302864","0.922000014456","SIDE","0.379674242677","0.0367726751393","0.924389117099","1.0696711623e-16","-114.442097311","113.584447798","114.022117107","0.004424536","0.000012159","712"
"169","fanta-small","0.0","-0.516796309329","1.05700001761","-0.558796311324","1.24600002007","-0.0347963027332","0.586000011535","SIDE","0.994325807143","-0.0373630809965","-0.0996001477285","-3.04436678987e-16","25.9196227733","60.0249101625","-162.064110802","0.011380732","0.000035603","714"
"170","fanta-small","0.0","-0.993796315687","1.57079632679","-0.950796316904","1.57079632679","-0.200796304099","1.57079632679","SIDE","4.7567014154e-17","0.893491549077","0.00454191908528","-0.449057037245","106.1403973","137.127873364","81.0284662875","0.000604771","0.000006852","715"
"171","fanta-small","0.755","-0.207796304431","0.747000012663","-0.616796310819","0.0670000031823","-0.788796312469","1.57079632679","SIDE","0.499422485015","-0.299472264885","0.641459839341","-0.499422485015","-154.874854787","223.23389238","0.0682479004426","0.007918586","0.000030661","717"
"172","fanta-small","0.0","-0.778796311994","1.57079632679","-0.982796315165","1.57079632679","-0.478796307524","1.57079632679","SIDE","-5.60480016756e-17","0.866618895862","0.0658938127291","0.494600540618","-111.001201013","83.5346156267","70.2098650635","0.000022229","0.000004484","720"
"173","fanta-small","0.0","-0.926796315764","1.57079632679","-1.57079632679","1.57079632679","-0.232796305618","1.57079632679","SIDE","-9.12424785863e-17","0.893575061026","0.0265619581893","-0.448127295185","106.882466731","112.435299289","81.6186387416","0.000072229","0.000004337","721"
"174","fanta-small","0.0","-0.460796309929","1.28100002173","-0.479796307571","1.27000002121","-0.145796304746","0.994000017876","SIDE","0.923374138198","-0.00198059942827","0.383896181452","-1.9773095032e-16","-113.507281527","136.245557661","-112.30643824","0.008478869","0.000039662","724"
"175","fanta-small","0.0","-0.458796309834","1.28300002182","-0.477796307476","1.27100002125","-0.147796304841","0.998000018066","SIDE","0.923374138198","-0.00198059942827","0.383896181452","-1.97848367749e-16","-113.326145355","136.245923427","-112.346733765","0.008486494","0.000038367","725"
"176","fanta-small","0.0","-0.819796313942","1.57079632679","-0.915796315242","1.57079632679","-0.427796308361","1.57079632679","SIDE","2.61402645482e-16","0.666294590489","0.0601859781871","0.743255788215","-131.457517919","81.0907745177","-10.6575846388","0.000095244","0.000005067","726"
"177","fanta-small","0.0","-0.387796306461","1.33800002118","-0.452796309549","1.21600001864","-0.222796305144","1.13000001782","SIDE","2.61402645482e-16","0.666294590489","0.0601859781871","0.743255788215","-156.129742555","78.8621477287","-13.2696057246","0.004475163","0.000016203","727"
"178","fanta-small","0.0","-0.380796306129","1.30800001975","-0.565796311656","0.831000013393","-0.152796305078","1.01100001542","SIDE","0.698734484457","0.182535379435","-0.691701493049","-7.94452720828e-17","152.363410868","188.671451703","2.7033915787","0.006727988","0.000040381","728"
"179","fanta-small","2.22044604925e-16","-0.544796310659","1.57079632679","-0.304796305779","0.760000013281","-0.182796303244","0.478000009665","SIDE","0.706290051662","0.24182173298","0.665339471534","-7.85954029801e-17","-157.036499111","224.019555337","0.073557970219","0.003890755","0.000023774","729"
"180","fanta-small","2.77555756156e-16","-0.879796313532","1.57079632679","-1.57079632679","1.57079632679","-0.278796304544","1.57079632679","SIDE","2.39082475815e-16","-0.387840779464","-0.0212812927789","0.921480676066","95.5092043087","114.025064109","-95.1859812403","0.000017733","0.000004339","731"
"181","fanta-small","0.755","-0.236796305808","1.38500002341","-0.533796310136","1.19000002067","-0.346796307774","1.18800002057","SIDE","0.974365131247","0.0979964481888","-0.202507499005","-1.3530757613e-16","67.6221413121","180.045352844","-134.109772145","0.009404581","0.000038498","732"
"182","fanta-small","0.0","-0.437796308836","1.19100002071","-0.486796307904","1.30200001947","-0.164796305648","0.955000016023","SIDE","2.37199936635e-16","-0.387840779464","-0.0212812927789","0.921480676066","113.314263691","115.002049258","-112.579470264","0.010502772","0.000044287","735"
"183","fanta-small","0.0","-1.13079631893","1.57079632679","-0.486796307904","1.57079632679","-0.294796305304","1.44800002314","SIDE","0.706290051662","0.24182173298","0.665339471534","-7.85954029801e-17","-133.624952701","215.510484454","0.0160476094112","0.002346926","0.000031563","740"
"184","fanta-small","0.0","-0.465796310166","1.21700001869","-0.520796309519","1.27900002163","-0.138796304413","0.931000014883","SIDE","-9.12424785863e-17","0.893575061026","0.0265619581893","-0.448127295185","126.832157121","113.028313647","96.5238823602","0.012062217","0.000041867","742"
"185","fanta-small","0.0","-0.964796317569","1.57079632679","-1.47679632233","1.57079632679","-0.240796305998","1.57079632679","SIDE","4.34416113017e-17","0.938409061356","0.0179839073335","-0.345057984464","85.7717101253","111.245969814","102.573507458","0.000059203","0.000004607","743"
"186","fanta-small","0.0","-0.377796305986","1.09600001946","-0.639796311911","1.2320000194","-0.200796304099","0.939000015263","SIDE","-3.76950642397e-17","0.98942807197","0.144221360492","-0.0152410490282","3.32787794013","110.546789208","161.892363936","0.010408523","0.000038955","750"
"187","fanta-small","0.0","-1.0087963164","1.57079632679","-0.884796313769","1.57079632679","-0.283796304781","1.57079632679","SIDE","-0.445460980258","0.0326753429936","0.894704888233","2.53992996285e-16","105.260018013","87.0514968619","80.3019230377","0.002505058","0.000011095","751"
"188","fanta-small","0.0","-0.0367963028282","1.31500002008","-1.49679632328","1.57079632679","-0.998796315925","0.0","SIDE","0.508887830809","0.643389452928","0.260991117033","0.508887830809","-122.809878987","240.606369798","-4.29167306486","0.008188241","0.000047509","752"
"189","fanta-small","0.0","-1.00979631645","1.57079632679","-0.949796316857","1.57079632679","-0.253796306616","1.57079632679","SIDE","0.433590267132","0.00571475129704","0.901092016315","7.70053865563e-18","-105.716286654","110.481384584","83.6450533549","0.000494093","0.000008887","754"
"190","fanta-small","0.0","-0.495796308331","1.26000002073","-0.430796308504","1.30600001966","-0.161796305506","1.0190000158","SIDE","-0.445460980258","0.0326753429936","0.894704888233","2.53992996285e-16","125.11608374","86.3263373521","95.3258671784","0.014122449","0.000043679","755"
"191","fanta-small","0.0","-0.468796310309","1.2530000204","-0.500796308569","1.28100002173","-0.139796304461","0.962000016356","SIDE","4.34416113017e-17","0.938409061356","0.0179839073335","-0.345057984464","101.903702094","111.555127366","121.551688528","0.009312271","0.000038947","756"
"192","fanta-small","0.755","-0.312796306159","0.593000011868","-0.571796308682","1.57079632679","-0.177796303006","0.646000011126","SIDE","1.14108362087e-16","-0.637120629919","-0.248176323513","0.72971625676","148.180138062","238.505478417","-9.24477148241","0.008687034","0.000021010","758"
"193","fanta-small","0.0","-0.960796317379","1.57079632679","-0.970796314595","1.57079632679","-0.267796307281","1.57079632679","SIDE","-1.71141723475e-17","0.704428654202","0.0185382588209","0.709532665984","-134.589664225","107.293548014","-0.946511748433","0.000234688","0.000004750","759"
"194","fanta-small","0.0","-0.868796316269","1.57079632679","-0.709796311977","1.57079632679","-0.235796305761","1.57079632679","SIDE","0.92138218405","0.13311284011","0.365151807763","4.51857699705e-17","-92.6464657641","183.237170695","-94.5901732254","0.000865940","0.000005908","760"
"195","fanta-small","0.755","-0.859796315842","1.57000632679","0.000203698929172","1.2130000185","-1.02379631711","0.326000005705","SIDE","0.515987313497","-0.275025156564","-0.625999479135","0.515987313497","124.924975652","229.446941559","-7.61983099672","0.011729094","0.000114912","761"
"196","fanta-small","0.0","-0.924796315669","1.57079632679","-0.961796317427","1.57079632679","-0.268796307328","1.57079632679","SIDE","0.945735994488","-0.00853830116383","-0.324823838631","-6.55747107307e-17","82.060216283","108.326834127","-105.553077889","0.000791299","0.000005920","764"
"197","fanta-small","0.755","-0.489796308046","1.57079632679","-0.464796310119","1.57079632679","-1.57079632679","1.57079632679","SIDE","0.696752572079","0.130566260353","0.109654722924","-0.696752572079","2.69935888476","214.63271872","-132.673813479","0.001999134","0.000007018","765"
"198","fanta-small","0.0","-0.967796317712","1.57079632679","-0.99679631583","1.57079632679","-0.232796305618","1.57079632679","SIDE","0.702323095497","0.000505436888772","-0.711858141813","-3.95196680753e-17","133.162953606","110.04637712","1.12908758474","0.000651604","0.000005664","766"
"199","fanta-small","0.0","-1.00079631602","1.57079632679","-1.01679631678","1.57079632679","-0.216796304859","1.57079632679","SIDE","1.22241622019e-16","0.394537404219","0.00551357155271","0.918863339785","-97.2618653134","108.939547745","-93.3645832027","0.001050511","0.000005503","769"
"200","fanta-small","1.66533453694e-16","-0.981796315117","1.57079632679","-0.997796315877","1.57079632679","-0.236796305808","1.57079632679","SIDE","1.22241622019e-16","0.394537404219","0.00551357155271","0.918863339785","-97.5576382733","108.941574233","-92.7627555903","0.001064320","0.000005410","770"
"201","fanta-small","0.755","-0.097796302466","0.0","-0.0537963036357","0.0790000037523","-0.149796304936","0.0870000041323","TOP","0.693624652976","0.719455543925","0.0356168653689","-1.70064884315e-16","-5.51325121195","332.588484851","3.50810580676","0.003770299","0.000004871","771"
"202","fanta-small","0.0","-0.386796306414","0.724000011571","-0.273796304306","1.57079632679","-0.0407963030182","0.605000009178","SIDE","2.36577993723e-16","-0.00887433299876","-0.221010190987","0.975231122193","1.74515769902","255.162352291","-140.235032472","0.005550884","0.000016973","772"
"203","fanta-small","0.0","-1.57079632679","1.57079632679","-0.099796302561","1.39700002398","-1.01279631659","0.295000007492","SIDE","0.515987313497","-0.275025156564","-0.625999479135","0.515987313497","125.575859886","229.700479191","-7.66531114109","0.009607099","0.000052076","773"
"204","fanta-small","0.0","-0.485796307856","1.28700002201","-0.462796310024","1.25000002026","-0.145796304746","0.970000016736","SIDE","0.433590267132","0.00571475129704","0.901092016315","7.70053865563e-18","-125.181196206","110.604831596","99.1888674608","0.010584487","0.000054653","777"
"205","fanta-small","0.755","-0.607796310392","0.522000008496","-0.341796307536","1.30500001961","-0.153796305126","0.878000015626","SIDE","5.27167316323e-17","0.365151807763","-0.13311284011","0.92138218405","-110.081013067","189.592779673","-112.672509858","0.012453110","0.000050981","779"
"206","fanta-small","0.0","-0.931796316002","1.57079632679","-0.752796314019","1.57079632679","-0.224796305239","1.57079632679","SIDE","0.922048688186","0.133867392089","0.363188295447","-1.35459322128e-16","-92.0325202983","181.71389026","-94.0016056528","0.000341641","0.000002364","780"
"207","fanta-small","0.0","-0.914796315194","1.57079632679","-0.736796313259","1.57079632679","-0.250796306473","1.57079632679","SIDE","0.922048688186","0.133867392089","0.363188295447","-1.35459322128e-16","-91.3206140201","181.639830904","-94.2801630464","0.000039893","0.000002374","781"
"208","fanta-small","0.755","-0.553796311086","1.57079632679","-0.748796313829","0.759000013233","-0.0187963019733","0.793000014848","SIDE","0.983118090386","0.111025542145","-0.145437785141","-1.94096298526e-16","35.5726274071","184.324242785","-149.93559007","0.012370758","0.000043281","782"
"209","fanta-small","0.755","-0.707796311882","0.956000016071","-0.761796314446","1.57079632679","-0.00479630130833","0.720000011381","SIDE","2.38568621071e-16","-0.202507499005","-0.0979964481888","0.974365131247","69.4769137162","180.942905324","-138.334013091","0.003570978","0.000028346","785"
"210","fanta-small","0.755","-0.0527963035882","1.21528243252e-15","-0.130796304033","0.11200000206","-0.127796303891","0.0730000034673","TOP","0.490466695718","0.483546966845","0.533916820899","-0.490466695718","-5.51325121194","332.588484851","3.50810580676","0.007111722","0.000008547","793"
"211","fanta-small","0.755","-0.982796315165","1.57079632679","-0.178796303054","1.40900002129","-0.881796313627","0.573000010918","SIDE","-0.488396638846","0.270122877026","0.670798835446","-0.488396638846","125.99599434","220.030569198","4.8316913412","0.008032594","0.000039542","795"
"212","fanta-small","0.0","-1.0677963192","1.57079632679","-1.10379631765","1.57079632679","-0.00879630149832","1.4260000221","SIDE","2.38568621071e-16","-0.202507499005","-0.0979964481888","0.974365131247","60.6331996389","176.663298037","-118.19246956","0.006032369","0.000008816","797"
"213","fanta-small","0.0","-1.57079632679","1.57079632679","-0.360796308439","1.47400002438","-0.275796304401","1.53679632844","SIDE","0.719676072056","0.270396456426","0.639493633793","-1.15700285281e-16","-124.926929145","241.501520008","-4.37416785398","0.000241316","0.000022617","798"
"214","fanta-small","0.0","-0.464796310119","1.27900002163","-0.483796307761","1.25900002068","-0.152796305078","1.00600001519","SIDE","-1.71141723475e-17","0.704428654202","0.0185382588209","0.709532665984","-159.490454551","106.638240633","-1.11772336464","0.011908913","0.000043457","799"
"215","fanta-small","0.0","-0.592796309679","1.57079632679","-0.826796314274","1.57079632679","-0.274796304354","1.57079632679","SIDE","0.1349400574","0.988261292493","0.0716295935299","-1.52713602725e-16","-2.6064228735","184.364359093","131.874026687","0.000565917","0.000006647","800"
"216","fanta-small","0.0","-0.081796301706","1.51579632744","-1.42479632312","1.57079632679","-1.10079631751","8.75192023148e-16","SIDE","0.145461355918","0.730190206319","0.65153990704","-0.145461355918","1.89644401135","234.477350367","119.702392853","0.008984979","0.000097865","802"
"217","fanta-small","0.0","-1.00379631616","1.57079632679","-0.788796312469","1.57079632679","-0.182796303244","1.57079632679","SIDE","0.744817303434","0.137530440136","0.652941469461","-5.5897417033e-17","-133.804666235","177.910991373","-11.5789383816","0.000598872","0.000006074","803"
"218","fanta-small","0.755","-0.401796307126","1.53279632825","-0.540796310469","-6.83548134705e-16","-0.128796303938","0.737000012188","SIDE","0.985356937053","0.169861886259","-0.014786689921","-2.66276022297e-16","3.29119908932","221.431474496","-151.802920794","0.010066124","0.000033979","804"
"219","fanta-small","0.755","-0.134796304223","-6.44295823238e-16","-0.174796302864","0.0940000044648","-0.0447963032082","0.0740000035148","TOP","-3.85785832773e-17","-0.0356168653689","0.719455543925","-0.693624652976","-5.51325121194","332.588484851","3.50810580676","0.006489241","0.000006931","806"
"220","fanta-small","0.755","-0.616796310819","0.622000009986","-0.355796308201","1.35800002213","-0.168796305838","0.951000015833","SIDE","-9.03062147517e-17","0.363188295447","-0.133867392089","0.922048688186","-108.85005788","187.912658022","-111.587333063","0.013292288","0.000050612","810"
"221","fanta-small","0.755","-0.620796311009","0.585000011488","-0.364796308629","1.35600002203","-0.156796305268","0.922000014456","SIDE","-9.03062147517e-17","0.363188295447","-0.133867392089","0.922048688186","-108.673955301","188.036090283","-112.426168545","0.013557996","0.000054144","811"
"222","fanta-small","0.755","-0.529796309946","0.202000003075","-0.320796306539","1.35000002175","-0.117796303416","0.620000009891","SIDE","2.38340912048e-16","0.213637501201","-0.177027884234","0.960739374796","-69.0549333709","223.00412327","-138.209484752","0.008126364","0.000034264","813"
"223","fanta-small","0.0","-0.486796307904","1.27800002159","-0.497796308426","1.27800002159","-0.127796303891","0.962000016356","SIDE","1.21769646645e-16","0.394537404219","0.00551357155271","0.918863339785","-115.322908487","108.687148726","-110.518099292","0.010726038","0.000037190","814"
"224","fanta-small","0.0","-0.477796307476","1.27900002163","-0.489796308046","1.28200002178","-0.138796304413","0.983000017353","SIDE","1.22713597394e-16","0.394537404219","0.00551357155271","0.918863339785","-115.618681447","108.689175213","-109.91627168","0.009602966","0.000035095","815"
"225","fanta-small","0.0","-0.896796314339","1.57079632679","-0.816796313799","1.57079632679","-0.307796305921","1.57079632679","SIDE","5.27167316323e-17","0.365151807763","-0.13311284011","0.92138218405","-90.358644625","182.403165871","-92.2173469471","0.000024470","0.000002301","816"
"226","fanta-small","0.0","-1.10179631756","0.0730000034673","0.323203704492","1.57079632679","-0.830796314464","1.57079632679","SIDE","0.488533923891","0.680861432329","-0.243098581613","-0.488533923891","119.35134942","245.8501958","4.96273065387","0.000422051","0.000020642","818"
"227","fanta-small","0.0","-1.04279631801","1.57079632679","-1.02479631716","1.57079632679","-0.0267963023533","1.41400002153","SIDE","0.983118090386","0.111025542145","-0.145437785141","-1.90567274916e-16","29.5073090766","179.694048126","-130.145761845","0.006075127","0.000008868","819"
"228","fanta-small","0.0","-0.289796305066","1.37900002312","-1.57079632679","1.57079632679","-0.373796305796","1.54279632872","SIDE","8.03471561493e-17","-0.653338391404","-0.309545080293","0.690891300846","120.434675434","246.36346464","5.01713676227","0.001438025","0.000019861","820"
"229","fanta-small","0.0","-0.442796309074","1.57079632679","0.0772036993268","1.29200002225","-1.06279631896","0.0","SIDE","0.689592539727","0.150002703716","-0.1625529058","0.689592539727","1.31918194296","244.553669564","-118.033084483","0.004854911","0.000064122","821"
"230","fanta-small","0.755","-1.57079632679","1.57079632679","-1.19479631871","1.57079632679","-0.0297963024958","1.5127963273","SIDE","0.983118090386","0.111025542145","-0.145437785141","-1.90567274916e-16","28.4492383803","178.886329055","-126.6935049","0.006780766","0.000018143","823"
"231","fanta-small","0.0","-0.358796308344","1.57079632679","-0.339796307441","0.729000011808","-0.099796302561","0.497000010568","SIDE","1.70448531537e-16","0.0556141599622","0.977030732925","-0.20571342234","2.54649771769","245.897507564","145.707883305","0.003770948","0.000022492","824"
"232","fanta-small","0.0","-0.306796305874","1.09500001941","-0.289796305066","1.45100002328","-0.336796307299","1.2930000223","SIDE","1.83509227697e-16","-0.145437785141","-0.111025542145","0.983118090386","34.1713989534","183.254561006","-145.363683224","0.008128012","0.000029944","827"
"233","fanta-small","0.0","-0.420796308029","1.17000001972","-0.511796309091","1.27500002144","-0.160796305458","0.949000015738","SIDE","-1.23232956853e-16","0.943144397882","0.045817768067","-0.329210232029","99.0704996003","120.57945608","124.966203854","0.012236443","0.000039790","830"
"234","fanta-small","0.0","-0.251796306521","1.57079632679","-0.398796306984","0.789000014658","-0.0537963036357","0.711000010953","SIDE","0.975231122193","0.221010190987","-0.00887433299876","-1.97444791754e-16","1.71400141009","254.386422724","-138.611159995","0.005928359","0.000016855","832"
"235","fanta-small","0.755","-1.37279632065","1.57079632679","-0.421796308076","1.44200002286","-0.318796306444","1.51579632744","SIDE","0.711958159094","0.258536626856","0.652896923161","-3.89848409785e-17","-129.934150228","227.413371413","-1.81984136743","0.003876764","0.000043983","833"
"236","fanta-small","0.0","-0.879796313532","1.57079632679","-0.833796314607","1.57079632679","-0.301796305636","1.57079632679","SIDE","-9.03062147517e-17","0.363188295447","-0.133867392089","0.922048688186","-90.2490073382","181.244847933","-93.1596076197","0.000541628","0.000003113","837"
"237","fanta-small","0.755","-0.589796309537","0.791000014753","-0.737796313307","1.57079632679","-0.0567963037782","0.671000012313","SIDE","2.85329428144e-16","-0.291802510495","-0.123771483648","0.948436563353","92.524676685","186.737193084","-125.263664529","0.011123985","0.000055260","838"
"238","fanta-small","0.0","-0.478796307524","1.01200001547","-0.507796308901","1.34600002156","-0.0547963036832","0.641000010888","SIDE","2.92645567327e-16","-0.291802510495","-0.123771483648","0.948436563353","92.9121353475","186.901538255","-125.823009245","0.009586549","0.000027087","839"
"239","fanta-small","0.755","-0.616796310819","1.57079632679","-0.273796304306","-2.72466833099e-15","-0.200796304099","0.579000011203","SIDE","0.711958159094","0.258536626856","0.652896923161","-3.89848409785e-17","-153.09224445","236.583602351","-2.16282318683","0.005371887","0.000007602","840"
"240","fanta-small","3.33066907388e-16","-0.482796307714","0.997000018018","-0.312796306159","1.38600002346","-0.230796305523","1.18200002029","SIDE","4.09914391576e-16","0.652941469461","-0.137530440136","0.744817303434","-152.878219896","181.928494247","-13.7263438863","0.006269912","0.000027823","841"
"241","fanta-small","0.0","-0.850796315414","1.57079632679","-1.57079632679","1.57079632679","-0.271796304211","1.57079632679","SIDE","-1.19554361126e-16","0.943144397882","0.045817768067","-0.329210232029","83.6017489986","119.827987239","105.45566441","0.000017830","0.000003870","842"
"242","fanta-small","0.755","-0.604796310249","1.57079632679","-0.484796307809","2.45663678266e-15","-0.142796304603","0.799000015133","SIDE","0.92138218405","0.13311284011","0.365151807763","3.0123846647e-17","-109.340835407","189.322954497","-111.904830526","0.008840972","0.000025617","843"
"243","fanta-small","0.755","-0.557796311276","1.57079632679","-0.439796308931","1.57079632679","-1.57079632679","1.57079632679","SIDE","0.678754899266","0.277800108494","-0.0375589292258","-0.678754899266","58.5510136506","213.362707702","-117.789385355","0.003646709","0.000009801","845"
"244","fanta-small","0.0","-1.57079632679","1.57079632679","-0.447796309311","1.57079632679","-0.393796306746","1.49800002552","SIDE","-0.251324681613","0.193716648204","0.914410011446","-0.251324681613","76.9686452659","217.386717571","103.673014903","0.000776705","0.000018459","846"
"245","fanta-small","0.0","-0.262796307043","0.631000010413","-0.608796310439","1.57079632679","-0.228796305428","-2.28779236864e-16","SIDE","1.205546118e-16","-0.665332123454","-0.283320687257","0.690697150473","152.934405357","231.501846255","6.17628445754","0.002202808","0.000013257","847"
"246","fanta-small","0.0","-0.907796314862","1.57079632679","-0.98879631545","1.57079632679","-0.238796305903","1.57079632679","SIDE","0.922709629879","-0.0141065742894","0.385237515683","-7.70813051169e-17","-96.679850179","114.035962651","-94.8481566631","0.000014908","0.000004331","848"
"247","fanta-small","0.0","-0.895796314292","1.57079632679","-1.52579632466","1.57079632679","-0.232796305618","1.57079632679","SIDE","0.440896730323","-0.0291604980694","0.897084019779","9.86205253067e-17","-107.181564668","114.063318485","82.6422406626","0.000030201","0.000002766","849"
"248","fanta-small","0.0","-0.516796309329","1.31700002018","-0.551796310991","0.949000015738","-0.0117963016408","0.649000011268","SIDE","0.983118090386","0.111025542145","-0.145437785141","-1.90567274916e-16","36.6306981033","185.131961856","-153.387847015","0.009070046","0.000028906","853"
"249","fanta-small","0.755","-0.398796306984","0.898000016576","-0.297796305446","1.38200002327","-0.304796305779","1.11100001691","SIDE","1.87038251306e-16","-0.145437785141","-0.111025542145","0.983118090386","35.658416923","184.38973352","-150.215502795","0.009994836","0.000037902","855"
"250","fanta-small","0.0","-0.860796315889","1.57079632679","-0.155796305221","0.876000015531","-0.523796309661","0.653000011458","SIDE","0.298505355163","0.379602629148","0.875669113811","-4.75446293203e-17","-91.8008330866","186.238461077","129.513797431","0.000017781","0.000028286","857"
"251","fanta-small","0.0","-0.421796308076","1.33900002122","-0.393796306746","0.951000015833","-0.142796304603","0.796000014991","SIDE","0.92138218405","0.13311284011","0.365151807763","4.51857699705e-17","-109.408124285","189.347484059","-111.974619556","0.009292105","0.000028080","858"
"252","fanta-small","0.0","-0.442796309074","1.16200001934","-0.477796307476","1.27600002149","-0.149796304936","0.890000016196","SIDE","2.75162970747e-16","-0.00511729333749","-0.0225824203473","0.999731887858","0.716934833629","115.794155413","-160.993599413","0.007883174","0.000033405","863"
"253","fanta-small","0.0","-0.882796313674","1.57079632679","-1.0297963174","1.57079632679","-0.089796302086","1.47100002423","SIDE","2.9996170651e-16","-0.291802510495","-0.123771483648","0.948436563353","79.1241429465","181.053198318","-105.918329254","0.005532345","0.000019830","864"
"254","fanta-small","0.0","-0.467796310261","1.20400001807","-0.506796308854","1.26800002111","-0.126796303843","0.906000013696","SIDE","7.48644245844e-17","-0.695403028694","-0.0208463203842","0.718317519353","159.327594816","120.554378662","-4.34987963264","0.011692245","0.000037282","866"
"255","fanta-small","0.755","-0.916796315289","1.57079632679","-1.42479632312","1.57079632679","-0.0907963021335","1.49100002518","SIDE","2.92645567327e-16","-0.291802510495","-0.123771483648","0.948436563353","78.736684284","180.888853147","-105.358984539","0.012367080","0.000049707","867"
"256","fanta-small","0.0","-0.911796315052","1.57079632679","-1.04079631792","1.57079632679","-0.259796306901","1.57079632679","SIDE","-0.329210232029","-0.045817768067","0.943144397882","1.91286977802e-16","82.8565662655","119.791786409","104.515774855","0.000787639","0.000003795","869"
"257","fanta-small","0.0","-0.552796311039","1.10300001653","-0.547796310801","1.38000002317","-0.00279630121333","0.627000010223","SIDE","2.35007895383e-16","-0.202507499005","-0.0979964481888","0.974365131247","70.463495007","181.420326964","-140.580950276","0.009803645","0.000026056","872"
"258","fanta-small","0.0","-0.640796311959","1.57079632679","-0.763796314541","1.57079632679","-0.547796310801","1.57079632679","SIDE","0.948436563353","0.123771483648","-0.291802510495","-2.19484175495e-16","75.7477180518","179.621047792","-101.044040447","0.000444249","0.000003069","874"
"259","fanta-small","0.755","-0.776796311899","1.57079632679","-0.491796308141","0.951000015833","-0.118796303463","0.843000013963","SIDE","0.744817303434","0.137530440136","0.652941469461","-5.5897417033e-17","-155.796151664","182.543104376","-14.0548606825","0.008573010","0.000040951","875"
"260","fanta-small","0.0","-0.463796310071","1.22600001912","-0.489796308046","1.28800002206","-0.140796304508","0.942000015406","SIDE","4.79758282367e-16","-0.335487893496","-0.0151169944868","0.941923218631","100.10543051","120.345637174","-123.925027134","0.012226304","0.000039997","876"
"261","fanta-small","0.755","-0.137796304366","0.430000007385","-0.942796316524","1.57079632679","-0.404796307269","3.60005435143e-16","SIDE","6.87229929668e-17","0.807752235967","0.416610784989","-0.417099243731","113.127204928","215.924548011","110.454851121","0.005986781","0.000030855","877"
"262","fanta-small","2.39771310445e-16","-0.258796306853","0.740000012331","-0.956796317189","1.57079632679","-0.404796307269","5.36640836745e-16","SIDE","6.87229929668e-17","0.807752235967","0.416610784989","-0.417099243731","113.127204928","215.924548011","110.454851121","0.000221752","0.000025189","878"
"263","fanta-small","0.0","-0.448796309359","1.37700002303","-0.406796307364","0.987000017543","-0.136796304318","0.816000012681","SIDE","0.922048688186","0.133867392089","0.363188295447","-1.27933804232e-16","-108.716106955","187.863285118","-111.447263541","0.009096695","0.000027750","879"
"264","fanta-small","0.755","-0.186796303434","0.686000013025","-0.978796314975","1.57079632679","-0.446796309264","0.0","SIDE","0.2733453756","0.859584914468","0.334183162496","0.2733453756","-111.981850971","203.211894272","114.616583766","0.003967676","0.000027027","881"
"265","fanta-small","0.755","-0.648796312339","1.57079632679","-0.494796308284","0.755000013043","-0.137796304366","0.835000013583","SIDE","0.922048688186","0.133867392089","0.363188295447","-1.42984840024e-16","-108.381229643","187.739852857","-111.097089736","0.009465183","0.000037763","882"
"266","fanta-small","0.0","-0.438796308884","1.37900002312","-0.397796306936","0.987000017543","-0.147796304841","0.840000013821","SIDE","0.922048688186","0.133867392089","0.363188295447","-1.35459322128e-16","-108.004200677","187.789225761","-111.725820935","0.009021948","0.000027816","884"
"267","fanta-small","0.0","-0.443796309121","1.21200001845","-0.500796308569","1.2740000214","-0.137796304366","0.941000015358","SIDE","0.440896730323","-0.0291604980694","0.897084019779","1.00554261097e-16","-126.886441371","113.422794291","97.8677345089","0.010930084","0.000034951","885"
"268","fanta-small","0.755","-1.57079632679","1.57079632679","-0.298796305494","1.30800001975","-0.372796305749","1.41000002134","SIDE","-0.251324681613","0.193716648204","0.914410011446","-0.251324681613","78.3611432524","218.292357778","105.541374063","0.004518174","0.000039342","886"
"269","fanta-small","0.755","-0.639796311911","1.57079632679","-0.486796307904","0.775000013993","-0.148796304888","0.861000014818","SIDE","0.922048688186","0.133867392089","0.363188295447","-1.35459322128e-16","-107.602347902","187.641107048","-111.305612368","0.011204323","0.000044697","891"
"270","fanta-small","0.0","-0.440796308979","1.31400002004","-0.465796310166","1.24000001978","-0.161796305506","1.01600001566","SIDE","2.74200864893e-16","0.38223144371","0.0272554912338","0.923664582864","-112.452911625","83.6701653193","-111.493728487","0.015010742","0.000032546","892"
"271","fanta-small","0.0","-0.498796308474","1.27100002125","-0.508796308949","1.27800002159","-0.115796303321","0.932000014931","SIDE","-3.60352194205e-17","0.890583846071","0.0100489188832","-0.454708073764","127.166214977","117.873248172","94.4714964103","0.012485167","0.000037698","893"
"272","fanta-small","0.0","-0.561796311466","1.57079632679","-0.909796314957","1.57079632679","-0.312796306159","1.57079632679","SIDE","2.38335816248e-16","-0.691701493049","-0.182535379435","0.698734484457","131.957822828","183.286554037","2.20645710813","0.000016871","0.000007951","894"
"273","fanta-small","0.0","-0.470796307144","1.2740000214","-0.456796309739","1.18200002029","-0.138796304413","0.899000016623","SIDE","0.999731887858","0.0225824203473","-0.00511729333749","-1.3786616477e-16","0.712842096312","115.77609432","-160.59402831","0.007438739","0.000031989","895"
"274","fanta-small","0.0","-0.457796309786","0.931000014883","-0.386796306414","1.39400002384","-0.164796305648","1.02400001604","SIDE","6.0247693294e-17","0.365151807763","-0.13311284011","0.92138218405","-107.120303146","188.513479234","-109.601793278","0.008406007","0.000035918","896"
"275","fanta-small","0.0","-0.455796309691","1.2320000194","-0.480796307619","1.28200002178","-0.145796304746","0.971000016783","SIDE","0.999944701925","-0.0105114453953","0.000320325644191","-7.8451871131e-17","-0.683371968135","114.037122598","-159.313231262","0.015290983","0.000038472","899"
"276","fanta-small","0.0","-0.939796316382","1.57079632679","-1.57079632679","1.57079632679","-0.238796305903","1.57079632679","SIDE","4.79758282367e-16","-0.335487893496","-0.0151169944868","0.941923218631","84.3621193776","119.636247797","-104.633759127","0.000026434","0.000003541","901"
"277","fanta-small","0.0","-0.447796309311","0.897000016528","-0.386796306414","1.38100002322","-0.175796302911","1.03000001633","SIDE","-9.03062147517e-17","0.363188295447","-0.133867392089","0.922048688186","-107.175672036","187.295496982","-109.836464787","0.008443327","0.000033022","904"
"278","fanta-small","0.0","-0.455796309691","0.890000016196","-0.396796306889","1.37400002289","-0.162796305553","1.002000015","SIDE","-8.27806968557e-17","0.363188295447","-0.133867392089","0.922048688186","-106.932593995","187.394242791","-110.605265508","0.007954174","0.000029893","906"
"279","fanta-small","0.755","-0.366796308724","-2.713988643e-16","-0.305796305826","0.512000008021","-0.667796313241","1.57079632679","SIDE","0.693739074098","0.147856720792","0.124862261135","-0.693739074098","3.79446429639","236.638192804","-150.541576389","0.008345718","0.000015855","907"
"280","fanta-small","0.0","-0.446796309264","1.21600001864","-0.475796307381","1.26900002116","-0.149796304936","0.971000016783","SIDE","0.922709629879","-0.0141065742894","0.385237515683","-7.61412892009e-17","-113.809813491","113.395041421","-112.528074013","0.015332395","0.000037006","909"
"281","fanta-small","0.0","-0.453796309596","1.21400001855","-0.482796307714","1.26600002102","-0.140796304508","0.953000015928","SIDE","0.922709629879","-0.0141065742894","0.385237515683","-7.8961336949e-17","-114.325002003","113.389834912","-112.291308215","0.008105417","0.000021659","910"
"282","fanta-small","0.0","-0.894796314244","1.57079632679","-0.977796314927","1.57079632679","-0.254796306663","1.57079632679","SIDE","0.922709629879","-0.0141065742894","0.385237515683","-7.61412892009e-17","-96.1006784408","114.043512089","-95.0216717103","0.000236704","0.000004607","911"
"283","fanta-small","0.755","-0.394796306794","0.524000008591","-0.599796310012","1.57079632679","-0.163796305601","0.670000012266","SIDE","0.1349400574","0.988261292493","0.0716295935299","-1.52713602725e-16","-3.12469778821","191.51490975","157.707669921","0.010511642","0.000032368","912"
"284","fanta-small","0.755","-0.139796304461","1.33300002094","-1.57079632679","1.57079632679","-0.797796312897","0.948000015691","SIDE","7.08444492789e-17","0.783563875452","0.509607164304","-0.355426773296","76.5230459102","217.096912705","103.075139971","0.009191619","0.000068207","915"
"285","fanta-small","0.0","-0.443796309121","1.26700002106","-0.507796308901","1.26400002092","-0.150796304983","0.998000018066","SIDE","-0.329210232029","-0.045817768067","0.943144397882","1.91286977802e-16","98.3253168672","120.54325525","124.0263143","0.010841100","0.000027854","916"
"286","fanta-small","0.0","-0.345796307726","0.879000015673","-0.407796307411","1.27300002135","-0.170796302674","0.753000012948","SIDE","0.1349400574","0.988261292493","0.0716295935299","-1.56224260259e-16","-3.08796812036","191.008156783","155.876863319","0.008329159","0.000026776","917"
"287","fanta-small","0.0","-1.57079632679","1.57079632679","-0.422796308124","1.57079632679","-0.410796307554","1.47900002461","SIDE","0.528294668179","0.329382193721","0.782567641826","-1.05076114856e-16","-117.108177268","216.031957989","62.2029066863","0.000479733","0.000023261","919"
"288","fanta-small","0.0","0.0512036980919","1.57079632679","-0.979796315022","0.741000012378","0.0142036995941","1.27700002154","SIDE","-0.0677787363144","-0.36164933594","0.927373626766","-0.0677787363144","9.9350028812","240.717806314","149.869403581","0.003500357","0.000024346","920"
"289","fanta-small","0.755","-1.57079632679","1.57079632679","-0.280796304639","1.30800001975","-0.397796306936","1.42200002191","SIDE","0.528294668179","0.329382193721","0.782567641826","-1.05076114856e-16","-118.431141551","216.588792766","62.9098019098","0.004961832","0.000056100","921"
"290","fanta-small","0.0","-0.466796310214","1.28900002211","-0.478796307524","1.25500002049","-0.145796304746","0.985000017448","SIDE","0.941923218631","0.0151169944868","-0.335487893496","-1.40888708641e-16","99.6630251111","120.325702505","-123.38292001","0.014666660","0.000041142","925"
"291","fanta-small","0.755","-0.284796304829","-3.10651175767e-16","-0.391796306651","0.353000006988","-0.491796308141","1.57079632679","SIDE","-0.145461355918","-0.65153990704","0.730190206319","-0.145461355918","2.61742931301","247.143635324","148.545511807","0.008515123","0.000013003","926"
"292","fanta-small","0.0","-0.294796305304","0.0","-0.307796305921","0.26000000583","-0.0367963028282","0.0230000010924","TOP","-3.85785832773e-17","-0.0356168653689","0.719455543925","-0.693624652976","-5.69063121831","336.171535398","3.64369896568","0.009425591","0.000036409","927"
"293","fanta-small","0.0","-0.298796305494","1.38600002346","-0.380796306129","0.964000016451","-0.275796304401","1.21000001836","SIDE","0.948436563353","0.123771483648","-0.291802510495","-2.12168036312e-16","89.5357104528","185.46938773","-120.948720437","0.008069632","0.000029648","929"
"294","fanta-small","0.0","-0.492796308189","1.36600002251","-0.427796308361","1.06800001813","-0.114796303273","0.752000012901","SIDE","0.744817303434","0.137530440136","0.652941469461","-5.5897417033e-17","-158.033233485","183.014305642","-14.3067236495","0.008763175","0.000018351","935"
"295","fanta-small","0.755","-0.470796307144","0.331000005943","-0.410796307554","1.50379632687","-0.116796303368","0.578000011155","SIDE","2.5659325785e-16","-0.014786689921","-0.169861886259","0.985356937053","3.38444815757","222.502671817","-154.816861752","0.013792950","0.000054265","938"
"296","fanta-small","0.755","-0.807796313372","1.57079632679","-0.095796302371","0.438000007765","-0.494796308284","0.113000002108","SIDE","0.372277813482","0.472565785664","0.798805863655","-1.38985337382e-16","-99.7281187893","225.475604558","119.936438561","0.006980785","0.000032463","939"
"297","fanta-small","0.755","-0.422796308124","1.57079632679","-0.563796311561","1.47500002442","-1.57079632679","1.57079632679","SIDE","-0.145461355918","-0.65153990704","0.730190206319","-0.145461355918","2.04951896269","237.166574334","125.826177929","0.001154464","0.000019815","940"
"298","fanta-small","0.755","-0.790796312564","1.57079632679","-0.191796303671","-4.87286577369e-16","-0.241796306046","0.409000006388","SIDE","-0.251324681613","0.193716648204","0.914410011446","-0.251324681613","92.2359923242","227.316156236","124.157703579","0.004178589","0.000012546","942"
"299","fanta-small","0.755","-0.609796310487","1.56979633001","-1.15579632012","1.57079632679","-0.261796306996","1.54579632887","SIDE","0.1349400574","0.988261292493","0.0716295935299","-1.50958273958e-16","-2.64489236761","184.895116146","133.791555701","0.008849406","0.000096647","944"
"300","fanta-small","0.755","-0.515796309281","1.57079632679","-0.467796310261","6.51030455176e-16","-0.124796303748","0.615000009653","SIDE","0.960739374796","0.177027884234","0.213637501201","-1.73338845125e-16","-68.9317833876","222.902076668","-137.955672648","0.010495747","0.000023773","945"
"301","fanta-small","0.0","-0.190796303624","4.84208131441e-16","-0.236796305808","0.253000005498","-0.127796303891","0.0760000036098","TOP","0.490466695718","0.483546966845","0.533916820899","-0.490466695718","-5.57698942617","333.875987586","3.55682869265","0.005816503","0.000029589","947"
"302","fanta-small","0.755","-1.19179631857","1.57079632679","-1.50579632371","1.57079632679","-0.00879630149831","1.49100002518","SIDE","2.38568621071e-16","-0.202507499005","-0.0979964481888","0.974365131247","59.6466183481","176.185876396","-115.945532375","0.011073913","0.000042814","948"
"303","fanta-small","0.0","-0.702796311644","0.346000006655","-0.205796304336","1.42200002191","-0.136796304318","1.04900001723","SIDE","-3.54673182638e-17","0.782567641826","-0.329382193721","0.528294668179","-129.684605468","221.325368154","68.9228288624","0.003275493","0.000040063","949"
"304","fanta-small","0.755","-0.208796304479","-1.34015774165e-16","-0.534796310184","0.0610000028973","-0.786796312374","1.57079632679","SIDE","-0.126031549362","-0.600831453274","0.779251988697","-0.126031549362","5.58636721337","224.57563636","154.082947775","0.004199304","0.000017510","952"
"305","fanta-small","0.0","-0.379796306081","1.55679632939","-1.57079632679","1.57079632679","-0.448796309359","1.44900002319","SIDE","0.263240166398","0.898995514642","0.230686571442","0.263240166398","-84.8532862157","216.67579817","101.858748893","0.002747923","0.000045415","956"
"306","fanta-small","0.0","-0.456796309739","1.28900002211","-0.490796308094","1.27800002159","-0.161796305506","1.03400001652","SIDE","7.73494316131e-18","0.897084019779","0.0291604980694","0.440896730323","-125.699877064","113.461364598","96.9509042322","0.012714278","0.000039256","959"
"307","fanta-small","0.0","-0.790796312564","1.57079632679","-0.275796304401","0.775000013993","-0.244796306188","0.473000009428","SIDE","-0.251324681613","0.193716648204","0.914410011446","-0.251324681613","90.8434943377","226.410516029","122.289344418","0.002487952","0.000026356","960"
"308","fanta-small","2.22044604925e-16","-0.444796309169","1.28800002206","-0.440796308979","1.28400002187","-0.174796302864","1.05000001728","SIDE","2.27561466211e-16","0.689426175358","0.0152996316528","0.724194359273","-159.03063684","133.912415749","-6.41926601446","0.013903689","0.000036734","962"
"309","fanta-small","0.0","-0.448796309359","1.31300001999","-0.472796307239","1.23800001969","-0.152796305078","0.999000018113","SIDE","2.74200864893e-16","0.38223144371","0.0272554912338","0.923664582864","-112.227953373","83.6600953459","-112.001066412","0.014082863","0.000032563","963"
"310","fanta-small","0.755","-0.640796311959","0.0","-0.198796304004","0.681000012788","-0.533796310136","1.57079632679","SIDE","0.515987313497","0.625999479135","-0.275025156564","-0.515987313497","148.366104986","238.577917741","-9.25776580937","0.005576725","0.000016481","965"
"311","fanta-small","0.755","-0.242796306093","1.26800002111","-1.57079632679","1.57079632679","-0.437796308836","1.403000021","SIDE","0.263240166398","0.898995514642","0.230686571442","0.263240166398","-85.6264682848","217.133205168","102.798412948","0.005426394","0.000039216","966"
"312","fanta-small","0.0","-1.57079632679","1.57079632679","-0.542796310564","1.56579632982","-0.172796302769","1.44200002286","SIDE","1.68673026e-16","0.0556141599622","0.977030732925","-0.20571342234","1.97652806312","235.884268674","122.906166669","0.003757482","0.000034019","967"
"313","fanta-small","0.755","-0.210796304574","0.31200000504","-0.789796312517","1.57079632679","-0.229796305476","0.0","SIDE","8.03697412002e-17","-0.665332123454","-0.283320687257","0.690697150473","151.831502084","231.032193126","6.12123458292","0.004792536","0.000015279","970"
"314","fanta-small","0.0","-0.443796309121","1.28600002197","-0.461796309976","1.2930000223","-0.172796302769","1.04800001718","SIDE","-0.454708073764","-0.0100489188832","0.890583846071","-5.64876412538e-17","126.032339044","117.860454062","93.6504227696","0.015161615","0.000032261","974"
"315","fanta-small","0.755","-0.339796307441","1.57079632679","-0.812796313609","0.783000014373","-1.57079632679","1.57079632679","SIDE","0.499422485015","-0.299472264885","0.641459839341","-0.499422485015","-131.463308378","214.724821497","0.0107375396348","0.001899121","0.000026708","975"
"316","fanta-small","0.755","-0.658796312814","1.26300002087","-0.887796313912","1.57079632679","-0.157796305316","1.36900002265","SIDE","1.39241811306e-16","-0.0162595383527","-0.192841441479","0.981095207338","3.05396525765","227.855723158","-129.070107339","0.010074097","0.000070913","977"
"317","fanta-small","0.0","-0.447796309311","1.31000001985","-0.474796307334","1.29200002225","-0.166796305743","1.05300001742","SIDE","0.718317519353","0.0208463203842","-0.695403028694","-1.3523896054e-16","156.829993768","120.479507271","-4.26997933461","0.011239932","0.000033174","979"
"318","fanta-small","0.755","-0.460796309929","1.57079632679","-0.411796307601","-6.60420733389e-15","-0.095796302371","0.40800000634","SIDE","1.70448531537e-16","0.0556141599622","0.977030732925","-0.20571342234","2.6082768491","246.982844645","148.179366194","0.008775737","0.000012864","992"
"319","fanta-small","2.22044604925e-16","-0.782796312184","1.57079632679","-1.0467963182","1.57079632679","-0.140796304508","1.51179632725","SIDE","0.494600540618","-0.0658938127291","0.866618895862","3.20274295289e-17","-118.373639555","82.9740484767","74.6022340404","0.006402018","0.000030300","993"
"320","fanta-small","0.0","-0.242796306093","1.4050000211","-0.332796307109","1.09000001918","-0.346796307774","1.33600002108","SIDE","0.974365131247","0.0979964481888","-0.202507499005","-1.38868301817e-16","67.6221413121","180.045352844","-134.109772145","0.009117010","0.000031781","995"
"321","fanta-small","0.0","-0.957796317237","1.57079632679","-0.956796317189","1.57079632679","-0.270796304164","1.57079632679","SIDE","-3.48497445389e-17","0.920878609877","0.0172174948202","0.389469053639","-96.3309964046","135.350681438","92.8772460139","0.001633113","0.000009131","996"
"322","fanta-small","0.0","-0.459796309881","1.29200002225","-0.459796309881","1.2910000222","-0.154796305173","1.02500001609","SIDE","-3.48497445389e-17","0.920878609877","0.0172174948202","0.389469053639","-114.1345671","135.017811413","110.167545838","0.014147919","0.000038023","998"
"323","fanta-small","0.755","-0.97279631469","1.57079632679","-0.112796303178","0.438000007765","-0.387796306461","0.414000006625","SIDE","0.386568737385","0.371515141667","0.844121502385","0.0","-112.373424175","203.38423365","115.037261326","0.000608373","0.000027907","999"
"324","fanta-small","0.755","-0.143796304651","1.29800002254","-1.57079632679","1.57079632679","-0.744796313639","0.982000017306","SIDE","0.373560742334","0.786267269054","0.32045050349","0.373560742334","-117.025492","215.997155816","62.1587257348","0.006950632","0.000064624","1003"
"325","fanta-small","0.0","-0.682796310694","0.40400000615","-0.210796304574","1.42800002219","-0.129796303986","1.03500001656","SIDE","0.251324681613","0.914410011446","-0.193716648204","-0.251324681613","85.7748018484","223.113985794","115.488517317","0.003154651","0.000034958","1007"
"326","fanta-small","0.0","-0.950796316904","1.57079632679","-0.964796317569","1.57079632679","-0.252796306568","1.57079632679","SIDE","-1.15217466332e-17","0.903364844515","0.0277410211868","0.427974757946","-104.664163422","134.291989498","84.255599715","0.000648107","0.000009950","1009"
"327","fanta-small","0.755","-0.351796308011","0.799000015133","-0.810796313514","1.57079632679","-0.201796304146","0.840000013821","SIDE","1.58890544166e-16","-0.691701493049","-0.182535379435","0.698734484457","153.813358017","189.05408302","2.7387019416","0.006448682","0.000034327","1012"
"328","fanta-small","0.0","-0.328796306919","0.924000014551","-0.449796309406","1.30600001966","-0.194796303814","0.748000012711","SIDE","1.98613180207e-16","-0.691701493049","-0.182535379435","0.698734484457","156.036610312","189.640784372","2.79284449804","0.007764431","0.000014916","1013"
"329","fanta-small","0.0","-0.797796312897","1.57079632679","-0.266796307233","0.748000012711","-0.262796307043","0.443000008003","SIDE","0.528294668179","0.329382193721","0.782567641826","-1.05076114856e-16","-137.705076165","224.701178872","73.2083810111","0.002009004","0.000017675","1014"
"330","fanta-small","0.755","-0.788796312469","1.57079632679","-0.175796302911","-3.4312099374e-15","-0.260796306948","0.409000006388","SIDE","0.528294668179","0.329382193721","0.782567641826","-1.05076114856e-16","-139.028040448","225.258013648","73.9152762346","0.004574417","0.000019242","1015"
"331","fanta-small","0.755","-0.942796316524","1.57079632679","-0.135796304271","0.407000006293","-0.368796308819","0.275000006543","SIDE","-0.29493370367","0.276578772389","0.865755394752","-0.29493370367","113.127204928","215.924548011","110.454851121","0.002062187","0.000026321","1016"
"332","fanta-small","0.0","-0.356796308249","1.16700001957","-0.619796310961","1.29000002216","-0.224796305239","1.04900001723","SIDE","-0.0152410490282","-0.144221360492","0.98942807197","5.39127081568e-17","3.26755824935","110.537996868","159.893292969","0.008105102","0.000042765","1018"
"333","fanta-small","0.0","-0.749796313877","1.57079632679","-0.997796315877","1.57079632679","-0.143796304651","1.48600002495","SIDE","0.743255788215","-0.0601859781871","0.666294590489","7.46864701378e-17","-140.272563545","80.2945168994","-11.5908237523","0.005648802","0.000029306","1021"
"334","fanta-small","0.0","-1.02679631725","1.57079632679","-0.933796316097","1.57079632679","-0.253796306616","1.57079632679","SIDE","-1.38869589492e-16","0.924389117099","-0.0367726751393","0.379674242677","-95.2722939779","112.821863149","94.5857282191","0.000626208","0.000003406","1023"
"335","fanta-small","0.755","-1.06379631901","1.4830000248","-0.166796305743","0.698000013595","-0.447796309311","0.446000008145","SIDE","-0.248774468249","0.336675618531","0.873425472368","-0.248774468249","99.5354992565","192.25457987","124.741066096","0.012035712","0.000076878","1025"
"336","fanta-small","0.0","-0.567796311751","1.57079632679","-0.906796314814","1.57079632679","-0.364796308629","1.57079632679","SIDE","0.332931533547","-0.0825507234534","0.939330597834","9.97253447495e-17","-89.7250065951","84.1699522647","104.898979519","0.000104309","0.000008820","1027"
"337","fanta-small","0.755","-0.328796306919","1.28100002173","-1.57079632679","1.57079632679","-0.340796307489","1.39800002403","SIDE","8.03697412002e-17","-0.665332123454","-0.283320687257","0.690697150473","129.019787475","221.318201523","4.9826197472","0.007100661","0.000054077","1028"
"338","fanta-small","0.0","-1.11579631822","1.57079632679","-0.598796309964","1.57079632679","-0.346796307774","1.57079632679","SIDE","-0.0224462197936","0.994080310908","-0.103907025263","0.0224462197936","-5.79183388061","85.7663639777","137.448117057","0.000269664","0.000009892","1029"
"339","fanta-small","1.66533453694e-16","-0.273796304306","1.5507963291","-0.503796308711","0.798000015086","-0.0997963025609","0.929000014788","SIDE","0.878283569507","0.20711517826","-0.430953912231","-2.21214464274e-16","114.931385141","222.622023026","-83.9290888643","0.007946532","0.000026060","1030"
"340","fanta-small","0.0","-0.98479631526","1.57079632679","-0.967796317712","1.57079632679","-0.245796306236","1.57079632679","SIDE","3.25246278139e-17","0.383896181452","0.00198059942827","0.923374138198","-95.4926177787","136.338499019","-94.3863000283","0.003047403","0.000011439","1031"
"341","fanta-small","0.0","-0.987796315402","1.57079632679","-0.970796314595","1.57079632679","-0.239796305951","1.57079632679","SIDE","3.26420452428e-17","0.383896181452","0.00198059942827","0.923374138198","-95.4532735381","136.338133252","-94.5676434813","0.002596325","0.000011110","1032"
"342","fanta-small","0.0","-1.01779631683","1.57079632679","-0.623796311151","1.57079632679","-0.320796306539","1.57079632679","SIDE","5.10418876e-17","0.951615616335","-0.0789628031011","-0.296972379985","78.7391450737","85.0499852314","112.155331963","0.000079688","0.000008588","1033"
"343","fanta-small","0.755","-0.568796311799","-3.30277331501e-16","-0.159796305411","0.798000015086","-1.04479631811","1.5317963282","SIDE","0.695169468419","0.18134695785","-0.0243331303781","-0.695169468419","37.0596456829","185.459415533","-154.787410641","0.012892850","0.000060105","1037"
"345","fanta-small","0.755","-0.97279631469","1.57079632679","-0.586796309394","1.38100002322","-0.163796305601","1.35600002203","SIDE","1.70448531537e-16","0.0556141599622","0.977030732925","-0.20571342234","2.03830719453","236.969605755","125.377649558","0.010449584","0.000056437","1039"
"346","fanta-small","0.0","-0.480796307619","1.28500002192","-0.484796307809","1.25000002026","-0.137796304366","0.974000016926","SIDE","3.18665395544e-16","0.385237515683","0.0141065742894","0.922709629879","-113.596536058","113.402851184","-112.317238163","0.009715136","0.000021202","1040"
"347","fanta-small","0.0","-0.507796308901","0.816000012681","-0.267796307281","1.54979632906","-0.0967963024185","0.915000014124","SIDE","2.27836410745e-16","0.482984875388","-0.198825537177","0.852756715548","-128.214348495","219.740726752","-70.4853132377","0.008938038","0.000028150","1043"
"348","fanta-small","0.0","-0.477796307476","1.28800002206","-0.472796307239","1.3070000197","-0.141796304556","0.997000018018","SIDE","3.24072103849e-17","0.383896181452","0.00198059942827","0.923374138198","-113.152801699","136.247386495","-111.953818419","0.014537629","0.000039304","1044"
"349","fanta-small","0.0","-0.479796307571","1.28600002197","-0.473796307286","1.30400001956","-0.138796304413","0.989000017638","SIDE","3.25246278139e-17","0.383896181452","0.00198059942827","0.923374138198","-113.113457458","136.247020728","-112.135161872","0.014450337","0.000040900","1045"
"350","fanta-small","0.0","-0.921796315527","1.57079632679","-0.959796317332","1.57079632679","-0.258796306853","1.57079632679","SIDE","0.918863339785","-0.00551357155271","0.394537404219","-1.9728570658e-16","-97.6301434692","108.940560989","-92.8316175621","0.000008636","0.000003006","1047"
"351","fanta-small","0.755","-0.584796309299","1.57079632679","-0.954796317094","1.14700001862","-0.149796304936","1.56979633001","SIDE","0.878283569507","0.20711517826","-0.430953912231","-2.21214464274e-16","98.875426331","214.905576611","-72.417063342","0.012200476","0.000083969","1050"
"352","fanta-small","0.755","-0.360796308439","1.57079632679","-0.649796312386","1.38300002331","-1.57079632679","1.57079632679","SIDE","0.602990056266","-0.200930994986","0.482112766209","-0.602990056266","-116.509043278","214.92212121","-64.0284594607","0.003277913","0.000020677","1051"
"353","fanta-small","0.0","-0.482796307714","1.2720000213","-0.498796308474","1.28200002178","-0.126796303843","0.956000016071","SIDE","0.716890416614","-0.0076722104668","0.697143649296","-5.80749337117e-17","-159.841941527","115.310850163","-3.78768178677","0.015045512","0.000036533","1052"
