ipa-fxm/offline_grasp_database/grasping/grasp_generated/Graspit/ombia/ombia.csv
"id","object","sdh_knuckle_joint","sdh_finger_12_joint","sdh_finger_13_joint","sdh_finger_22_joint","sdh_finger_23_joint","sdh_thumb_2_joint","sdh_thumb_3_joint","direction","qw","qx","qy","qz","pos-x","pos-y","pos-z","eps_l1","vol_l1","iterationstep","energy"
"0","ombia","0.440441","-0.384775","1.47718","-0.825712","1.261242","-0.743212","1.118742","SIDE","0.335533","-0.143777","-0.320395","0.874124","75.046127","206.451645","-144.977244","0.0602","0.11","189","-9.161"
"1","ombia","0.553587","-0.582248","0.81786","-0.327873","1.072235","-0.538498","0.86161","SIDE","0.012542","-0.841752","0.179875","-0.508863","-178.928224","124.706225","123.852701","0.0549","0.0287","173","-6.354"
"2","ombia","0.560733","-0.418023","0.842623","-0.253648","1.006998","-0.524898","0.735748","SIDE","0.101793","-0.849606","0.086675","-0.510191","-184.48297","93.067269","129.754124","0.0518","0.0198","193","-5.774"
"3","ombia","0.618315","-0.500614","0.950373","-0.561239","0.889748","-0.467489","0.983498","SIDE","0.004507","-0.748365","-0.090915","-0.657011","-210.3092","93.52885","37.565569","0.135","0.0362","165","-14.644"
"4","ombia","0.43175","-0.435227","1.015384","-0.564602","0.886009","-0.610227","0.840384","SIDE","0.264098","0.650784","0.430459","0.566955","-171.648484","112.146422","25.70743","0.0","0.0","26","-0.946"
"5","ombia","0.490273","-0.425425","0.865584","-0.288862","1.002147","-0.485425","0.805584","SIDE","0.370139","0.263944","0.885454","-0.096454","-124.603578","189.118187","117.230632","0.0","0.0","113","-0.852"
"6","ombia","0.587403","-0.550515","0.999458","-0.633015","0.916958","-0.673328","1.309458","TOP","0.330478","-0.33798","0.535529","-0.699831","-160.692307","215.971529","-54.024425","0.157","0.125","120","-19.259"
"7","ombia","0.6826","-0.403364","0.975203","-0.442739","0.935828","-0.459614","0.918953","SIDE","0.416241","-0.03929","-0.900767","-0.117554","155.066394","89.05601","153.672224","0.053","0.0222","135","-5.983"
"8","ombia","0.492397","-0.412677","0.890746","-0.282677","1.531996","-0.276427","1.039496","SIDE","0.433954","-0.177702","-0.878942","-0.086983","113.864844","62.735183","107.173078","0.143","0.164","178","-19.179"
"9","ombia","0.515707","-0.466382","0.894937","-0.393257","0.968062","-0.374507","0.986812","SIDE","0.995394","0.011616","-0.023586","0.092197","14.750157","133.549217","-210.093282","0.0849","0.0154","79","-8.911"
"10","ombia","0.463041","-0.433391","1.218569","-0.525266","1.418569","-0.221204","1.137319","SIDE","0.994298","-0.013079","0.104368","0.017523","-35.236821","87.839745","-157.584596","0.0852","0.134","156","-12.569"
"11","ombia","0.523917","-0.518506","1.570796","-0.365381","1.222878","-0.355068","1.025378","SIDE","0.909161","0.117567","0.399493","-0.003135","-116.348253","114.199268","-112.685308","0.104","0.081","180","-12.697"
"12","ombia","0.478515","-0.518408","1.081304","-0.457158","0.961304","-0.287158","1.061304","SIDE","0.970574","0.044266","0.235849","0.020042","-88.429816","113.547343","-155.779617","0.108","0.143","181","-17.627"
"13","ombia","0.42281","-0.410432","0.845756","-0.310119","0.946068","-0.459807","0.796381","SIDE","0.90689","0.075513","0.396199","0.121961","-154.758087","157.252446","-166.378864","0.0535","0.0168","187","-5.857"
"14","ombia","0.472504","-0.622386","0.801601","-0.419261","1.004726","-0.373324","1.050664","SIDE","0.985048","0.012738","0.074298","0.154911","-33.683543","87.505551","-208.315863","0.0764","0.021","16","-8.268"
"15","ombia","1.014888","-0.376595","1.1088","-0.461595","0.7938","-0.394095","0.8613","TOP","0.675452","0.352328","0.640595","-0.096268","-151.671202","249.424061","14.07876","0.122","0.0633","142","-14.065"
"16","ombia","0.593527","-0.479005","0.865098","-0.452442","0.891661","-0.45338","0.890723","SIDE","0.661137","0.159037","0.728276","-0.084958","-198.47309","192.940758","12.686663","0.134","0.0556","196","-15.129"
"17","ombia","0.494191","-0.523914","0.977279","-0.502664","1.342904","-0.237039","1.337904","SIDE","0.65266","0.023904","0.752837","0.081849","-159.978916","56.525556","21.042281","0.211","0.26","109","-28.903"
"18","ombia","0.53171","-0.368761","1.075133","-0.324698","0.982633","-0.581261","0.726071","SIDE","0.760249","0.256179","0.596861","-0.012297","-170.104282","164.368688","-53.412639","0.121","0.0766","181","-14.48"
"19","ombia","0.469149","-0.48519","0.846096","-0.345815","0.985471","-0.385815","0.945471","SIDE","0.976363","-0.036233","0.049187","0.207323","-14.688705","124.233081","-231.868708","0.0944","0.0127","106","-9.825"
"20","ombia","0.615456","-0.450952","0.804528","-0.301889","1.077341","-0.439389","0.816091","SIDE","0.218886","0.862817","-0.095583","0.445534","-133.332412","176.391024","107.972497","0.0744","0.0816","131","-9.728"
"21","ombia","0.430485","-0.421483","0.859655","-0.43492","0.846217","-0.469608","0.81153","SIDE","0.656058","0.076438","0.749934","-0.036668","-213.782482","122.750681","15.540505","0.131","0.0347","157","-14.159"
"22","ombia","0.419954","-0.328046","0.949344","-0.306171","0.971219","-0.331796","0.966844","SIDE","0.499803","0.096432","0.860522","-0.019979","-155.070415","138.673367","71.979727","0.117","0.0434","144","-12.98"
"23","ombia","0.430198","-0.430384","1.326625","-0.455384","0.812875","-0.458822","0.809437","TOP","0.674952","0.286466","0.630067","-0.25572","-133.325511","208.292724","-20.178132","0.185","0.105","164","-21.84"
"24","ombia","0.464653","-0.367819","1.282411","-0.472194","0.811786","-0.417819","0.866161","TOP","0.727134","0.212087","0.628019","-0.17857","-153.235361","205.972044","-33.194077","0.14","0.0714","165","-16.11"
"25","ombia","0.493502","-0.261279","1.085202","-0.485029","0.861452","-0.346279","1.022702","SIDE","0.450756","0.016092","0.873307","-0.184105","-147.968579","193.977483","80.698086","0.0827","0.0469","173","-9.676"
"26","ombia","0.765991","-0.48363","0.833967","-0.52363","0.793967","-0.450193","0.867405","SIDE","0.62479","-0.229515","-0.614356","0.423706","210.369295","132.172308","-52.538726","0.136","0.0357","181","-14.591"
"27","ombia","0.394682","-0.308869","1.306837","-0.408244","0.926212","-0.307619","1.061837","SIDE","0.490736","0.128552","0.849259","-0.146328","-139.743289","160.059373","68.379365","0.133","0.0987","169","-16.237"
"28","ombia","1.025471","-0.397372","0.865562","-0.459247","0.803687","-0.40581","0.857124","SIDE","0.265622","0.870685","0.158074","0.382577","-156.411918","219.906345","117.891018","0.0869","0.0178","184","-9.222"
"29","ombia","0.49642","-0.558773","0.788302","-0.467523","0.919552","-0.34971","0.997365","TOP","0.276092","0.77058","0.149781","-0.554568","151.998839","200.709201","53.015747","0.057","0.084","154","-8.189"
"30","ombia","0.581224","-0.442641","0.8158","-0.403891","0.85455","-0.442641","0.8158","SIDE","0.528654","0.107297","0.840567","-0.049591","-184.637481","159.039702","75.96275","0.104","0.0266","199","-11.183"
"31","ombia","0.523702","-0.527257","0.870295","-0.541944","0.855608","-0.446944","0.950608","SIDE","0.623328","0.030893","0.781316","0.007285","-211.01417","89.973169","43.754341","0.14","0.0361","156","-15.125"
"32","ombia","0.819242","-0.513314","0.838838","-0.529564","0.822588","-0.448626","0.903525","SIDE","0.6881","0.013494","0.725476","0.004667","-216.576107","116.204853","0.91109","0.155","0.0429","152","-16.826"
"33","ombia","0.696012","-0.351149","0.927465","-0.363649","0.914965","-0.398962","0.879652","SIDE","0.148024","0.94107","0.154074","0.262177","-109.886071","207.120446","177.874554","0.0487","0.0085","169","-5.132"
"34","ombia","0.404076","-0.504935","0.773551","-0.370248","0.908239","-0.389623","0.888864","SIDE","0.930842","0.187679","0.296935","0.100691","-127.423789","167.674601","-176.183532","0.0739","0.0222","167","-8.055"
"35","ombia","0.561556","-0.364998","1.068239","-0.551561","0.877926","-0.464998","0.964489","TOP","0.697872","0.21876","0.641686","-0.230994","-156.136302","211.032865","-24.398623","0.161","0.0885","169","-18.804"
"36","ombia","0.874345","-0.423569","0.948323","-0.476694","1.158323","-0.471694","0.900198","TOP","0.143839","0.761095","0.295907","-0.559002","146.039235","235.515806","53.978873","0.103","0.0698","185","-12.375"
"37","ombia","0.609045","-0.40713","0.934075","-0.234942","1.106263","-0.44713","0.977825","SIDE","0.183511","0.87512","0.033365","-0.446516","152.212698","195.774984","76.331594","0.101","0.0481","179","-11.512"
"38","ombia","0.67359","-0.30038","1.019458","-0.356005","1.234458","-0.32288","0.953208","SIDE","0.916722","-0.018727","0.397941","0.030235","-121.571877","111.308531","-126.816061","0.0964","0.0938","165","-12.454"
"39","ombia","0.555564","-0.741667","1.219701","-0.676667","1.448451","-0.295417","1.384701","SIDE","0.057253","0.985358","-0.038265","0.155971","-65.371092","121.321997","155.052056","0.949","0.204","180","-15.644"
"40","ombia","0.608485","-0.436228","1.213056","-0.464978","0.858056","-0.274978","1.048056","SIDE","0.952734","0.173533","0.249358","-0.002377","-89.038013","203.756556","-143.85084","0.049","0.0565","101","-6.635"
"41","ombia","0.722558","-0.424784","0.997077","-0.484471","0.93739","-0.507596","0.914265","SIDE","0.831248","0.135103","-0.524793","0.123963","176.350741","160.690431","-69.172303","0.0885","0.0304","157","-9.765"
"42","ombia","0.481651","-0.233681","1.258802","-0.278681","0.988802","-0.356806","1.151302","SIDE","0.823242","0.083134","-0.54677","0.128079","151.502853","195.595793","-49.345255","0.0859","0.0727","126","-10.771"
"43","ombia","0.871542","-0.326834","0.970576","-0.382459","1.406826","-0.477459","0.819951","SIDE","0.545152","0.256669","-0.580537","-0.547638","158.737247","76.354955","-44.39351","0.0538","0.0493","96","-6.853"
"44","ombia","0.996155","-0.450221","0.835933","-0.348346","0.937808","-0.490846","0.795308","SIDE","0.482766","0.310426","-0.557596","-0.599716","188.130402","65.558062","-47.648586","0.0806","0.0187","132","-8.624"
"45","ombia","0.74152","-0.348483","1.378133","-0.274108","1.023133","-0.266608","1.085633","SIDE","0.849401","0.076781","-0.473182","0.220732","129.499216","205.837284","-79.381131","0.123","0.0719","199","-13.967"
"46","ombia","0.670599","-0.300231","1.145996","-0.386481","1.570796","-0.211481","1.145996","SIDE","0.569164","-0.347583","-0.733952","0.12866","143.129545","126.903992","38.977128","0.0","0.0","49","-0.327"
"47","ombia","0.578866","-0.4671","0.826989","-0.386475","0.907614","-0.427725","0.866364","SIDE","0.794121","2.3e-05","-0.584141","0.167782","197.324897","192.153417","-57.923146","0.103","0.0184","64","-10.836"
"48","ombia","0.54806","-0.22217","1.13778","-0.282795","1.077155","-0.48842","1.00653","SIDE","0.918586","-0.009023","-0.394325","-0.025024","148.968945","92.696787","-99.547489","0.108","0.0363","70","-11.933"
